/* XPM */
static char *Mona_Lisa[] = {
/* columns rows colors chars-per-pixel */
"640 615 256 2 ",
"   c #09010A",
".  c #17060A",
"X  c #0B0516",
"o  c #140A15",
"O  c #1B0B14",
"+  c #140C1B",
"@  c #1B0D1B",
"#  c #140514",
"$  c #1C121C",
"%  c #1A1318",
"&  c #1A150A",
"*  c #260A0A",
"=  c #28150B",
"-  c #37180A",
";  c #250D15",
":  c #23131C",
">  c #2B151B",
",  c #2C1B1C",
"<  c #281615",
"1  c #331C1C",
"2  c #371817",
"3  c #340D0F",
"4  c #292719",
"5  c #38251A",
"6  c #37351B",
"7  c #322910",
"8  c #170E22",
"9  c #1C1323",
"0  c #1A1628",
"q  c #161329",
"w  c #231523",
"e  c #241A24",
"r  c #2B1B24",
"t  c #241B2B",
"y  c #2B1D2B",
"u  c #271626",
"i  c #331C23",
"p  c #371C26",
"a  c #261D32",
"s  c #2D172B",
"d  c #2C222C",
"f  c #2A2526",
"g  c #342324",
"h  c #3B2423",
"j  c #33232C",
"k  c #3C2B2B",
"l  c #392927",
"z  c #2C3626",
"x  c #383828",
"c  c #2C2333",
"v  c #2A2537",
"b  c #332533",
"n  c #3B2B34",
"m  c #372A38",
"M  c #3B3637",
"N  c #2E3733",
"B  c #1C2416",
"V  c #441B19",
"C  c #481B09",
"Z  c #48270A",
"A  c #472819",
"S  c #552B18",
"D  c #49351A",
"F  c #583619",
"G  c #55300A",
"H  c #653A19",
"J  c #6C3511",
"K  c #441D24",
"L  c #462926",
"P  c #552B27",
"I  c #483629",
"U  c #573827",
"Y  c #452C35",
"T  c #473736",
"R  c #563A36",
"E  c #562D33",
"W  c #653A26",
"Q  c #663A36",
"!  c #743829",
"~  c #621E1A",
"^  c #3A432B",
"/  c #3B4735",
"(  c #394F37",
")  c #39421D",
"_  c #57451A",
"`  c #69451A",
"'  c #754919",
"]  c #79541A",
"[  c #6F4A0E",
"{  c #46462B",
"}  c #594529",
"|  c #4B4B34",
" . c #444C3B",
".. c #474836",
"X. c #574738",
"o. c #4A543A",
"O. c #53533C",
"+. c #575839",
"@. c #54542B",
"#. c #684627",
"$. c #754A27",
"%. c #695629",
"&. c #795528",
"*. c #674836",
"=. c #754936",
"-. c #685737",
";. c #785736",
":. c #5A633B",
">. c #546233",
",. c #67673A",
"<. c #786838",
"1. c #746F36",
"2. c #79621B",
"3. c #3B3344",
"4. c #362D42",
"5. c #463946",
"6. c #523B47",
"7. c #663D43",
"8. c #3D5142",
"9. c #4A4A44",
"0. c #574746",
"q. c #4A5745",
"w. c #565946",
"e. c #545054",
"r. c #664945",
"t. c #665947",
"y. c #73544A",
"u. c #596548",
"i. c #5A6754",
"p. c #52694D",
"a. c #666848",
"s. c #776946",
"d. c #6B7548",
"f. c #747C4B",
"g. c #777947",
"h. c #666955",
"j. c #697657",
"k. c #767A56",
"l. c #756A56",
"z. c #6F7765",
"x. c #605F64",
"c. c #833D23",
"v. c #85581A",
"b. c #874E15",
"n. c #91681A",
"m. c #864729",
"M. c #855928",
"N. c #855A36",
"B. c #905232",
"V. c #8A6529",
"C. c #956929",
"Z. c #9A742A",
"A. c #896637",
"S. c #966A36",
"D. c #9A7537",
"F. c #887537",
"G. c #A57A38",
"H. c #A5752E",
"J. c #A36C24",
"K. c #895747",
"L. c #886845",
"P. c #877947",
"I. c #987746",
"U. c #8F714F",
"Y. c #A77847",
"T. c #8D7563",
"R. c #7C834D",
"E. c #78824A",
"W. c #7C8453",
"Q. c #7A8758",
"!. c #6F8559",
"~. c #7A8765",
"^. c #778A6A",
"/. c #7A813E",
"(. c #AB8438",
"). c #B58A39",
"_. c #BA943A",
"`. c #AE862B",
"'. c #988338",
"]. c #C3983C",
"[. c #C8A33D",
"{. c #85864C",
"}. c #968749",
"|. c #838553",
" X c #848B54",
".X c #8B8C54",
"XX c #848C5B",
"oX c #8B8D5B",
"OX c #868558",
"+X c #958A56",
"@X c #8C925C",
"#X c #899259",
"$X c #93945C",
"%X c #97985A",
"&X c #94934D",
"*X c #A98646",
"=X c #B68A45",
"-X c #BB9546",
";X c #AB9356",
":X c #A8A45A",
">X c #858C63",
",X c #8C9463",
"<X c #899667",
"1X c #939562",
"2X c #949A64",
"3X c #9B9C63",
"4X c #949C6A",
"5X c #9B9D6A",
"6X c #969567",
"7X c #929771",
"8X c #A69A66",
"9X c #9CA26C",
"0X c #9BA167",
"qX c #9BA474",
"wX c #8EA26E",
"eX c #A3A46B",
"rX c #A7A768",
"tX c #ABAC73",
"yX c #A5A976",
"uX c #ACB179",
"iX c #B5B578",
"pX c #B3AE6D",
"aX c #9CA15E",
"sX c #C59A47",
"dX c #C79A52",
"fX c #CAA449",
"gX c #D3A94C",
"hX c #CCA654",
"jX c #D5AB55",
"kX c #DAB558",
"lX c #D6B24E",
"zX c #E3BA5B",
"xX c #E1B054",
"cX c #DCB863",
"vX c #CFAE69",
"bX c #E4BC64",
"nX c #E7BB6F",
"mX c #C79866",
"MX c #E7C25D",
"NX c #E9C568",
"BX c #F2CB6B",
"VX c #EBCA73",
"CX c #F3CD74",
"ZX c #F9D678",
"AX c #F2D272",
"SX c #E5CC72",
"DX c #BFC17E",
"FX c #B7B984",
"GX c #ABB184",
"HX c #989F84",
"JX c #FBDB83",
"KX c #FFE488",
"LX c #FFEC94",
"PX c #C8C88D",
"IX c #BEC08B",
"UX c #807780",
/* pixels */
"<X>X~.Q.Q.,.#Xd.d.Q.wXE.>.d.Q.Q.E.E.!.<XwXE.d.Q.wX/./.!.!.!./.!.>.^.d.wX!.wXQ.Q./.wX/.E.1.oX>. XR.1.E./.#XQ.E.E.R.E.#Xd.0XE.#XQ.Q./.E.E.aXE.Q.Q.Q.Q.>.wX!.E.d.d.!.Q.Q.Q.!.Q.E.!.!.!.!.E.E.<XwXd.#XQ.Q.Q.wX#X~.Q.Q.Q.E.wXwXE.wX/./.Q.&XE.>./.d.E.d.>.#X/.R././.d.E.E.>.E.E.!.E.!.1.,.E./.) 1.1.>./././.E.#XwXQ.@XE.wXf.d.E.XXE.!.Q.E.Q.Q.,. XE.f.,X>.k.g.oX,.W.d.E.Q.R.,.#X#Xf.XXQ.,.E.E.!.W.E.E.E.!.!.E.d.d.!.E.d.d.!.E.d.d.E.d.Q.W.E.E.Q.Q././.E.!.E.E.E.E.Q.Q.R.E.E.E.Q.Q.E.E.<XW.R.Q.|.f.f.R.1.f.1.Q.E.R.E.{./.1.1.1.yX#XR.,.E.1.E.1.|.1.E.g.f.|.f.k.|.W.g.d.f.g.g.E.E.R.#XR.R.#X2XR. XR.g.wX/. XE.Q.#XR.E.R./.!.#XQ.R.Q.Q.Q.Q.Q.Q.#XQ.W.E.Q.Q.E.Q.^.wX!.!.^.Q.!.@X<XQ.#XE.Q.wXQ.aXQ.,X@X<XqX<XQ.>XQ.>Xk.W.Q.k.k.d.k.Q.k.k.k.@X XE.f.Q.#XE.E.E.d.d.d.k.W.W.XXE.E.d.E.!.E.E.R.d.j.,Xd.!.XXk.j.d.E.f.f.j.Q.E.d.f.Q.d.!.d.~.^.Q.<XE.!.XX~.Q.!.>Xd.f.>Xk.d.f.>X~.!.!.!.!.!.!.^.wX^.!.^.!.E.Q.wX/.!.!.Q.wX/.E.^.Q./.Q.Q.Q.W.E.~.Q.E.E.Q.Q.f.Q.d.d.E.d.,XwXE.W.#Xd.Q.E.Q.Q.1.E.,.6XW.g.@Xd.#XW.E.<XE.!.E.!.Q.1.wXQ.d.1.Q.#X<XQ.!.a.,.!.,X,.XXk.f.,.XXf.W.f.R.f. XR.$X,.W.Q.E.g.XX,Xf.XXa.XX<XE.XX:.Q.!.!.,XQ.>XQ.!.k.Q.Q.Q.~.Q.>XQ.>X~.k.<Xj.!.,X~.>X!.qXj.!.<Xj.^.E.Q.Q.!.E.Q.Q.E.E.wXQ.<Xj.7X^.<XQ.:.Q.E.!.!.^.!.~.~.p.^.k.^.Q.!.>X<X!.Q.Q.,XQ.Q.W.E.!.Q.Q.E.~.E.<XE.Q.~.E.d.Q.@XE.E.E.d.Q.E.d.E.E.:.Q.Q.Q.Q.Q.E.Q.wXE.#XQ.W.Q.Q.",
"<XQ.#X~.Q.!.wXQ.~.E.#XW.E.E.f.,X!.~.Q.!.Q.^.!.wX!.d.!.E.Q./.E.Q./.!.>.Q.Q.Q.Q.aX>.Q.E./.f.4Xg.{.R.E.Q.E.E./.d./.#XQ.#X1.Q.E.#X@X X1.Q.Q.Q.E.wX/.Q.Q.>.d.Q.wX^.Q.!.Q.wXQ.!.Q.Q.^.Q.Q.^.Q.!.<X#X!.<X!.Q.Q.Q.Q.Q.E.Q.!.E.Q.wXQ.^.E./.!.Q.E././././././.E./.E./.E.E.Q././.E.#XQ.E.,.!. X@XQ.,.wXR.1./.#XR.W.E.E.:.d.d.W.d.Q.<XW./.E.Q./.E.Q.d.E.R.W.6X1.|.OX>X,.g.f.,.g.W.,.!.E.d.#X Xd.f.f.1.d.,.E.d.d.d.d.,.E.E.!.E.E.E.!.E.!.W.!.E.!.E.E.E.E.E.Q.E.E.E.E.E.E.E.E.#XQ.Q./.#XwXQ.Q.Q.Q.Q.XXk.f.k. XE. X1.E.1.{.{.{./.R.W.R.1Xd.d.d.1.,.E.1.$XR.f.f.g.|.W.f.k.R.f.g.E.E.E.R.R.R.R.W./.E.#XE.E.E.,.#XE.#X/.#X#XQ.W.Q.E.Q.W.Q.W.#X#XQ.@XQ.~.@XQ.Q.!.E.E.!.Q.Q.Q.Q.Q.^.<XQ.~.~.Q.Q.Q.#XQ.aXQ.Q.<X<X@X<X~.~.Q.W.~.k.Q.k.XX>XQ.OXOX>XOXf.Q.W. XR.#XXXd.g.Q.W.W.W.R.R.f.k.!.E.E.!.E.!.!.Q.d.d.f.d.E.!.d.R.f.!.!.f.E.!.!.d.Q.Q.!.d.d.!.!.Q.Q.!.Q.!.R.!.d.d.!.!.!.d.!.Q.Q.!.!.wX!.!.^.wXwX^.^.!.wX^.Q.Q.Q.E.E.!.!./.E.E.Q./.Q.#XQ.~.Q.!.Q.Q.d.E.f.E.E.Q.#XQ.!.1.W.qXW.W.E.E.E.Q.d.@X,.W.g. Xg.f. Xf. Xd.!.E.W.Q.1.Q.wX#XW.,.@Xd.d.Q.>Xf.k.>Xk.R.f.d.W.XXoX,X XW.W.1.g..X2X1. Xg.,XQ.d.E.XXR.W.W.d.#XQ.,.>X#XQ.d.d.f.d.k.d.Q.!.Q.>XQ.k.d.<X<X~.~.~.7Xk.~.<X<XqX~.!.!.~.<X!.Q.!.wXQ.<XQ.Q.Q.!.~.~.!.Q.~.<Xk.~.E.!.~.d.!.!.wXj.z.z.k.^.k.~.!.j.>XQ.d.f.Q.wXQ.E.E.W.E.!.Q.d.Q.Q.Q.Q.f.f.E.Q.!.>.E.!.E.d.Q.E.W.E.Q.E.E.E.Q.#X!.E.Q.@X!.Q.Q.W.E.E.",
"d.!.>X<XQ.~.E.d.!.E.W.d.E.Q.f.W.wXE.E.!.!.Q./.Q././.^.!.!./.!.wX!.wX/.!.Q./.E.wX,.R.!.1.g.,Xf.,.1.E.E.#X/.d./.d.E.Q.E.:.E.E.E.E.#XQ.#XQ.wXE.Q./.Q.!.!.!.!.!.!.wX/.d.!.Q.Q.!.E.^.wX^.Q.Q.Q.Q.Q.!.<XQ.<X~.wXQ.Q.Q.aXQ.!.,.E.E.Q.E.aXQ.aXQ.E.Q.E././.Q./.Q.E./././.#X/.E.Q.E.#X/.E.E.Q.E.E.1.#XR.,././.d.E.1.f.E.#X@XQ.E.wX<X@XQ.Q.#XQ.Q.#X1.d.g.g.OXg.f.OXOX,.d.|.f.f.W.d.E.d.f.Q.E.E.E. XE.d.1.E.#XW.Q.#XE.!.!.d.Q.Q.Q.W.E.d.E.d.E.E.E.E.Q.Q.E.E.E.E.Q.Q.Q.R.R.E.R.Q.W./.Q.0XQ.W.XXf.Q.OXW.f.|.XXR. X1.E.1.R./.1./.1.1.g.1Xg.1.1.E./.E.1..Xg.R.g.g.W.|.W.W.f.f.OXE.E. XR.R.E.R.R.E.Q.W.E.R.f.f.1XW.Q.E.Q.aXQ.W.Q.#XQ.Q.Q.Q.Q.Q.@X@X@XQ.Q.Q.Q.Q.XXE.!.Q.Q.Q.Q.wX^.<XXX<XXX#XwXE.wXQ.#XaXQ.@X<XQ.wX>X~.>X!.>XQ.>Xk.k.>X~.Q.Q.>X>Xd.W.W.#X#X@XQ.f.f.R.|.XXR.k.f.f.f.!.E.E.!.d.f.!.E.Q.>X!.Q.Q.Q.Q.>XW.!.d.d.E.j.f.d.Q.Q.~.k.!.f.d.d.!.E.Q.Q.f.!.k.!.Q.>X<X!.~.Q.>X~.!.!.!.^.wX!.!.!.^.Q.^.Q.Q.Q.Q.wXwXwX!.Q.Q.Q.wXE.aXwXQ.Q.Q.E.Q.Q.d.Q.d.E.Q.E.W.d.d.E.,.Q.E.Q.!.E.,.Q.1.Q.W.#XE.W.g.XXR.XXXX,.<Xf.Q.<XE.Q.Q.Q.E.W.,XXXW.Q.k.XX>X>XqX4XW.XX>XXXf.W.R.,.E.|. X XoX1.1Xd.g.f.1.W.<X1XW.XX<XXXk.d.>XQ.Q.~.<X!.Q.<XQ.Q.!.>XwX>XQ.j.>XQ.~.f.!.>X~.<X~.k.^.j.j.<XwX^.!.Q.:.<XE.!.Q.!.#XwX<XQ.d.Q.~.>X~.>XQ.E.~.Q.<X^.<Xz.^.^.^.HX~.^.Q.~.~.>X~.W.Q.#XQ.W.Q.Q.E.E.XX!.!.!.f.Q.<XQ.E.Q.~.E.W.~.!.Q.4Xd.,XXXd.E.Q.Q.E.E.E.Q.wX@X#XQ.aXwXQ.wX",
"d.d.d.d.,.,X!.wXE.Q.Q.:.Q.<XE.Q.Q.:.!.wX!.>.>.wX!.!.Q./.wXQ.Q.E./.^.d.!.Q.Q.Q.Q./.2XwXQ.|.1X Xg.,.E.E.@Xd./.Q./.E.W.E.E.#X@XQ.E.R.#XQ./.Q.E.E.E./.d.Q.E.Q./.>.Q.wX!.E.Q.wX!.!.Q.Q.Q.Q.Q.#XwXQ.W.~.Q.Q.<XwXQ.Q.~.wX<XQ.E.Q.Q./.E.wXE.Q./.Q.E.E./.wXE./.E.E./.<XwXR./.#XR.E.Q.E.wXE.Q.,.4XR.R.E.#XE.,.>./.d.R.Q.,XQ.!.,.,.,.E.Q.d.E.#X!.E.f.W.2Xg.|.k.g.g.k.d.d.OX Xd.f.1.E.E.E.1.,.g.d.W.E.d.E.d.d.d.E.Q.E.E.E.,.E.E.E.Q.!.E.!.E.!.!.E.E.Q.Q.E.!.E.E.Q.E.#XR.Q.E.E.E.#XE.E.Q.Q.#X>Xf.k.XXXXW.XXXXf.R.E.{. X{..X1.R.1.:.1.9X Xf.>. XR.!.1. Xg.f.g.g.|.W.W.W.W.k.XXR.W.W.W.W.E.W.W.W.E.E.E.E.E.f.XXW.W.E.!.E.R.Q.R.wX#XQ.<XwX#X@X~.Q.Q.~.#XW.W.Q.XXd.Q.wXQ.Q.Q.wXQ.~.Q.<X>X#XQ.E.Q.Q.wXQ.Q.@X<X@XQ.<X>X<XQ.>X>X>XQ.j.XXQ.f.k.>X>Xk.W.E. XQ.#X Xg.XXf.W.Q.W.E.W.W.k.,.E.E.E.!.f.f.d.!.<Xd.d.d.Q.Q.d.Q.E.f.E.f.f.f.!.!.d.XX!.!.!.:.!.Q.Q.~.Q.E.d.j.wXd.Q.~.!.Q.d.!.<X!.wX^.wX!.!.!.^.^.wX^.Q.Q.Q.Q.Q.Q.Q.Q.Q.#XQ.Q.Q.W.Q.R.wX,XQ.!.f.Q.@XQ.Q.XXE.Q.d.,.XX,.!.d.E. Xd.!.E.<Xd.wX#Xd.E.g.XXg.W.Q.d.4XE.Q.#XQ.!.E.E.E.wXR. XQ. Xd.|.k.f.a.:.,.f.XX>Xg.f.f.,.R.#X Xg.E.E.2Xd.g.,XQ.XXf.d.W.W.<Xf.f.W.,Xd.d.R.<X,.Q.Q.a.d.k.d.~.Q.>XQ.7X!.>Xj.Q.>X>XwX~.!.!.k.~.qX^.Q.^.wXd.~.Q.E.Q.E.Q.Q.!.Q.W.~.~.<X^.<XQ.!.!.Q.<X~.z.!.!.z.7X<X!.~.!.Q.!.Q.>Xf.W.W.W.E.Q.#XE.!.wXQ.d.Q.Q.E.Q.Q.Q.d.E.Q.W.E.Q.Q.~.:.f.,Xd.E.E.Q.wXQ.!.Q.Q.Q.~.E.Q.Q.Q.aX",
"Q.<XwXQ.d.@X>.E.d.Q.Q.E.Q.Q.,.@XwX!.:.E.!.wXQ.Q.>.!.Q.Q.Q./.!.Q.Q.aXd./.~.wX~.E.>.E.Q.@XE.Q.W.XX/.E.E.Q.d.d.Q./.E.1.,.E.E.W.Q.f.Q./.Q.R./.E.wXR./.wXwX/.wXwX!.wX#XQ.^.Q.<Xd.!.<XQ.Q.Q.#X<X~.Q.Q.Q.W.Q.Q.#XQ.Q.Q.Q.E.@X!.<XwXE.W.Q./.Q./.E.Q.Q./.2XE. X XQ./.,.E.,.d.Q.#XW.XXd. X,.#XE.2X XE.g.#X@XE.g.@XW. XW.f.Q.E.E.W.W.Q. Xd.E.Q./.E.E.Q.2Xd.OX@Xg.g.f.W.g.W.XXf.d.f.XXXX#Xf.E.Q.,.,.E.d.W.W.E.E.W.W.!.E.!.Q.Q.Q.Q.W.!.E.E.d.E.E.E.Q.Q.Q.E./.E.E.E.E.#XE.Q.E.W.E.Q.Q.W.Q.W.#XXXk.f.|.k.f. X X,./.E.R.E.1./.1.1.{.E.E.,X|.E.1.1.E.{.g. XR.W.f.f.W.f.f.k.W.k.|.XXW.W.W.W.W.|.W.E.W.Q.XX@XW.f.f.!.#XQ.E.!.Q.Q.Q.Q.Q.wXQ.~.<X<XQ.~.~.>X,XQ.Q.E.f.E.Q.XX>XwX#XQ.Q.Q.Q.>XOXXX@XQ.Q.#XaXaXE.^.wX<XQ.~.#X<XQ.~.>X>XQ.Q.>X>X>X<X>X7XQ.W.E.W. X@X#XW.XXf.XXoXf.f.W.Q.R.E.!.W.!.E.!.E.Q.E.<Xf.!.Q.>X,XQ.W.k.!.R.!.f.R.Q.f.>.!.d.!.W.!.~.<XQ.!.W.Q.W.f.Q.f.!.!.d.Q.!.Q.~.!.wX^.!.Q.^.wX^.Q.wXQ.Q.^.wXQ.Q.E.W.XX@XQ.Q.!.Q./.Q.Q.Q.Q.Q.!.E.W.@XE.E.Q.E.#XR.,.,XQ.XXQ.W.W.d.>Xd.Q.d.>X|.d.oXk.k.OX>XQ.k.<XQ.E.E.Q.Q.<XQ.E.Q.E.f.f.,XXXk.f.k.XXQ.XXQ.XXk.k.g.XXW.oXg.g.1. XE.E.E.f.E.d.6X4X<XXXd.k.d.W.Q.XX,X>XQ.Q.f.<XQ.d.4X>X!.W.k.Q.k.<Xj.!.k.<X>X~.~.~.<X~.!.~.~.Q.^.~.wXQ.Q.wXd.wX#XQ.d.E.!.Q.>X^.>Xk.!.<XE.E.j.!.~.z.~.7X^.7X^.z.<XQ.~.Q.R.W.f.>XQ.#X!.d.E.d.Q.#Xd.>.<XQ.!. XQ.Q.:.a.f.wXQ.<X,X>XQ.Q.<XE.Q.Q.Q.wXQ.E.Q.Q.Q.<XE.Q.Q.E.#X",
"Q.@XQ.!.,.^.d.~.E.Q.#Xd.E.!.,.Q.E.!.Q.!.E.~.Q.wX/./.wXQ./.E./.Q.^.Q./.!.#XE./.,.E.Q.E.<XQ.XXXXoX!.E.Q./.E./.Q.>.W.!.!.W.E.W.XX#XQ.E.#XQ.Q.Q.wXQ.!.Q.^.!.Q.!.!.wX!.<XQ.!.!.!.Q.!.E.Q.~.<XQ.Q.Q.Q.wXQ.#XQ.#XQ.#XQ.@XQ.Q.E.Q.#XQ.<XQ.E.Q.E.Q.aX#XwXE.:.1.,./.!.E.wX/./.E.Q.W.Q.1.f.E.Q.g.d.1.E.E.E. XE.E.#XE.R.E.f.Q.,.E.XX@X#XW.W.#XwXE.Q.Q./.Q.1.{.OXg.a.f.oXW.W.E.!.E.R.XXW.@XW.Q.@Xf.d.W.W.Q.E.E.!.W.Q.,.d.E.E.,.E.!.E.E.Q.Q.Q.E.E.Q.E.E././.Q.E./.!./.#XE.R./.Q.1.E.R.Q.#XXXXXW.W.XX|.g.g.W..XR..X.X X{.E..X{.1..X{.1.P.f.W.g.1.g.E.E.{.E.{.|.|.OX|.f.|.XXW.OX|.W.f.f.W.W.W.W.#XQ.W.@X#XW.Q.R./.!.Q.Q.E.!.Q.Q.Q.Q.Q.Q.Q.<X<XQ.<X@XQ.!.R.W.W.W.XX|.W.|.Q.W.Q.wXXXQ.XXQ.Q.<X#X#XQ.Q.Q.wXwXQ.Q.Q.~.~.^.Q.~.Q.~.Q.!.Q.k.!.Q.k.f.f.XXE.W. X,X,XR. Xf.W.W.f.f.E.E.k.E.!.E.E.E.E.!.Q.!.Q.f.!.!.R.j.f.W.Q.W.!.E.!.Q.~.Q.d.!.f.Q.Q.!.Q.E.!.Q.!.!.>XQ.!.Q.Q.!.Q.~.<X<X>X!.!.^.!.wXwX^.!.!.wXwXQ.Q.wXQ.Q.!.~.Q.Q.@X#XQ. XQ.Q.Q.Q.!.E.Q.E.E.Q.d.Q.W.Q.XXW.,.W.Q.XXXXd.W.W.,XQ.,.Q.XX|.k.6Xg.{.,X1X,X,XQ.f.Q.E.Q.Q.aX!.Q.R. Xg.f.Q.W.W.Q.,XW.k.Q.W.W.f.XXg.4XR.|.|.R.E.@X Xf.W.<X2X|.W.f.f.R.k.Q.R.Q.XXQ.XXQ.Q.k.d.~.f.j.<X>X>X>XQ.~.d.k.d.Q.!.>X~.Q.k.~.7XE.~.~.!.~.Q.!.E.~.Q.<X:.<X~.wXE.Q.!.!.<XwX>X!.~.wXW.!.>X!.<X~.>X^.k.k.~.k.!.k.f.<X>X>XW.<XQ.Q.Q.Q.XXQ.,X<XXXj.qXW.~.,Xd.Q.f.Q.<X<XE.XXd.d.,XW.f.E.wXaXwXQ.E.~.Q.#XwXwXQ.#X#XQ.wX",
"d.Q.@X~.!.Q.,.E.~.#X#XE.#XwXE.Q.!.Q.!.!.Q.!.E.Q.^.>./.>.Q.^./.>.E./.!.aXQ./.E.E.Q.#XE.E.W.d.k.W.E.E.wX/.Q.E.Q./.E.E.E.E.d.!.Q.E.E.Q.E./.#XR.E.R./.!.Q.wXwX/.!.wX~.wXQ.Q.~.<XQ.d.!.!.Q.Q.E.Q.Q.E.#XQ.Q.!.Q.Q.<XW.0XQ.Q.E.E.E.XXXXaXwXaXQ.Q.wXQ.Q.XX#X X,XXX#XW.#X XW.E.E.E.E.E.W.Q.@X,Xg.E.#X@X XR. XR. Xg.f.f.g.,X,.E.W.$XW.E.#XR.E.d./.,XR.$X#Xf.g.d.,.W.|.W.f.1.E.Q.E.E.:.E.W.f.{.E.d.W.Q.1.d.d.E.Q.Q.Q.Q.~.#XE.Q.Q.W.W.Q.Q.W.E.Q.E.E.E.E.E.#XW.E.R.E.@XE.Q./.#XE.R.Q. X@XXXW.|.W.XXXXE.f. X XE.1.1.g.E.1.1.E.1. Xg.1.W.|.|.f.W.{.g.1.1.g.E. X|.oXOXW.W.|.W.Q.W.k.f.k.W.Q.k.W.Q.W.d.W.f.d.W.W.!./.wX!.Q.Q.Q.Q.!.Q.Q.~.Q.Q.Q.~.~.<XQ.f.f.Q.>XoX X|.R.f.R. X#X XOXk.XXk.XX,XXX,XwXQ.Q.Q.Q.Q.^.wX<XQ.~.~.<XQ.~.~.<X>XQ.>X>XQ.~.XX,X|.Q.XX,XXXf.W.d.g.f.f.f.R.R.!.!./.d.E.E.E.E.!.E.Q.Q.E.Q.f.d.!.XXW.R.f.f.Q.XXQ.<XQ.Q.Q.XX>X!.d.d.W.>XQ.k.Q.Q.~.Q.>XQ.~.d.<XQ.~.wX!.Q.Q.wX^.!.Q.Q.Q.Q.^.E.Q.aXE.Q.Q.Q.j.Q.,XE.!.Q.wXQ.Q.#X/.Q.Q.E.W.Q.@X#XXXW.E.E.E.Q.E.Q.d.Q.#X<XQ.,.XXk.XXOX>Xd.P.~.Q.Q.XXf.d.wXQ.Q.Q.E.d.2X#XW.d.1.d.d.f.XXQ.Q.k.oX6XXXXXoXQ.XX,.f.$X,XE. X.Xf.,.E.|.|.f.W.,Xf.6XQ.Q.Q.<Xk.f.d.4XW.f.!.Q.XXXXd.XX>XQ.7XQ.Q.Q.7X~.!.Q.7X~.<XwXd.qX<X<XwX!.!.!.wX<XE.!.!.,.wXd.Q.!.R.>X7X<X~.<X>Xd.!.wX~.<Xk.k.~.~.!.~.~.~.<X!.<XXX>X!.@Xd.E.XXE.Q.W.E.Q.XXd.@Xf.Q.W.>.Q.<XwXXX4XQ.>Xd.Q.wX7X!.E.Q.E.Q.Q.wXwXW.!.Q.Q.Q.Q.Q.Q.Q.",
"!.Q.Q.!.E.Q.Q.!.wXE.d.W.wX@XE.~.Q.wXE.E.Q.E.Q.Q.Q./.wX/.>./.E.!.!././.Q.Q.Q.wXE.E.Q.Q.E.,Xf.XXoXQ.E.Q./.Q.!.E./.W.E.E.d.d.E.,Xd.#X/.E.E.Q.Q.wXQ.Q.Q.!.Q.Q.Q.wX!.:.!.!.Q.<X~.Q.Q.wXQ.Q.Q.!.#XQ.>.@XQ.Q.E.Q.#XwXQ.Q.!.Q.Q.Q.Q.>XE./.^.Q.E.Q.aX/.E.wXyXQ.2XE. X XQ.Q.,XXXXXE.d. XwXE.E.4XQ.XXXX XE.E.R.R. X X@XW.E.@XE.W.1.E.d.d.f.E.E.d.>.Q.W.#X X|.g.g.g.XXf.W.f.f.Q. X XQ.1.W.#Xd.E.W.1.W.#XE.E.Q.Q.E.E.E.E.Q.W.E.R.Q.Q.Q.#X#XW.!.E.E./.Q.aXQ.E.E.E.Q.E.aXR.W.E.#X X1X#XW.#XXXQ.XXg.f.W. XoXOX{.W.E.g.R.&X1.{..X1.{.g.{.OXf.g.f.E.R.g.g.E.R.f.g.f. X Xk.f.R.k.k.W.W.XXXXXXXXQ.OX XQ.E.Q.Q.f.XXk.!.!.Q.Q.Q.^.Q.Q.Q.Q.~.^.Q.!.Q.>XQ.Q.Q.Q.Q.XX|.g.f.|.oX|. X X XW.Q.Q.OXW.Q.>XW.W.Q.aXQ.Q.#XQ.Q.wX^.Q.<X<X~.Q.Q.XX~.>XQ.~.>X!.>XQ.<XW. X X#XXXf.XXW.f.W.W.XXW.f.f.E.!./.Q.E.!.E.!.d.E.<Xd.Q.>XQ.Q. XW.E.,.f.Q.Q.Q.XXQ.d.!.E.~.Q.j.<X!.!.E.Q.R.k.Q.>X<XQ.^.d.wX>X!.wX^.wX!.^.^.!.!.wX!.E.Q.Q.Q.Q.!.Q.wX<XQ.Q.4XQ.Q.Q.Q.Q.Q.wX!.Q.Q.!.E.Q.W.Q.Q.W.Q.,.d.4XE.Q.E.#XE.<Xd.W.f.f.oXg.g.k.@Xf.f.f.Q.XX>XQ.E.E.Q.d.,.Q.Q.<Xd.d.W.>Xf.Q.,Xf.d.d.XXd.XXW.OXf.g.|.|.f.1.R.R.d.1.R.d.>X6XoXf.@X4X,.Q.@X,Xd. Xf.4Xd.XXW.f.>X<XQ.7Xk.d.<XW.k.k.>X~.k.Q.7Xj.~.<X!.HXj.~.wX!.^.wXQ.~.:.wXQ.:.wXd.f.Q.~.Q.~.~.~.<X~.Q.~.<Xd.qX^.d.~.>XQ.~.<XQ.~.f.wXW.W.f.qXQ.@X<Xd.@X<XXXf.,Xd.XX,.Q.qXW.<XQ.Q.E.<X!.Q.XXXXQ.4X,Xd.E.Q.@XQ.<XwXE.E.wXE.#XQ.Q.#XQ.",
",.#X<X~.Q.~.d.wXQ.E.Q.wX,.wXE.E.Q.wX>.>.wXQ.wXQ./.!./.^.>.Q.aX/.E./.E.E.E.wXd./.E.Q.#XQ.Q.Q.Q.!.Q.E.wX>.#XaX/.E.E.Q.Q./.#Xf.Q.,X/.aX/.Q.Q.aXwXd.Q.Q.wXQ.!./.wXwX^.d.~.>X!.Q.Q.~.7XXX4X!.f.7XE.a.Q.0XwXd.,XQ.#XQ.Q.d.XX2XQ.XXXXQ.E.<X,X@Xd.W.@XwXd.@Xf.XXg.f.f.f.#XQ.@X#XW.W. XXXg.XX XXXXX#X Xg.R.W.oXR. X#XE.E. XQ. XR. X#XR.2X#X#Xg.g.f.oX6Xg.|.|.d.f.g.R.f. Xg.Q.,.#X XE.Q.<X Xf.Q.E. XW.R.W.Q.#X#XW.E.E.Q.XXd.E. XQ.W.E.E.E.Q.Q.R.E.E.#X#XR.W.W.E.R.#XE..X1.R.E.#XW.@XE.Q.#XW.#Xd.|. XE. XR./.#XE.#X.X1.$X}.,.{.E.{.R.W.g.g.{.{.g.R.R.{.g.|.P.f.W.k.|.OXk.W.k.XX>XOXk.Q.Q.Q.Q.k.f.>Xk.XXW.k.!.!.Q.!.Q.~.Q.Q.~.Q.>X~.Q.Q.k.>XQ.Q.Q.Q.>X>XW.g.P.R.OXOXoXOXf.oXk.XXOXXX>X>XXXW.XX>X,X<X~.>X~.~.wXQ.~.Q.>X<X!.Q.Q.Q.Q.Q.>X>Xf.>Xk.W.XXXXXXQ.XXXXXXW.R.W.f.d.f. XE.Q.Q./.!.E./.d.Q.E.Q.Q.Q.XXE.!.d.oX,XXXf.W.d.a.,XQ.E.Q.<Xf.Q.Q.<XQ.Q.Q.Q.<XQ.d.>X!.>X!.<X<X7X<X!.wX^.wXQ.!.wXwX~.Q.Q.W.>X<XQ.>X<X!.Q.Q.^.Q.wXE.wXQ.Q.Q.wX/.!.Q.g.d.XXE.Q.Q.>.~.Q.,.#XE.!.E.,XXXE.E.<XQ.E.<Xf.a.1XW.W.XX~.E.!.E.Q.Q.wXQ.:.uX!.,Xd.!.@X6Xf.,.E.W.XXd.4X>Xf.9Xf.k.#XXXf.g.1.R.g.R.XXW.oX,X,XXXd.f.<Xf.XXQ.XXXXd.XX~.Q.d.Q.d.!.Q.W.XXXXd.XXQ.<X>XXX<Xk.!.<X~.7X~.>X!.wX:.~.<XwX7Xj.~.Q.Q.<X<X!.#XE.XXQ.Q.d.!.>Xk.<XQ.E.<X~.d.j.>Xj.wX~.!.<XQ.k.j.wXW.XXXX!.W.,X4X<X,.<X@XE.Q.,XXXQ.Q.@X!.Q.W.E.<Xd.6X!.Q.4Xd.XXQ.d.wXwXd.wX,XE.d.>X4X<X4X<X~.Q.wX@X",
"!.!.<XE.Q.Q.,.Q.E.<XQ.E.,.Q.:.Q.E.!.>.!.^.E.E.Q./.!.Q.!./.Q.Q./.!././.Q./.E./.Q.#XQ.E.E.R.Q.E./.E.E.Q.1.Q.#X/.E.E.Q./.d.<XXXQ.W.!.wXE.E./.wXQ././.Q.Q.Q.wX!.Q.!.<X>XwX<X!.Q.>XXX>XQ.<XR.Q.qXQ.f.Q.Q.E.,.@XQ.<XE.Q.E.<X,XQ.>X,XXXE.@X,XwXQ.XXR.W.f.<X,X,XXXf.k.W.#XQ.Q. XQ.#XXXW.,X<XW.W.W. X,XoXE. X,XR.g.E.,.E.@X$X0X X X@X{. XW.Q.1.E.$X|.g.$XOXd.f.XX@Xd.1.@Xd.2XW.W.W.E.E.1.W.R.R.R.W.R.Q.XXQ.R.E.W.W.E.E.Q.Q. X XQ.W.E.W.W.R.R.E.E.W.#X#XR.R.W.E.E.#XR.#XE.#XR.aXE.#XE.#X@XW.oXg.{.R./.{.R.1.W.1.{.E.1.{.E.1..XE.P.P.|.f.|.{.E.{.R.f.g.f.W.W.f.XX|.XXXXf.XXQ.>XXXk.Q.XXOXQ.Q.R.l.Q.d.k.f.f.E.Q.Q.Q.Q.~.>XQ.>XQ.#X~.!.Q.!.>XQ.!.k.f.OXXXP.P.W.P.f.|.oX X|.OXXXT.k.Q.Q.>X>XXX,X|.!.,XQ.<XQ.k.Q.Q.@XwX<X4X~.Q.Q.~.XX~.7X>Xk.Q.R.XXXX,XXX|.f.W.R.f.W. XW.R.f.R.E.!.Q./.Q.Q.E.wXQ.,.!.E.W.Q.!.E.W.XX!.R.f.XXW.R.Q.!.~.f.!.E.!.<XE.d.Q.Q.~.Q.!.k.,X~.wXQ.>X!.~.^.^.wXQ.^.Q.^.Q.Q.~.Q.XX!.Q.#XQ.<X<XQ.Q.Q.Q.E.Q.E.~.Q.Q.Q.wX/.!.Q.W.Q.d. XW.,XE.E.Q.!.d.E.Q.2X<Xd.>.Q.Q.E.XXQ.XXg.1Xf.k.W.W.W.Q.<XwXE.Q.E.Q.wXXX4X,.Q.,Xf.Q.wX,Xd.:.W.XXf.Q.oXd.|.@X#XR.OX4X2XE.R.@XR. X,Xk.f. X,Xd.,.XXQ.Q.XXW.<XE.W.W.,Xd.f.f.a.XXQ.a.>X>X<X<X<Xk.<Xj.k.7XGX~.<Xd.^.!.wXwX^.~.!.<XXX<X!.Q.XX!.>.>XW.!.d.Q.~.!.7XXXQ.Q.W.,.!.>Xf.Q.k.Q.>X<X<XQ.>XXX,XXXR.E.W.Q.R.E.@XXXW.Q.W.d.f.W.Q.1.Q.#X!.<X@XR.E.XX,X,.Q.XX XQ.rXQ.E.j.,XwXwX!.Q.>XQ.#XQ.#X@X",
"<X:.wX!.>XQ.!.@XQ.<XQ.E.d.E.Q.<XwXQ././.Q.E.Q./.!./.>.E./.d./.!.wXE.,.wXE.E.E.!.#X@X#XQ.Q.aXaXQ.Q.E.E.E.Q.W.E.E.E.Q./.>.f.R.d.d.Q.E.&XE.!.E.Q.Q.!.Q.wXwXwX^.!.!.Q.k.~.wX~.d.!.XXQ.@X Xd.R.Q.E.f.Q.E.d.,.<XW.~.E.d.!.XXQ.Q.XXQ.,X>X<XXXQ.W. XR.W.E.@X<X6X2XXX@XoX#XW.Q.#XQ.#XQ.W.,X6XoXXX X X,X Xf. X@Xf.E.R.E.R.{.R..X1.g.#XoXR. XE.g.#X X1.f.oX@XR.W.|.4XE.Q.wX,.,X Xd. X~.@XQ.f.W.f.W.f.g. X XW.E.E.E.W.f.f.E.XXW.E.E.R.W. XW.R.R.R.W.#XR.#X XR.#X{.E.#X X#XE.R.E.#X X#XE.#X#X{.oXE.{. XE..X&X.X.X X X.X{.+X{.1.{.{.{.OXoXg.g.R.{.{.g.g.g.R.{.g.P.XXXXXXXXk.XXXXXXOXXXOXQ.k.k.>XXXOXXXQ.XX>X>X!.Q.Q.Q.Q.Q.~.Q.~.Q.~.Q.d.XXQ.~.Q.k.k.Q.oXW.f..XP.g.g.g.OX|.f.XX>X>XQ.k.T.>X,X>X>XQ.!.>XQ.<XOXk.<XQ.~.#X>X>XQ.XX>XXXQ.k.OXXXf.XXXXXX|.Q.W.W.W.W.|.W.W.W.W.W.W.W.E.E.!./.E.!.Q.Q.Q.E.Q.W.Q.Q.Q.Q.Q. Xg.f.f.XXXXXXW.d.XXd.#XQ.XX~.!.!.~.Q.<XQ.!.E.<X~.~.!.!.~.>XQ.Q.^.Q.^.wX^.Q.Q.Q.#X@XQ.Q.Q.Q.<X7XXX>X<XQ.Q.Q.Q.Q.Q.#XQ.wX!.wX!.#X@X>.#X1.wX#X,.E.Q.Q.E. XQ.@X:.d.Q.!.1.4X,. XW.OXd.W.XXE.Q.#XQ.,.E.#XQ.>XQ.k.Q.,XQ.Q.d.W.#XE.E.d.OX>XW.k.f.XXf.W.W.g.f.$X{.1. X@Xf.f.2Xf.XX<XW.R.f.,XW.k.W.f.Q.f.Q.W.,X1.<X4X<X,XXXd.>XXXk.k.k.u.!.k.!.j.<Xj.!.^.j.!.~.<X!.d.^.~.!.wX~.>X<X~.Q.E.!.~.!.>X<XQ.Q.Q.XXwX<XQ.<X>Xj.>X~.<XQ.Q.!.Q.Q.Q.R.W.R. X>X>X>X~.,X#X#X,XE.f.W.,X#XE.R.XX X,XE.Q.f.E.d.,.#XwXuXE.#XQ.Q.!.,XwX7X~.>X>XQ.<XQ.#XwX",
"wXd.<XQ.<XE.Q.wXE.Q.d.E.E.,.,XQ.wXQ.!.d./.wXwX/.E.Q./.E.!./.E.Q.Q./.1.E.Q.Q.Q./.d.Q.wXQ.E.E.Q.Q.Q.Q./.Q.aXE./.E./.E./.E.E.@X<X4XE./.Q.Q.Q.E.!.!.Q.wXQ.Q.wX!./.!.Q.k.!.<X,Xd.!.@XQ.qXXXf.W.!.Q.XXW.Q.Q.#X<XE.#XE. X@X,XW.,X<XXX@X@X,X#XW.E.R.Q.0XE.Q. X|.4X@X,X@X#XQ.@XXXW.E.#X~.f.>XXX@XoXQ. XW.E.Q. Xg.R.#X#X{.E.E.R.E.g.@X1X{.W.E.W..Xf.f.oXg.$XoX X X,XQ.@X4Xf.XXf.d.Q.1.E.E.d. Xg.XXE.d.W.R.XX X X~.Q.E.f.E. XE.E.f.R.W.R.W.&XQ.R.#X#XR.R.R.#XE. XR.#X{. XE.{.E. XE.Q.E.Q.#Xf.XXE.R.{./..X$X1.E.g.1.1.1.{.1.1.E.P.{.OX$Xg.g.|. X.XR.g.{.|. Xf.f.XXXXOXXXk.|.>X>XQ.Q.Q.XXOXQ.W.k.W.W.k.Q.XXXX!.Q.#X^.>XQ.XX>X#X@XQ.Q.!.>XR.R.XXQ.R.>X,XP.g.|.oX|.g.P.oX,XXX>X>X>X>Xk.Q.,XQ.Q.XXXX>X>XQ.>X>X~.<XQ.<XQ.Q.Q.k.Q.<X>XXXXX>X>XQ.7X,XXXW.f.W.|.XXXXQ. X XR.R. X XW.Q.E.!./.!./.E.E.Q.E.Q.XXQ.XXQ.E.R.W.W.|.W.W.W.XXE.d.XXd.~.,XQ.E.d.E.>XQ.wXQ.>X<X<X>X<XQ.~.wX<X<X!.wX^.^.Q.wXwXQ.Q.Q.@XQ.W.!.R.,X>X!.!.Q.!.!.!.Q.!.E.Q.!.!./././.Q.<X>.Q.E.Q.W.d.E.<XwXE.#XE.Q.d.#XQ.E.d.wX@. X.Xg.g.#X2XE.W.Q.E.E.wX!.E.f.Q.W.XXXX,.d.R.E.W.d.<X4XQ.XXW.f.d.oXW.f. X#X|.R.d.{.9XR.oXW.,Xg.|.XXg.XXW.XXQ.>X4X,X<X|.@XXXXX:.XXW.f.k.W.k.XXQ.f.k.Q.>X<X7XwX~.Q.!.<XwX<X~.Q.Q.^.^.wX<XQ.qX~.Q.f.d.XXd.Q.Q.!.>X<XQ.!.Q.XX~.Q.>X,XQ.Q.qXQ.Q.d.qXqXqX>XXXW.f.E. XXXXXf.Q.XXQ.Q.XXE.E.#XR.W.E.Q.#XQ.Q.,.<X#X<X#X<X#XE.W.E.Q.Q.#X,XQ.~.<X,X<XQ.d.#XW.Q.<X",
">X!.Q.<X>X:.Q.Q.d.>XE.d.,X:.E.,X/.d.E././.!.!.!.E.Q./.Q.E./.d.E.W.1.Q.R.R.Q.E.E./.E./.E.Q.&XQ././.#X/.#X%XE./.&X/.Q.Q.aX/.E.f.1././.wXE.Q.&XQ./.Q.>.!.wXQ.wXQ.wX<XHX<X~.Q.<X<X<XQ.qXQ.E.#XW.XX,XR.Q.@XwX@XE.#XQ.W.Q.k.d.E.Q.,.:.Q.Q.#X#X#XQ.,X0Xg.E.Q.R.oX|. X@X X X,X#XR.f.XX,Xd.W.|.Q.W.f.XX#X|.#XW.f.R. X{.E.E./.{.{.E.R.{.,.E.#X/.1. XoX|.R.E.E.d.Q. XE.,.!.1.f.E.R.,Xf.g.Q.f.,XR.@XE.f. XQ.E. X#XQ.E.R.E.E.Q. X XQ. X XW.R./.E.Q.&XW.E.E.R.#XE..X X@XR. XR..XR. XR. XW. X Xg. X{.g.E./.{.{. X XP.R.{.{.{.E.{.{.g.g. X%Xg.g.g.P.R.g.d.1.E.f.W.g.|.|.W.XXQ.OX,X>XQ.OXXXQ.OXQ.k.k.W.W.k.k.W.k.E.Q.>X>X>XOXXX>XQ.XXk.Q.W.,XW.f.XXR.f.W.@Xf.g.P.g.g.g.f. XQ.f.Q.>X>X~.>X>X>XXXk.Q.OX~.>Xk.>X>X>X~.XX<X>XOXXXk.OX>XOX<X<X6X<X|.XXQ.Q.W.XXXX@X XW.E.W. X X#X XR.E.E.E.Q.Q.Q.Q.Q.Q.W.E.Q.W.!.E.E.d.R.W.W. XW.f.W.XXQ.Q.qXQ.XXQ.!.W.<X,X<XQ.wXf.!.!.Q.<X7X<XXX<X~.>XQ.^.^.Q.Q.Q.wXwX!.#XQ.Q.XXk.W.>XQ.k.Q.Q.j.!.!.Q.wXQ.wX#XwX#X!.Q.E.#XE.Q.#XQ.d.E.@XXX#XQ.Q.#XE.E.Q.E.E.E.$X,.#XXX|.f.|. XE. XwXQ.d.~.Q.Q.wXwXOXk.XXd.,X4X,.E.,.1.,Xf.g.,.XXW.d.6XR.W.2X@Xg.E.@X@Xd.4XXXW.f.g.W.f.,XoX>XXXXXQ.d.d.,.f.Q.,Xf.,Xf.d.>X,XQ.OX<X>X,XXXk.~.Q.d.wX^.j.7X!.j.!.HX^.d.!.wX>X!.<XQ.XXQ.!.XXXXQ.d.Q.<X~.!.,XwX<XQ.!.R.f.Q.qX~.W.wXQ.,Xf.f.d.,X#XW. XXXW.W.W.XX,XXXW.Q.W.E.#X#XE.E.wXQ.,./.R.qX#X XQ.#XW.E.#XQ.wX0X!.Q.wX<XQ.<XwX<XQ.qX<X<X0X",
"Q.Q.!.wXQ.:.<XE.f.<X,XXX@X,.#XwX!.E.Q.!./.!./.>./.d./.Q.Q./.>.E.Q.E.!.#X/.#X>.Q.#XQ.d.E.Q.wXaXQ.E.#XE.R.%X/./././.&X&XQ.E.Q.#X X!.E.aXQ.Q.Q.E./.Q./.!.Q.Q.wXwX!.k.~.^.j.!.Q.d.d.E.@Xd.d.<XXXW.k.#X#XW.W.W.E.W.W.XX#XXXXX<X7Xk.f.@XE.W.Q.,X@XwX@Xd.W.2X@XXXE.f.,X@XQ.Q. XQ.XX,X>XQ.,XXXoX|.R.oXoXXX<XXX XW.1.E.{.{.{.1.R.E.E.{.f.@X.X1.E. X|.{.f.2X0XW.@XXX@XE.Q.,X<X<X#X#XW.R.W.R.@Xf.W.E.E.#XQ.,.E.R.E.E.E.Q.E.R. XXX#X#XQ.W. XQ.E.Q.Q.&X X#X#X@XE. X X&XR.R. X X XR.R.|.R.W.{..X@X{.{. XR./.{.E.{.{.{.E.P.{.1.{.P.P.{..X6Xd.P.f. X#X{.{.{.XXoX|.W.XXk.Q.OXXX>X>XXXk.k.k.Q.k.OXW.Q.XXQ.Q.OX>Xf.Q.W.Q.>XXXQ.XXXXQ.Q.W. XXXXXXXg.XXW.g.f..X|.P.OX.XOX|.@X<X>XQ.<X<X~.k.>X>X>X>XXX>XXXk.>X>X7X>X>XQ.Q.,X>X>X>Xf.W.XXk.OXOXOXk.k.OXXXXXW.k.Q. XW.f.R.Q. X#XQ. XW.W.Q.!.E.E.Q.E.Q.E.Q.!.Q.W.E.E.!.Q.XXR.R.f.|.W.Q. XW.E.Q.d.d.E.f.Q.!.!.!.R.<X~.>X<X~.Q.~.XX!.>X~.<X^.^.Q.wXwX!.Q.wXR.Q.R.Q.Q.W.XX>XQ.!.>XQ.!.>XQ.~.Q.!.!.!.!././.#XQ.W.Q.d.,XE.:.W.<XQ.Q.XXE.<Xd.Q.E.E.Q.E.E.Q.@X1.oXf.f.1. XQ.#XE.E.wX#XE.E.d.Q.<Xd.d.Q.,X,.,X#XQ.>Xa.f.E.>X,Xf.1X XE.g.g.,.R. Xg.1.$X Xf.,X,XW.f.,X>X>X#XQ.Q.XX<XXXQ.,XXXW.W.a.W.4X<XXXk.<X<X>Xk.k.>X>Xj.>X<X>XqX~.!.d.wXwX!.^.wX!.<XHXQ.~.~.E.Q.Q.wXQ.!.7X<X~.!.>X~.>X<X<XQ.Q.wXQ.d.<XQ.qX>X<X>XR. X#X#XXXQ.>X4XXX4XXXR. X X X@XyXQ.E.E.E.E.E.E.g.E.Q.%X$XQ.E.wXR.wXwXW.Q.0X,XW.>X>X>XQ.<XQ.W.Q.",
"Q.~.E.Q.Q.d.wX!.Q.d.Q.#XE.>.<XQ.Q.Q.Q./.Q.uXQ./.!.Q.!.Q.!.Q.Q.E.XX#X/.W.!.#X>.E.#XQ./.Q.Q./.Q.aXR.#X#X/.%XR.E././././././.E.E.E.Q./.E.Q.Q.aX!.E.wXQ.^.Q.Q.Q.!.!.<X~.<X7XqX4XE.<XQ.,XE.E.<XXXE.E.Q.wXE.E.E.E.E.W.Q.Q.>XXX,X>XQ.@XwXE.W.Q.W.R.@X#XE. X5X1X X XE.2X<X XW.Q.,X<X>XW.,X<X>X6X,XXXXX|.XX,X|.XX#Xg. X@X.X#XE.{.{.{..X$X0XE.E. X{.R. Xg.@X@XR./.d.E.E.Q.Q.W. XQ.f. X@X@XE.E.R.f.W.W.Q.W.Q. X XW.E. X#X#XE.W. X#XW.Q.R.R.aXQ.aXR.#X#X@X#X.XR.#XR. X#X{.{.R.{.R.E.R.R.E.E.$X$X.XR..X&X{.R.{. X XE.g.{.{.P.1.g.{.{.OX1Xg.|.1.g.g.{.g.g.g.R.|.f.XXXXXXoXW.OXXXf.k.W.W.k.f.Q.k.g.XXk.Q.XX@X!.XXXXk.Q.k.k.|.XXXXW.XXOX4Xf.,X|.Q.W.W.R..XOX X+XP.W.R.XX,X>X!.~.<X>XQ.Q.>X>X>XXX>X>XOX>XT.7X7X>XXXXX>X>XOX>Xk.k.,XOXOXOXT.XXOX>X>XXXW.k.k.W. XQ.#XXX XQ.E.E. X2XE.E.E.E.E./.Q.E.Q.E.Q.W.E.W.Q.@XW.R.W.f.Q.|.XX X,XXXQ.Q.>X<X<X>XQ.Q.>X>X>XQ.>XQ.wX>X!.Q.~.wX<XwX^.Q.Q.^.wX!.Q.Q.E.Q.Q.Q.Q.Q.XX~.f.j.~.!.d.<X!.~.Q.!.Q./.!./.!.Q.XX XXXd.Q.f.E.#XQ.Q.@X<XE.E.E.!.E.Q.R.E.d.@XR.g.E.E.E.d.2XE.E.f.Q.aXwX^.!.f.!.<XXXk.W.E.E.E.W.#X>Xf.!.,XW.XX#Xd.W.XX,.g.,..XE.{.d.f.XXW.qX>XW.f.XXXXQ.f.a.1.f.Q.f.d.E.,.W.f.d.yXW.W.k.f.>XXX>XXXk.!.<X<Xj.~.>X~.~.~.!.d.j.wXwX!.:.~.~.d.!.XX<X<XQ.wXQ.E.<XqX<Xu.d.Q.<X7X<X>XQ.XXR.XXqXQ.!.f.Q.XXW.R.W.E.f.R.f.W.k.Q.W.f.E. XQ.$XE./.d./.E.aX0X#X#X#X X#X1.E.E.@XW.E.<XQ.wX<XQ.~.<X<X<X<XwXQ.Q.Q.",
"<XXXQ.E.Q.Q.XX,.Q.f.E.!.Q.E.E.d.Q.Q.Q.>.E.Q.d.Q.Q././.E././.E./.E.wXE.,.#XW.E./.Q.E./.wXaX/.Q.Q.E.&X{.1.#X&X&X/./.&XaXE.R.Q.#X#XQ.Q.E.Q.R.wXQ./.wXwXwX/.!.wX!.Q.^.k.<Xj.!.<Xd.wX#X<XXXQ.Q.R.E.Q.R.wX#XE.Q.W.Q.<X<X,X<XXXf.k.!.<X#X/.#X%XE.E.#X XW.W.XX@X X<X X9X4X#X X>X#X,XXXf.XXXXf.W.>X#X2XXXXXXXf.XX,XE. X$X/. X{..X$Xg.g.1.E.Q.1.E..X|.{..X@XE.E.E.R.,.E.wX#XE. X2Xf.W.W.W.f.f.|.f.@X.XQ.1. XQ.W.W.W.W.W.#XW.W.W.R.R.R.R.W.R.Q.&XR.R.#X#XR.R..X0X1.R.$X.XR. X XR.{.R. XE.E.$X#X{.1..X&X{.{.{.{..XP.1.{.P./.{.{.{.g.g.oXg.5XE.g.{.{.|.R.W.OX{.f.OXW.XX>Xk.XXXX|.XXXXXXW.W.XXXXQ.>Xf.XXXX>Xk.wX<XOXQ.OXQ.>X>X XXX>XOX4Xg.1X>Xg.R.W.|.OX|.{.OXOX|.W.XX<XQ.Q.XX<X~.k.~.,XXX|.k.k.OX>X,Xk.6X>X>X4X>X,X|.Q.OX|.oX>Xk.oX>XQ.XX|.>X|.W.R.W.|.XXXXQ.E.E.W.#XQ.E.W.#XE.E.E.Q.Q.E.~.E.E./.Q.Q.!.W.W.W.f.f.XXE.W.E.XXQ.E.Q.Q.@XQ.E.!.E.~.Q.<X<XQ.Q.Q.!.~.Q.~.<XQ.!.f.~.E.^.wX^.Q.Q.wXQ.Q.aXQ.Q.,XW.Q.R.Q.Q.<XQ.d.wXQ.#XQ.Q.wX#XwX/.Q.#Xd.Q.wX@XE.!.XXQ.E.g.4XQ.@X>. X,.E.wX1.E.E. XE.2X1.g.@X1.wX1.W.@X#XQ.d.E.>.wXXXW.d.XXXX,.#Xf.Q.$Xf.7Xf.W.f.f.d.,.,.1XE.@X X X,.@XE.g.qX@XoX,.W.4XW.,XXXQ.Q.,X,Xf.d.f.@XW.9Xf.>.6XW.XX,XXXk.,.Q.>XQ.>Xj.<XQ.<Xd.!.wXd.wX^.HX^.7X7XwX9X~.d.W.Q.#XQ.wX<X:.!.<X~.Q.Q.qXwX7XW.f.Q.4X4X>XXX<Xf.Q.4X,XW.#XR.d.f.XX6X,XW.f.XXW.E.#X XQ.#X/./.Q.aXQ.W.R.#XR.{.E.#XE.$X X X@XQ.Q.!.Q.Q.~.qX<X~.>X~.XXQ.,X<X",
"<X@XwX!.E.E.^./.E.E.@XW.!.E.E.E.wXQ.wX/.Q.!./.W.#X/.Q.E.d.E.:.E./.E.Q.Q.Q.aXd.E.wXE.d.Q././.wX&X/.#X/.&X#X/./././.aX/.#X/.E.Q./.Q./.Q.wXQ.Q.wX/.wXQ.Q.Q.Q.wXQ.wX^.^.~.!.<X<Xk.<XQ.#XwX!.d.4XW.E.Q.E.E.R.#X#XQ.#XQ.Q.Q.E.E.^.Q.E.!.E.#XwX,Xf.Q.<XE.#XW.W.,Xf.4X6XW.4Xd.,XQ.,XQ.XX!.<XXX,X<X,XyXXXf.W.W.R.Q.@X@X#XR. X.XE.$X2XE.#X/.{.#X%XR././.R.W.E. Xg.R.E.E.#X#XQ.wXR.2XaXE.Q.E.Q.#XE.R.{. X@X/.E.Q././.&XR.E.W.W.{.R.W.R.{.R.Q.Q.&XR.Q.aX/./.Q.Q.aX/.Q.Q.#X/. XR.#X#X XE.E..X$X{.R.{.{.E.&X#X{.{.{././././././.&X/.R.1.$XR.#X1. Xg..Xg.1.W. X|.P.XX|.Q.XX|.oXk.OXoXOX|.W.OX~.OXk.Q.>X>X~.Q.Q.>XQ.>X>XOX>X>XOXT.>X6X>Xk.,XT.1X|.|.|.|.oX|.f.OXOX{.|.f.R.W.@XW.,XXX@XW.#X#X@XQ. X XXXR.|.oX1X1X6XoXoXoXOXXXOXoX,XOX,XW.W.|.W.OXoXW.R.W.R.|.XX|.R.W.|. X|.f.R.@XR.R. X1.E.d.Q. Xf.d.Q.!.Q.d.!.Q.!.E.W.Q.Q.#X#X#XE.E.!.E.E.!.Q.Q.Q.Q.<X<XQ.wX<X!.W.wXQ.<X~.wX,.~.!.Q.wXQ.Q.!.Q.~.Q.<XQ.XXQ.,X>X<XQ.Q.Q.Q.wXQ.wXQ.Q.wX/.#XwXQ.Q.R.E.XXXXXX,.Q.wXE. XW.0XwX>.#X1.E.W.E..X#XR.1.g.$X1. X.X.XR..XoX,. XR.R.d.f.XX<XXX>XXXXXXXg.g.|.R.R.,.|.W.|.,XoXoX,X1X|.g.OX2X,.g.#XW.E.#XE.d.wX#XE.Q.#XQ.<XXX>Xd.<X@X#XQ.,Xf.:.4XW.k.k.XXk.<XQ.k.~.>XXXf.<X<X~.wX<Xd.~.>XQ.Q.j.Q.<Xd.XX<XW.>X,.!.Q.d.Q.Q.Q.Q.<X7X<X<XXXW.<X~.4X>X,X6X>XQ.,X4X<X4X1.E.4XE.2X,X9XE.4X,. Xg.2X@X X1.R.R.$X1.W.W.#X2XW.2XQ.#Xf.R.2XwXE.,X#XXX,X,XwXqX,XQ.XXf.7Xz.<X<X",
"Q.W.E.E.E.E.wXE.E.E.Q.W.d.E.E.wX/.Q.Q.!.Q.Q.!.Q.!.E.@XQ.@X#XE.Q.R.Q.Q.aXaXQ.E.E.<X/.R.wXQ.Q.Q.R./.wX/.#XaX&X!./.&XQ./.#X/.wXQ.#XQ.E.Q.Q.wXwX^.d.^.Q.^.wXQ.wX^.Q.!.wX!.d.~.wXQ.~.Q.!.Q.E.E.2XW.R.wXE.E.E.#XQ.Q.R.Q.Q.Q.Q.Q.aXQ.wX#XE.W.Q.XXE.@X$Xf.4XoXXXOXW.4X>XXX<X,X,XQ.k.>XqXf.4X<X4X<XQ.,XW.XX4X4X4X,X@XE.E.@X#X X{.W.1.,.#X{.E. XE. X{.R.#X#X$X0X X X XR.E.XX1.d.,.E.#XE.E.aXaXW.E.E..X{.{.Q.Q.aXQ./.Q.Q.Q.E.{.Q. X.X XR.R.aXE.&XQ.Q.aXQ.&XE.&XQ.#X#XaX#X#X#XW.{.{. X{..X{.{.E.{..X.X{.{.P.{.E.{.{.{.{.{././. X&X XE.@X1.E.g. XE.oXg.g.f.|.|.f. X|.Q.|.W.XXoX.XOXOXOXOX>X6X>X>X>X>X>X>XQ.~.,X>X>X>X>X>X<XOXQ.>X,XoXP.,XT.>XoXoX|.|.|.|.|.$XXXR.oX|.@X.XoXf.#XXX<XQ.@XQ.@XQ. X#X Xd.f.2X1Xg.oXk.P.|.|.oXoXoX@XoX4X6X,X,XW.XXoX.X.X@XoX|.R.d..XoX X|.|.g.g.|.{. X X/.E.E.W.E.>Xf.Q.k.Q.Q.Q.~.!.E.E.Q.W.W.Q.@XE.aXQ.aXQ.aXQ.Q.<X<XQ.~.!.<X<XQ.Q.,XQ.#XQ.qXQ.wXwXQ.!.wX^.wX~.<XQ.<XQ.>XQ.>XQ.>XQ.Q.wXQ.Q.&XQ.E./.E./.Q.Q././.Q.d.Q.!.E.<X,./.W.wXE.2X,.E.$Xd.%X{.R.g.{.{.{.{.{.0X$X.X X|.oXoXR.@Xg.f.@X4X|.k.oX>Xf.k.,XW.d.f.d.oXf.oXg.g.5X,Xg.d.g.XXXXg.d.1.2XE./.1.~.E.@XQ.E.E.Q.#X@X>Xd.W.f.Q.E.Q.XX,Xd.,.<XW.XXQ.XX>X7XQ.d.,XQ.!.d.~.~.f.>X>X!.~.<X<X<X>X<X XE.XXQ.XX4X#XW.Q.f.>X<X<XQ.<X<XQ.<X<X~.XXk.XXW.d.<X4Xf.W.W.oX@XE.XX@XQ. X2X2X{.#XR.2X X{.1.@X9X9X XR.E.0X9X$XW.@X@XE.@XQ.#XXX XW.4XwX2X4X<X#X<XXX~.<X~.HX>X7X7X",
"E.Q.Q.E.!.E.!.d.Q.Q.Q.R.d.E.E.Q.,.!.!./.E.E.E.!.>.1.E.E.W. Xd.W.Q.E./.Q.E.Q.Q.>.Q./.#XQ.#X#XR.E./.#X/./.#X/././.wX/./.#Xd.!.Q.Q.^.Q.Q.Q.^.Q.wX/.Q.Q.!.!.!.Q.Q.E.wXwX#Xd.Q.<Xd.d.@XQ.@XE.E.@XQ.Q.aX!.R.R.#XW.Q.Q.Q.Q.Q.Q.Q.Q.Q.#XQ.E.#X XE.E.XXE.R.4XXXXX|.W.>XXX#XQ.4XXX@Xf.,X9X,XXXf.>X<XQ.,X,Xd.oX<X4X,X#Xg.,.W.#X#X#X@XR.E.aX%XE.&X/.&XR.&X#X/. X$X{.g..XE.g.@XQ.E.E.R.Q.E.E.#X#X/.E.{.{.{.E.Q.Q.Q.E.E.E.Q./. X{. X XR.{.W.#X/.#X#X/.Q.&XQ.aXQ.E.Q.Q.#XR.#X#X X@X@XR./.E. X{.&X%X#X{..X%X.X{.1./.{.{.{.&X&X/./.E./.&X XwXE.E.E..X.X$X.X XoXoXR.f.XX|.|.|.W.oX{.P.XXOXOXOXT.Q.k.>X>X>XQ.k.Q.>X>X>X>X>XXX>X>X>XOX>X,XT.k.7XoXOX$XoXf.g.|.|.k.|.f.g.|. X1XoX@Xf.W.E.Q.f.Q.R.#X#XoX XE.W.oX,X|.g.1X|.OXoXoX,XOXQ.P.k.|.W.f.XXf.OXR.g.E.{.W.XXoXOXXXOX{.|.XXW.g.{.#X.X XR..XW.W.E.,Xk.Q.Q.XXQ.Q.E.Q.Q.Q.E.Q.W. X0XE.Q.Q.Q.wXQ.E.Q.4X~.Q.~.Q.Q.Q.!.E.!.!.W.d.Q.E.!.Q.Q.Q.Q.Q.<XQ.<X!.4X<X>XQ.,X,XQ.Q.wXQ.aXaX/./.wXaXaXQ.aXQ./.Q.wX@X,XXXE.Q.W.@XW.E.Q.,.Q.@X#XQ.Q.g..X{.1.{.{.R.{.1.1.{.g.|.6XoX<Xf.{.R. XOXd.d.>XOXa.,.f.,.W.@X,XW.g.XX|.XX4X|.R.1X1.W.|.{.f.Q.9X,.!.@X0Xd.E./.Q.!.E.E.d.f.f.<X,X4XE.E.Q.@XQ.f.7XXXXXk.!.,X>Xk.!.<Xf.!.Q.<X<X!.>X!.Q.wX<X^.!.j.wXXXXXXXXX2X<X,X,XQ.E.Q.<XQ.Q.!.d.~.wX<X4X~.Q.Q.Q.<X4X4Xf.qX9XyX<Xg.4X#XW.g.2X.X X5X@X$X{. X1.0XeXE./././.W.R.E. X@XE.g.#X,X9X#XaXQ.@X2X@X<X<XQ. XQ.>X7X>XqX7X7X7X",
"E.wX#X!.E.d./.d.E.Q.Q.!.1.@XaXQ./.E.d.!.Q.d.<XwX1.!.!.1.E.Q./.#XQ.E./.#XQ.wXaX/.Q.!.#XaXQ.aXQ.E./.aXwX/.#XaX/.aXwX/.Q.Q.E.E.E.@XQ.Q.Q.Q.wXQ.!.!.wXQ.!.!.d.!.^.!.Q.!.E.!.wX~.Q.XXQ.Q.wX2XQ.W.E.Q.#XR.Q.Q.Q.E.Q.<X/.Q.Q.E.E.Q.Q.Q.W.E.0X#Xf.d.#XR.>X<XW.,XQ.k.W.4X4Xd.,XQ.4XQ.#XQ.4XXXf.W.#XXX<XqX6X<X Xd.E.Q.,X9X1.R.%X{.R.R.1./.%X/.#X/.&X/.R.E./.R.#XW.g.@X X XwX0X#XwXaXaX#XQ./.R.R.#X.X{.{.{./.&XE.E./.E.E./.R. X#XR.{.R.&X@XQ.&XQ.R.Q./.&XR.Q.&X&XwX#XR.#XQ.E.%X%XE.1.E.R.R. X#X{.R..X.X{.{.{././.&X/.{.E././././.R. XaXR.{.g.{. XoX.X|.OXoX|.|.oXXXXX X|.,XoX+XoX@X,X>XOXXX>X>X<X<X>XXX<X7X>X>XXX>XQ.>X,X>XOX,X>XoXOX6X,XOX6X>Xg.W.@X1XOX|.oX|.oX|.XXR.|.g.XX#X@XW.#XQ.@X@XXX X X@XoXR.|.XX4XOX@X>XOXoXXXP.,XXX>XXXXX>X>X1XXXg.g.E.g.{. X.X X|.|. X@XoX|. X{.{..X XXX Xf.d.Q.d.XXQ.>XQ.Q.d.Q.wXQ./.W.W.Q.,XR.wX&XQ.Q.Q.R.wXQ.Q.Q.wXwX<XQ.E.Q.Q.,XwXE.Q.Q.#X!.Q.wXwXwXQ.wX#Xf.<XXXQ.Q.XX,X XR.wXQ.R.Q.Q.aXQ./.E.aXQ.R.Q.^.E.E.<XQ.E.,.@X2Xd.E.Q.1.yXR.1.2X/.R.%X.Xg.{.{.{.{.1.g.$Xg.1.|.s.1.f.XXW.{. Xk.k.5Xf.R.W.Q.,.W.XXf.f.g.|.g.W.1.,.d.5X|.oXg.g.f.W.,XE. XQ.Q.W.d.Q.E.,.1.Q.Q.XX>X4XW.<XE.Q.XXW.f.f.,X<X>Xf.Q.<XQ.f.<X<Xd.<X~.wX<X<X<XqX^.k.f.>X<X<XHXQ.@X<XoX4Xd.E.Q.>XE.d.d.d.wX4X<X,X<X!.>XQ.@X>XQ.,X,X7Xf.XXd.W.XXd.4X#XXXR.#Xf.oXyX#Xg.E.3X@X0X XE.{.wXaX XE.&XuX.XR.#X@X$X,XE.Q.W.E.Q.W.@X2XQ.#X>X>X7X~.7X>X7X<X",
"<X@X!.E.Q.Q.Q.E.E.Q.Q.Q.!.aXQ.wX^.wX!.!.E.>.E./.E.#XwX X@X#X/.W.@XE.Q.#XE.wXQ.E.@XwXE.E.,.Q.#X#X/.&X#X/.&XE./.E.aX/.#X#XE.Q.Q.wXQ.Q.wXQ.wXwXQ.E.wXwXwXuX!.wXuXQ.wX!.Q.#XqX!.R.<XE.W.wX#X#XE.R.$XE./.E.W. XE.E.Q.E.Q.wXQ.Q.E.Q.Q.W.Q.wXQ.1.E.wX2XXX,XW.,XOXk.R.,X<Xd.XXXX4X@XQ.Q.Q.,X4X4X,XQ.<X4XQ.XX,XW.wXW.#X XW.Q.#XR.{.&X X#X/./.aX/.#X/.&XR.#XE.&X2X{.#X X#XwXQ./.Q.Q.aXQ.Q./.E.E.R././././.Q.Q.aX/.Q.&X/.R. X{.#X X{.#X#X#XQ.&XE.Q.&XR.Q.Q.E. X X#XQ.#X#X#XE. XW./.R.$X&XR.1.#X#X&X$X.X/.{.{.{.&X{.&X/./././././.E.R.#X/.E.|..X+X{.P.{.|.|.OX{.@XoXoXXX X@X.X|.f.g.k.OXoX>X>X>X>XXX>X>XXX>XQ.XXOX~.Q.XX>XXXOX>X,XXXXX@X6XXXXXOXW.|.>XoXXXXX|.f.XXOXOXP.XXXXW.W.,XXXOXd.g.d.f.,X,XOXk.|.1XOXXXW.>XoXXXXXOX>XOX|.>XoXOXXXf.g.oX|.OXoX|.|.P.f.g.g.g.g.|.R.1.g.{.|.{. X X|.f.W.>Xf.Q.d.E.Q.Q.Q.E.wXE.d.W.W.W.R.Q.aXQ.Q.Q.Q.Q.wX<XQ.Q.#X~.W.E.<XQ.E.Q.Q.d.E.Q.Q.Q.Q.wXQ.Q.Q.Q.!.>X,XQ.@XwX@XwX0XQ.aXE.E.Q.wXQ./.Q.Q.Q.&XE.Q.Q.>.,.XXf.Q.#X#XE.Q.#XE.qXQ.1.,.W. X.X@XE.g..X.X1.R.{.{.$X1.g.1X|.oX{.W.E. X2XW.f.<Xf.6X4X4Xf.XXXX X6X|.@X,.XXf.OX|.oXoXOXg.1XoX|.XXf.E.f.E.E.E. XW.!.E.wX2XQ.W.,Xf.Q.Q.,XwXXXf.Q.<XQ.<XXX,X4Xk.E.>XQ.,.4X!.<X!.~.f.^.>X!.~.qX<XQ.d.d.@X#Xf.W.f.Q.R.,X#X>XqX@XwXW.:.>X<X!.>XQ.,X>XXX>X<X,X@X,XW.|.4XE.@XXX XoX X{.,X$X.Xg. X2X X$X|.{.E.E. X XR.E.#Xg.{.aX#X#X X1.E. X/.Q.R.#XwX X@X4X<X>XQ.7X<X<X<X",
"Q.!.d.!.Q.Q.wXaXd.1.E.Q.E././.Q.d./././.E./.aXE./.E.#XR.W.R.>.E.#XE.#X#XE.@XW.E.,.#XE.0XR.wXE./.!.Q.aXQ.aXR./.E.wX/.#X#XE.!.!.@X!.Q.wXQ.wXQ.!.!.!.Q.!.Q.!.Q.^.Q.!.E.E.Q.<XE.4XqX2XQ.R.Q.W.W.W.#XE.d.W.Q.wXQ.E.E.Q.Q.Q.wX~.d.!.Q.R.W.#XE.W.Q.$XQ.XX6X,X>XXXXXW.R.Q.R.,X#XXXQ.#X<XE.,X4X2X,X#X#XXX XW.Q.1.Q.W.#X#XE.1./.E.R.#X{.#XR./.aXR.%X#XaXaXQ./.#XaX{.#XR.W.E.E.E.Q.R.#XR.#X#XaX#XaXQ./.aX/.&XR.aXQ.R.E.E.E./.#X#X&X#X#X&XR.Q.#X&XQ.aXR./.&X{.#XR.#X XR.aXR./..X.XE. X#X X$X X$X@X%X$X{..X.X&X{.{.&XE.&X&X/./././.{.&X X/.E..X X$X{. X|.OX@X X|.@XoXoX X{. X$X$XoXOXoX1X,X6XOXOXT.Q.XXXXW.f.XXQ.OXXXQ.XX,XoXXXXXXXoX#XR.#XXXW.oXoX|.|.g.|.6Xd.g.OXOXXXf.>XoX,XoX6XXXoXW.oX,Xg.oX|.oXOX|.6XOXXXg.>XXX|.XXXX,X1X>X6X,XoX1XOXOXg.g.|.oXoXoX X{.|. X X.X$XoXW.{.|.|.{.|.f.f.W.oXQ.R.Q.R.Q.Q.Q.Q./.!.Q.>.Q.W.Q.E.Q.#X#X#XW.W.Q.Q.Q.#X XQ.Q.W.Q.wXwXR.Q.E.E.wXaXQ.wXQ.!.Q.Q.Q.E.wXQ.E.E.E. Xf.W.Q.Q.Q./.wXwX/.&X&XQ.&X#X/.E./././.E.d.d.E.Q.d.E./.XX#XQ.1.W.R.E.1.E.{.P.{. XP.1.1.0X{.{.g.g.OXg.g.|..X@Xg.R.,.g.XXa.R.Q.f.E.,.E.2XXX,.g.,.,X{.1X XR.|.g.f.qX1Xf.XXf.f. XXX:.Q.E.@XqXW.Q.E. XQ.<X<XwX@XW.oXQ.k.XXQ.a.@X~.f.W.!.>XXXwXQ.qXXXqX<XqXf.qXqX7X,X~.k.~.<XW.W.R.f.W.|.XXXXE.W.Q.XX!.Q.<XXXQ.wX<X4X,X~.XXQ.W.>XQ.XX<X4X,X@X@X XR.f.1X#X#X@X#X@X.X.X@X{..X%X#XR.{./.R.&XR.%X1.R.W./..X.XR.#XaXW.Q.aX,X$X XQ.#X,X#X,X4X<X,X>X",
"!.!.!.#XE.Q.wXQ.Q.Q.wX#XQ.Q.Q.#XE.#XQ.E.Q.Q.aXQ.Q.E.E././.E./.E.R.#X#X#XR.@X#XQ.#XwXR.#XR.wXaXwX/././.!.Q.aX/./.wXaXwXwXE.!.<X~./.wXQ.E.wXQ.Q./.wXwXwXwXE.Q.!.^.#XQ.Q.R.Q.,.XXXXaX@XR. X#XE.{.W.#XE.Q.#X<XE.W.E.wX#XQ.aX<X,.R.Q.Q.Q.#XE.@XXXW.E.XX,X6XW.oX>XOXf.W.@X@XQ.XXQ.XXXXXXXXXXQ.Q.@XXXW.R.W.W. X2X2X X X#X X#X$X X#X&XE.aX/.aXaX&X X#X%X%X/.#XaX%X#X#X&X/.E.aXaXaXwXR.&XE.E./.Q.Q./.&X>.#X&X/./.E././.R.R./. X&X&X#X{.R.aX/.E.E.#X&X/.Q.$X$XR..XW.E.@XW.E.#X XR. XR.R.0X$X{.{.{.R.E.{.$X{././.{.&X#X#X&X{././.R.&X XE.{.{.g.OXg.{..X.X$X.X|.oXoX X.XR. XOX{..X+XoXXXT.f.>X,X>XOX>X,X>XW.OXQ.>XXXXXOX@XoX#XXX X X@XE.#X XOX,X,X@XoX|.oX5X|.P.OX|.|.g.g.g.oXW.OXg.OXf.1X6XP.oXP.@X$Xf.@XoXoXW.oX,XXXoX XoX,XoXOX|. X+XoX$X+X|.OX.X{.|.|.|.g.{.P.g.{.g.g.{.E.R.g.k.g.g.k.|.Q.E.wXQ.Q.W.Q.E./.!.aXE.#XE.#XQ.E.E.Q.R.E.!.Q.d.Q.Q.Q.Q.@XQ.Q.Q.aXQ.Q.wXQ.Q.Q.Q.wXQ.Q.wXQ.Q.Q.uXW.#X2X#X4XE.#X@XE.aXQ.Q./.#XQ././././.wXaX#XE.2XwXE.XX@X1.d.wXE.E.,X,.E.#X#XW.>.1.{.{. X/.1.E.&X.X1.{.$X6X5X6XOXE.&X0X1.g.d.oX|.k.,X1XOX9Xf.1.OX@Xg.f.oX1X X|.g.,.|.|.R.g.,.g.|.,Xf.W. Xd.wXW.Q.@X/.E.W.2X<X#X@X4XXX,.d.R.f.W.d.d.XXW.d.Q.f.7XXX<XE.Q.<XQ.Q.<Xd.>XQ.f.Q.,X>X<XQ.2Xf.W.@XXX Xf.,X XQ.<X,X XW.#XQ.!.,X<X,X>XR.XXf.<XeXyX,XXXR. X2XXXoX#XW.XX#X@X X$X,X@X X XR.R.3X/.E.{.{./.&XE.aX X#X{.E.@XR.#X2XaXQ.#XaX#XR.#X XW.#X,XXX#X>XXX,X",
"@X!.E.Q.E.Q.Q.Q./.Q.wX/./.Q.aXQ.Q.E.Q./.E.E.#XQ.wX1.E.E.E.W./. X/.Q.E.Q.Q.#X,X#X!.R.#XwXaXyXQ.aXE.Q./.#XQ.wXwXwX/.!.!.#XE.#XwXwX/.wXwX!.wXQ.!.!.!.Q.!.Q.E.^./.Q.Q.E.W.Q.0Xg.wX@XQ.#XR.W.R./.R.R.#XQ.aXQ.E./.Q.aXQ.wXQ.wXXXQ.<X<XQ.aX#X!.wX#XQ. X@XXXoXf.XXXXXXoXXX@X!.1.<XW.<X1.XXXX<XXXQ.W.f.XXXX#Xf.XXW.,X1.E.W. X$XE.E.#X%X#X&X/./.&X/.&X XR.&X1.E.R. X{.#XR.Q./.Q./.wXaXR.R.#XaXR.aX/./.Q./.&XQ.E.E./.E.&XQ.&X&XE.E. X{.&X{.aX&X/.Q.#X/.Q.Q.0X@XE. X#XE.2XaXE.W.1./.#X{.{.0X%XR. X@X&X{.&X$X&X{.R././.R.&X/.%X&XE./.{.#X/.{.oX{.@XP.oX.X#X$X$X{. X.X#X#X{.R.|.|.|.|.|.OXoXoX>XOXP.g.OXoX>XP.OXOXoXoX|.XXoXXX,X X XoX$XE.oX.X{.{.g.{.oX.Xg.{.|.R..X|.OXg.+X.X|.P.oX.XoX{.P.|.f.5X6X>XOXP.6XOX XR.XXoXoX@X|.|.|.P.|.{. XOXP.{.|.|..XoXOXOX$X.XOXoXoX{..X|.{.#X|.OX|.6XoX>XW.XX#XW.#XR.W.R.E.E.E.E.Q.E.Q.1.Q.Q.E./.Q.E./.Q.<XE.Q.#XW.!.#XQ.Q.aXaXQ.wXaXQ.E.aXwX/.#XQ./.aXQ.Q./.d.#X2XQ.#XE. X XQ.Q.E.aX#X#X#X#X!.Q././.R.Q.E.#X<XE.d.XXE.Q. XQ.E.1.#XW. XE.@X1.{.g.g.g.1.g..X.X1.g.{.OXP..X$X,.1.@.,.:.5X|.,Xg.OX6X X+.XX,.,.f.g.|. XoX,.oX@Xd.XX2X|.g.>.R.XXg.R.E.Q.W.d.E.4X,X!.Q.wXQ.Q.W.Q.<Xd.Q. X<X<XQ.,X,X,XXXk.,X7XR.>Xf.<XQ.Q.qXf.d.,X!.<X>XQ.<X<X~.7X!.R.g.1X,Xf.#Xf.@X@XE.Q.Q.@XXXwX#X|.Q.>X>X6XXX>Xf.qX<X>Xf.6Xf.,XqXf.2XyX2XR. X1X.X@X$X$X{.g.g.1.@X%X&X/.R.#X0X XE.1. X#X&X0X1.{.$X#XE./.Q.R.d.@X@XQ.,X,XXXXXQ.,X4X",
"Q.~.>.wXQ.d.@XE.E.!.#XQ.1.#X/.E.E.E.wX@X1.#X,XE. XE.E.#X1.R.#X#XE.#XW.wXW./.wX X2XW.aX!.#XwXE.E.Q.aXwXQ.&XE.wXE.W.W.Q.!.<X<X,.wX!./.!.wXQ.qX!.Q.wX!.E.Q.Q.wX/.Q.#XaX#XQ.9XE. XyXE.@X/.@X X@X{. XQ.#X X#X,Xf.XX@XQ.#XXXW.Q.XX,XQ.4XXX4XXX,X<X2X,X@XW.f.@XXXf.XX2XW. Xf.W.@XXXQ.g.R.@XqXXXXXqX@XW.,X<XQ.@X XE.wX#XW.@X/./. X/./.{./.&XaX/.aX/.&XQ.&X/.Q./..X X1.#XQ.E./.E.E.R.R./.Q.aXQ.R./.wXQ./.aX/.#X/.#X#X/./.&X X/.aXR.#XaX.X{.E.{.R.%XE.E.2X XE.f.@X1XOX.X XR.E.E.@X X$XaXR.&X#X.X.X{.3X{..X&XR.&X/./.E.&XE.{..XE.{.&X$X{..XoXg.+X X$XoX$X$X{..X.X+X{.{.R.{.1.{.{.|..XOX+XoXOXOXOXP.$Xg.$X+Xg.,XT.E.{.oX$XoXOX$X@X X{.R. X{.{.E.1.{.{.{.1.P..Xg.{.|.P.+X1.oXP.R.{.P.P.P.g.g.{.{.+X.X{.P.1.OX{.oX X1.{..X.X{. Xg.{.}..X{.{.P.P.P.W.oXOX.XoX@X.X$XoX1Xg..X+Xg..Xg.f.g.|.k.|.k.f.d.|.W.<Xf.E.W.>.!.E.Q.Q.E.E.wX1.@XQ.W.E.XXQ.Q.XXQ.W.XXE.XX X XQ.wXE.Q.E.#X#X/.wXQ.Q././.Q.!.wX/./.E./.&XQ.R.aXR.Q.wX/.Q.Q.Q.aXE.#X,XwX&XE.E.#Xf.,.4XQ.R.W.@Xd. X1.<XW.{.1X,.g.oXoXg.{.{.&X1.1.3X1.#X.Xf.f.oXOX@X#X,. X X X,X2Xf.f.OXR.FX,. X5XoX|.oXf.|.f.|.oXW. XoXd.,.qX5X,.Q.XX4XXXQ.,.k.XX<Xd.f.d.f.<Xd.Q.4XW.4XW.4XW.a.#Xf.<X,Xf.k.XXQ.<XXXE.<Xd.wX$XqXE.XX,XQ.Q.,XqX>XE.XXE.R.#X@X@X X,XE.Q. XR.,X<Xd.Q.,XQ.>XW.4XXX,XW.2X9XW.|.oXf.,X4Xf.qX@X@XW.W.1. X0XE.{.E.{. X2X{.aX{./.&XE.&X1.&X&XW.$X$XrXE.%X@X/.Q.#X#XR.aXQ.Q. XR.#X@X@X4X,X#X",
"@XwXE.wXQ.E.wXQ.E.W.@X#X/.wX/.E.E.E.2X@XE. X$XE.R./.E.aX/.Q././.#X#XR.aXwXQ.wXE.#X!.Q.E.Q.aXQ.#XaXQ./.&XQ./.wXQ.<X@XXXE.#XXXE.wX!.!.wXQ.@XwXQ.Q.wXaXwXQ.Q.wX!.Q.Q.wX@X@X@XW.W. X/.W./.Q.@X$XR.E.@X XQ.W.4XE.XX#XXX@XXXQ.Q.XX<XQ.XXXX,XW.Q.<X2XXXXXf.@X,XoX XR.XX Xf.R.XXXXf.g.<X,XXXW.#X XW.W.#XW. X,.d.W.1.Q. XE.#XE.{.#X X#X%XQ.aXaX&XaXQ./.aX/.aXaXQ.rX@XR..XrX#XW.wXW./././.#XaXQ.&X#X&XaX/.wX/.&XQ./.#X/.#X{..X.XaX{.E..X.X#X&X.X.X%X{.R. XR.R. X#X#X X X{. X XE.&XE.#X@X{. X.X.X.X{.%X{.E.#X&X#X&X#X#X&XR. X.X{.{. X#X{..X.XP.+X{..X.X+X#X{. X{.{.{.R.E.{..X$X$XoX.XoX>X1XOXOXOXOX6X|.1XOXOX6XoXoXoX.XoXOXoX+X{.g.g.{.|.f.{.%X%X.X{.{..X1X<.P.6XP.s.1.%.P.U..Xg..Xg.|.P.g.P.1.T.{.|.+Xg..Xg.g.g.g.g.{.f.P.P.{.{.{.{.}.%X{.|.OXP.oXP.|.P.{.P.|.{.P.P..X{.1.P.g.OX|.XX|.oX1Xa.R.6XW.XXW. XE.E.Q.Q.!.aX/.E.Q.d.Q.f.R.E.W.E.E. XW.W.XXQ.Q.E.f./.aX#XR./.Q.Q.Q.Q.Q.aXwXQ.E././.wXQ.wX#XaXQ.aXQ./././.#XaXE./.#X#X#XQ.R.E./.E.W.E.f.W.XX X>.,X Xg.g.,. XR.f.>.&X{..X|.{..X.X X$X.XE.{..XP.OXoX1.R.R.E.#XR.R.XX1X>XP.k.OXoXR. Xg.,.f.oXg.,.1.d.f.|.1Xd.,X{. X,.XX#Xd.,X<X:.<XQ.f.E.d.E.<XW.wX1.E.>X7X,Xd.Q.<X,XQ.f.Q.Q.d.XXqXXXE.d.E.@XW.#XQ.#Xd.wX7X<XXX>XQ.>X4XqX X|. X0X0X#XE.Q.E.#XE.E.<X0XQ.<XXXW.<XXX>Xf.<X<X4XW.,X2XXX2XoXg.@Xf. X X9X1XR.R.R. X{..X3X3Xg./.{.#X{./.#XR.aX#X&XR.&X2XR.&X{.R.R.Q.aX#X/.E.aXW.R.E.W.W.W. X,X",
"Q.<XQ.Q.E.d.Q.R. XW.R.R.1.Q./.E.E.E.#XE.E.W.@X#X XE.#X#X/.aX/.E.0XQ.E.wXuX#XwX#XwXW.9XaXaXwX#X@X/.Q.R.Q.0XE.#XE.4X<X<XW.~.,XQ.<XQ.E.Q.wX@XQ.~.@XwXQ./.Q.Q.Q.E.Q.Q. XwX#X X@X.X XW.%XR.R.{.R.g.g.#XE.#XR.4XW.XX,XXX<X<XXXXXwX4XXXQ.Q.XXQ.R.,XXXXXXXg.@X XW.2XW. X,Xd.#XW.1XW.g. X|.<Xg.XXf.g.E.f.,X1Xf. XwXE.E.#X X0XaX@X#X&X0X%X&XQ.Q.aX&X/.&X&X/.aX&XQ.aX XR.E.#X#X&XQ.#X#XR.R.R.Q.&XQ./.Q.wX/.Q.E.Q.E.Q.E././.R.{..X3X{.E.&X#X X@X XR.{.@X X{.E.{.$X#X X|.{.R. X$X{.R.E. X#XR..X X%X%X.X%X&X{.#X&XR.#XQ.&X#XR.{..XE.g.E..X{..X.Xg.$X.X+X{..X.X{..X X.X X/.{.{.{.{.OX{.f..XoX|..XOX{.P.P.g..X{.P.P.OX+XXXP.+XOX$XOX{.P.{.P.OXP.1.}.P.1.P..X}.+XP.P.+X1.P.P.P.P.|.P.P.{.P.OXP.P.P.<.L.g.+X+XP.P.g.P.{.g.P.g.g.{.P.P.P.g.1.F.P.1.g.P.g.oXOX$X+X$X{. X.X.X%X%X X1.@XP.|.g.g.g.oX1Xg.d.Q.@XQ.R.Q.W.Q.Q././.#XR.E.!.W. Xf.|.R.W.W.E.Q.f.W.Q. XQ.XXW.!.E.#XQ.Q.Q.Q.Q./././.Q.#X/././.Q.R.&X#XE.Q.E./.E./.Q.#XwXE.!.Q.Q.Q.Q.W.E.W. XE.Q.XXE.W. X,.@XoX|.1XR.@X.X.Xf.tX1.{.P.g.{.{.R.&XE.{.g.P.P.XX,X1.#X/.d.1.OXoX|.|.5X4XOX1X@X5X6Xg.@X1X,XQ.|.4XoX|.|.W.g.1.1Xf.g.f.W.k.>Xd.d.>XXXQ.f.R.Q.#X#X,XQ.Q.Q.<XR.<Xk.>XQ.XXf.d.W.XX>X#XQ.,XW.2XXXQ.Q.W.Q.E.<XW. XQ.7Xf.Q.4X Xf. XE.#XE.E.1.#XE.XXQ.#XXXQ.#XXX>X4X>XXX,XXXXXoX4X2X4X@X|.6XoXW.#X X#X1.@X9XE.oX@X X X.X%X.XR..X/.{.&X{.&X/.aXR.{.R.{.{.g.{. XaXwXW.Q.Q.E.#XaXR.W. X X#XR.R.1X",
"@XQ.#X!.Q.E.aXQ.9X@X XXXE.Q./.Q.#XQ.R.R.W.Q.#X#X XE.$XW.1.aXR.Q.#XE.E./.#XE.Q.#XW.E.wXQ.E./.E././.Q.aXQ.wXR.Q.E.XXQ.,X!.Q.wXwX@XQ.wXQ.Q.wXQ.0X#XQ.E.E.wXaXQ.E.Q.#X/.W.R.,.#X XE./. XW./.E.g.$X9XE.f.4XE.,XR.|.<Xf.|.Q.f.E.XX,XQ.@XQ.W.,XQ. XQ.6X4Xf.W.W.oX4X|.R.,XW.#Xd.,X#XW.g.W.2XW.,XE.2X,X@XwX@XE.$X0XR.R.$XW.#X@X#X/.E..XR./.&X&XaX/.&XQ.Q./.wX/.&X%X@X.X.X/.R.R././.#X#XE.R.&XQ.aXaX/.#X/.aX/.&X/.&XaXQ./..XR.{.$X{.&X$X@X{..XR.{./.@X.Xg.E.{.@X.X|. X X XW.aXR./..X{.{.$X{.E.{..Xg. X#X{.&XE.&XE.#X/.#X#XP. Xg.g.{..X.X{.{.R.%X+X+X.X.X.X&X{.#X.X#XE.&X#X@X{.#X@XP.oXoX|.1X$XoXOX{.P.+X+X+X.XoX6XOXP.$X+XOX}.|.T.P.P.P.oXP.{.P.P.P.U.P.P.P.<.U.;.U.L.s.L.;.<.%.<.%.;.%.%.s.,.<.s.g.L.s.P.s..XOXP.OX+X.XP..XP.|.P.g.1.g.P.OXOXP.oXg.+X.XoXP.P.{.P.%X.X{.1.$X{..X$XoX|.,.+.>Xd.d.,X|.W.W.f.Q.Q.Q./.@XW.#XR.#X Xg.XXQ.Q.#XQ.Q.f.W.Q.,XW.>XXXQ.Q.wXQ.aXaXQ.R.uXQ.Q.Q.&XwXQ.Q./.aXQ.&XR.R.Q.&XQ.Q.aX/./.aXwXQ.E.Q.2X<X!.W.#XE. XQ.XX,.R.XXW.g..X>.1X X,.g.{.f.g.f.1.1.{.g.E.{.1..X1.g.|.g.6X{.&X XeX X XoX,XyX|.|.f.g.2Xf.g.R.6XW.1.g.|.5Xf.g.yX,.,.|.g.f.f.@X>X<XQ.d.XXQ.4XXXk.Q.Q.R.,Xf.<XXX4X>XQ.HXXXW.f.<X6XQ.<X<XW.d.f.,X XwXE.E.#XQ.wX#XQ. XXX<XqX,X,X,X|..X0X%X9XR.wX0XXXE. X@X9X XE.#XXX,XyXQ.XX4XoXf.,X4X4X6XW.f.1X@X X2XwX@X,.E.1XW.2X@XR..X{.{.g.#XaX/. X.X@XR.1.#X1.{.{.R.1.{.{.{.aXaX&X/.E.aXwXE. X#X@X#XwX X|.9X",
"$XQ.Q.W.wX#XQ.Q. XR.f. X|.R.g.E.#XaXQ.#X<X@X#XR.R.E.0X#XE.0XE.W.#X2X2XR.qXXX,X2XaX@XwX#XQ.E.#XwXE.&X#XR.#XR.#X@XwX@X9X!.Q.<XwXQ.E.wX#XQ.#XE.2XQ./.Q.#X0XW.#X#XaX0X X@X0X1.Q. X#X X$XoXg.g.,.R.oXg.g.2XW.@XW.W.@XQ.,X,XW.W.XX<X,X4XQ. X4XQ.Q.W.<X4X X X2X4XoXW.d.E.#XoX1.|.f.2X Xf.f.|.1XE.#X1.E.wXE.R.@XR.E.$X0X#X X%XaX#X&X$X0X/.Q.Q.:XR.aXaXQ.Q.aXE.{.#X#X#X XE././.R.E././.aXaX&XQ.aX&X/.#X/.aXR. XE.Q.aX/.R.$X{. X.X X XoX.X{.#X.X@XE..X{.g.{.{.oX|. XOX X$XW.@XR.R.@XR.R.%X.X{..X.X{..X3X.XR./.%X XaXE.#X@Xk. X{.g.|.+X.X.X{.P.$X+X.X.X.X.X.X.X$X{.%X{.&XE.$XE..X{.E.#XP.,.P.P.+X$X.XP.P.{.P.P.P.+XU.P.U..X+X+X+X+X.XP.P.{.;.%.%.%._ G D _ } U ` F F A Z Z G D Z D Z G 7 Z F G _ D _ _ } -.} ,.%.%.s.P.OXU.|.P.+XoX{.P.P.P.g.T.g.P.s.{.F.|.{.{.P.1.oX{.{.F..Xg.1.R.|.oXXXXXoXf.k.OXk.XX<Xf.E.XX4XE.,XW.R.E.oXR.d.XXQ.Q.#XQ.XXW.<X,X<XW.XXQ.Q.#X0XQ.E.Q.Q.#XwXQ.E.E./.Q.Q.R.Q.Q.Q.&XE.Q.aXQ.aXQ.Q./.!.aXQ.Q.Q.Q.wX,Xf.W.@X XW.XXXX,.W.<X|.d.|.R.|.g.0Xg.@.%X|..X+Xg.$X{.{..X{.{.1.|.oXg.OXg.R.1.,X1.g.|.k.oX|.OX6Xf.5Xg.{.eXoXW.g.XXOX3X{.W.|.,.3XqX|.XX1.XX6Xk.:.qXXX>XXX>.W.<XXXXX#XR.<XXX<XXX<X~.f.~.f.XXR.W.XXf.E.wX9XwXd.Q.E.E.qX<XwX#Xd.2X<XwX$X,X#XXX XR.{.#X0XR.#X X@Xd.@X#XW.#X9XQ.XX@X<X4XXX4XW.W.9X6X X|.|.oX4X|.,X,X X XW. X1X$X|. X{.$X|.R.g.$X{.{.$X1.{.{.g.{./.#X{.{.R.3XoXg.#X@X#XE.aXwX#X/.1X@X#XW.4XW.#X9X",
"2X#XR.E.2X#X XE.,X X{.#X#X#X.X@X@XwXE.W.#X#X2XXX X X2XW.E. XE. XE.#XQ.R.qXXX XE.Q.@XwXQ.#XE.R.aX/.R. X#XR.E.R.wX XW.#XE.E.E.Q././.aXwX#XQ.E.Q.#X/.E.E.#XE.Q.Q.Q.@XR.#X#XE.E.g.R.E.R.{.g.$X XoX|.W.W.@X|.@XoXW.W.Q.XXXXf.d.f.k.W.Q.Q.>X#XR.XX XXXE.f.R.1X@XR.oX#Xg.XXXXW.#Xd.XX XR. X4X2X X,Xd.d.2XE.#X9X#X X0X#XE./.E.&XR.R.R.%X/.aXR.aXQ.aXaXaXQ.#XE.#X XR.g.g.#XE.d./.R.Q.E./.Q.aXaXR./.#XaXQ.%XR.&XR.Q.aX&XQ. Xg.@X.X{.P..X{.$X$X{.{.{. X{.|. Xg.OX|.{.oX{.2X.X#X{. X%XE.R.0XR.{.{.{.{.{.&Xg..XE.#XR.aXW.2X2X|.OXP.g..X|.|.|.{.{.$X+X.X+X$X+X.X{.&X&X%X{.&X/.%X{.$X$X$XrX$X|.1X6X8X%X%X+X+X}.{.U..X8X%X+X+X+X+XP.L.s.;.;.*.` } F 7 Z Z - 7 G F Z Z C S Z Z Z - F - Z 7 D - A - - - 7 - - - _ D Z 7 7 D } @.-.;.s.P.s.s.g.T.<.,.P.g.OX1.OXg.{.{.P.{.{..X}.{.{..X{.{.$X{.f.1.a.OXk.XXQ.k.W.,XXXQ.Q.E.d.@XQ. X X|.f.g.#X X XXXQ.Q.Q.XXk.!.k.Q.XXQ.Q.Q.W.Q.Q.Q.#XQ./.aXQ.Q.aX&XQ.aXE.#X/.E.E.E.&XQ./.Q.E.Q.Q.Q.wX<X@X<X,XXXXXoXE.d.@Xg.W.oXf.XXg.f.g.,.|.R.g.{.R.g.$X3XoX@XP.1..X{.{.1.oX6XP.g.,.$Xg.R.1..XeX{.g.|.OX5X,Xf.g.XX1X1.W..Xk.k.@XW.g.,.f.FXg.2X6Xf.W.Q.:.f.7X>Xk.f.k.Q.9XXX<XW.XX>XQ.7X>XqXQ.<XqXXX>X<X,X,XW.Q.@XW.d.1.R.#X@XyXQ.<XE.f.0XQ.Q.Q.#X,XW.$X.XE.{.%XE.W./.#XE.$XW.#X#X,X#XW.>X,X|.XXoX,X|.4X,XXX XoX1X1XoX2X,XE.W.@X X X$X{.@X@X#XR..X$X#X.X1.E.1..X{.{.{.E.$X@X.XP.3X.Xg.#X$X#X#XaXQ.E.Q.1XoX#XW.4X X#X1X",
"@X9X#X#X$X#X#X X3X Xg.g.R.|. X XXX2XW.E.W.XXqX@X1X@X$XE.E.Q. X$XQ.wXE.<X9X#X2XQ.E.#X#XQ.0XE.E.#X/.E.#X#XW.E.E.W.wXwX^.E.wXQ.wXR.!.wXaXwX#XQ.@X@XwXE.E.W./.@XQ.@XE. X#X$X2XR. X@XXX@Xf.f.1XoX{.g. X@XW. XXXXX XW.#XXXXXQ. XQ.Q.Q.f.R.<XQ.W.W.XXXXf.f.W. XE. X X2XXX XW.XX1X XR.f.f. XE.d.,.Q.,X2XQ.E.@XwX X X#XE.#X#X%X X&X#XR.&X/.aX/.E.aXQ.aX#XaX#XaX0X@X#Xg.E.rXaX/././.#X/.>.E.aXQ.&X/./.Q./.#XR.Q.#X&XQ./.E..X1.oX|..XOX.X{..X@XR.1.{..X.X@X{.g.@X{.|.1X X1X.X#X.X X$Xg. X%X{.{.{.{..X{.&XE.%X X XE. X X@X#XOX|.k.g.OXP.|..X.XP.$X.X$X%X%X%X.X.X%X{.aX{.&X{.#XE. XR.oXrX.X X3X.X+Xg.+XU.}.{.}.+X{.{.F.&.#._ _ _ _ D F G Z - F 7 - Z S Z Z D F - - 3 P S L Z P U - S F #.A U U U F D A 7 A U 7 - - = - Z 7 Z _ @.@.%.-.s.s.,.g.P.,.{.1.|.1.g.g.1.P.{.{.{.F.1.{.1.1.g.g.OX|.oXXXf.T.Q.>Xd.XX>X,XQ.d.1.@X@X@X6X XW.f.@XR.Q.#XQ.Q.Q.k.k.f.Q.>XXX<X#X!.E.Q.aXwXR.Q./.aXQ.Q.aXQ.aXQ.aX#X/.&XaXaXR.aX/.Q.aXaXQ.Q.Q.>X~.,X~.>X#XW.d.W.1Xf.oXoXd.|.R.g.oXP.XXg.R.$X X1. X.X{.{.1.1.1..Xg.{..XW.R.|.s.{.R..X X|.@Xf.P.1XoX6XoXg.$X X|.W.XX1Xf.f.,XoXg.,X@Xg.g.f. XW.5Xk.Q.qX>X7Xd.Q.GX,X<XQ.W.f.XX,X>Xk.d.Q.k.<XQ.d.f.Q.Q.Q. X,XXXE.XXQ.R.R.R.E.E.E./.@X9XQ.@X<X@X4XXXW.$X XR.{.1.#XE. X X#XE.qX X/.Q.W.<XyXd.4Xf.yXW.,X@X1X@X,X@X X@X1X@XR.#X#Xg.R.@X2X,X$X X X$X3X{.eX1.1.{.3X.X1.{.|..X%X.Xg.{.{..X%X2X#X X$XW.R.0X,X X2X#X9XXX@X X",
"Q.uX#X#XW.#X#X X2X|.,.g.|.|.R.g.Q.0XwX@X@X#X9XW.,X1X2X#X$X#X#X%X@X@X/.@X,XE.wXwXE.#XW.E.qXQ.#XrXE. XaXW.g.#X@XW.wXaXQ./.wX#XwXW.E.Q.Q.#XW.aX XE.#XwX0XR.,.aXaX0X/.Q.Q.R.9XW. X.X|..Xg.1.|.|.OXoXg.1XR.oXW. XXXoXXXR.R.#X2X@X>X#Xk.d.,X#XXXW.XX,X4XW.4X XW.@Xd.g.9X X|.E. X,X X1XR.R.g.#X#XE. X2X XR.W.E.R.$X#XQ.#XwX%XR.#X%Xg.R./.aXQ./.aX/.aXE.aXQ.aXwX$X,Xg. XQ.#XE.R.R.E.#XaX/.R.Q.aXQ.#XaX/.E.E.&XR.Q.Q.E./.0Xg.OX{.+XoX{.{.E. X X/.%X2X@X{.E. X5X|.|.2XoX@XR. X.X{. XE.#X%XR..XE.E.#X{.@XE.aX2X{.@XXX6Xk.f.,XXXP.g.$XOX+X8X.XP.$X{..X$X1X%X&X.X%XE.%X/.#XR.%X&XaX{..X3XP.+X+XP.+X<.+X8X+XP.<.P.&.%.%._ F D Z D G Z Z Z D Z G F F F U U S F S U =.W y.S U V U W - S L *.S U S D D S F 7 A D - F A Z 7 A 7 = 7 - - 7 D I } } ,.<._ -.} {.s.P..XP.1.1.,.F.{.g.%XP.g. Xf.oXg.,.OXQ.<Xf.4X~.XXW.E.W.W.W.W.d.,.R.6XXXR. Xf.R.@XQ.XXXXQ.>XQ.4X<XQ.XX<XE.Q.W.Q.wXR.wX/.E.#XQ.wXQ.Q.&XQ.aXQ.Q.&XQ.#XwXQ.aXQ.wXQ.Q.wXXXQ.!.f.E.k.k.k.1X>X,XXXR.R.g.g.g.R.9XW.3Xg.g.$X X$Xg.{.E.{.E.{.&XR..X{.,.1.$X@X$X.X{.OX|.2X|.XX6X1X|.g.oX6Xg.|.$X.X1Xg.1.d.g. XW.oX4X#X|.,.6Xd.d.<X<XGXd.:.<XXX!.E.<X,.<XW.4XQ.f.>XQ.XX,Xk.f.XXf.Q.W.f.$XwXXX$XqXQ.E.Q.E.wXQ.R.4XwX2X9XqXd.XX#X{.9X.X.XW.#X0X#X1.E.$Xd.#XQ.Q.E.XX9XwX4X9Xf.9XXX4X@XXXoX4X1XW.XX@X XW.,X1X X2X3X9XR. X{.@X@X1X1.%X#X%X.X.X$Xg.{.3X{. X{.|.oXW.,X#X2X#XQ.0XaX#XwX4X X,XR.@XW.wX#X",
"E.4X,Xd.@X<XE.E.@XR.1.9XXXf.@XoXW.wX1XqXW.Q.#XW.W.0X@X#X0X#X/.#XQ.wXd.wX9Xd.<XuX4XQ.<X9X<Xd.9X XwX/.wXR.#X@X,XQ.#XE.0Xd.W.@X#XW.E.aXwXaXE.#XQ.R.%X#X#XaXE.#X0X#X{.R. Xf.E.R.1..X|.R.1.XXXXg.oX|.@XoXOXoX6X,XoX,Xg.g. XW.{.g.|.|.g.@X XW.d.|.@XW.,XXXXX>X6X>Xk.g. XoXg.#X#X XR.0X1.Q.2X0X#XE.Q.,X#XQ.W.#X/./.#XR.#X<X6X6XW.oXP. X0X#X X#X@XrX XoX Xg.1X$X|.OXoX|.#XE.aX%XE.E.aX{.$X.X@XE.@X2Xg.oXaXW.@X5XOXoXg.P.3XOX|.{.g.g.{. X#X#X#X#X{.#XW./.wX@X X|.>X@X|.|.XXg.{.{.$X{. XoXf.|.oXg.3X{.|.$X$X{.R.@XXX4X>Xf.>XOXOXoX$X.X.XOX.X+X%X%X@X#X#X#XQ.aX#X&X&X&XaX&X&XR.#X&X+X&X&X}.+XP.}.P.%XL.;._ #.F F _ G ` F F F #._ F F F F C G S S S F H U F #.P y.U #.A S A U U U W A =.A U F S F P U W A - - - Z A 7 7 - 2 A 5 5 * A D R = D D _ -.%.,.P.1.P.1.P.+XP.P.%.1.1.#XOX>Xg. XR. XqXW.f.R.<XXXa.<X XE.W.E.,XW.#XyX!.Q.Q./.Q./.Q.wX5Xf.Q.4Xf.W.W.>X2XW.#XXXQ.W.R.E.wXQ.E.R.#X4XQ.#Xd. X2XQ.%XR.#X#XW.wX@X X@XwXQ.W.XXQ.Q.Q.qX,X4X4XR.4XXX Xg.R.oX@XR.E.Q.#XR.@X@XE.E.{.@X$X1. X{. X,.g.eX.X,.1XP..XE.E.g.#Xg. XeX9X,.E.{. X$X X X9X XR.2Xg.W.1X@Xg.oX9Xf.g.yXW.d.E.<Xj.7Xj.Q.7Xj.,X>X<Xd.>X<XqXk.d.<X<X<Xf.>XoX,Xf.g.9X@XXXW.Q. X X X XR.9X X,X X1X,Xf.oX,Xd.6X4X2X>XOX5X{.3X#X@X3X,.#XW.W.,X4Xf.!.#XQ.,XwXwXE.,X#X0XQ. X,XqX#X,X2X#X@X@X#X@X2X.XW.R. X1X#X|. X9X{.E.{.{.&X.XR.{..X#X{.{.W.OXoXoXg.2XXXXX2X4X1XXXE.XX#X#XQ.,XQ.#X@X",
"XXqX,Xf.Q.<XQ.XXXXW.a.5XXX>X4X5XXX#X#X#XE.@XwX@X#X@XQ.1.0XwXQ.#XaXuX#XwXqXQ.<XwXXX<X,X X4X1. X XQ.1. XW.#XR.E.E.#XE.wXE.#X,X@X@XQ.R.&XQ.#X%X#X&XR.#XQ.W./.Q.aX XR.{.2XoX@X#Xd. Xg.f.W.5X6Xg.oX|.W.W.OXOX@X Xg.|.OX|.1X|.|.|.OX{.R. XXX Xf. XoXoXf.W.XXOXXXQ.XX,Xk.$XOX1X1X X XwXE.#X#X#X XXX@X<X4XW.aX XW. X#X#X|.oXoX>Xk.,X,X2X@XW.E.#X@X,Xg.#XoX|.5X5X@XoXoX|././.#X X/.1.#X.XR. X1.1.1..Xg.@X XE.{.|.g..X|.|.|.{..X.XP.g.|.$XE.&X#XE.E.0X0XW. XW.XX|.oX,XXXoX{.{. XoXOXoX XoX1XOX1X|.1XR.@X1X2X2X$X,XW.6X6X>X>XOX|.P.P..X}..X+X+X%X+X&X&X&X$XaX&XR.R.#X/.#X{.aX&X&X&X&X&X}.{.}.L.I.<.A.F } F F G F #.G _ F G Z F G F F F G - W F F D U U S S U Z U Z R A P A S A S A A W C A Z A D S S U U W D F A D P A A Z 2 5 A 2 2 3 L S - - 7 Z Z D } _ } _ -.1.1..X1.P.XXT.s.>Xd.W.g.g.R.Q.<XQ.f.!.d.<Xd.R.,Xf.!.1.E.Q.E.E.Q.Q.aXQ.Q.R.f.f.6X4Xf.XXXX#X#XW.W.E.E.<X2X2X/.E.Q.@X#X#XE.@X@X$X@X#X@XQ. X#XE.#XQ. XwX0X<X#X@X<X,X@X@Xd.d.f.d.W.R.XXf.f.|.,X XW. X#XW.Q.#X#X#X#XR.#XE.g. X XE.|.1.{.1.tXoX.X1.#X#X@X0XR.,.1.E. XW.1XE.g.2Xg.@Xg.E.$X5X|.6XoX>X1.@X@XXX,X,.4X~.qXQ.Q.<X7Xk.Q.<Xk.>X6X<X7X<XT.4X X|.f.XXf.W.W.f.#XE.E.#X XE.E.#X XE.#Xg.oXR.W.oXXXoX,X1X4XXXk.$X+X6X{.1X@X X X X2XXXXX>X7XQ.k.<X@X@X#X@XQ.wXwX0X@X<X@X,XW.XX#XW.#X#XXX#XQ. X X2X.X$X@X$XoX3Xf.$X{.{.$X$XE./. X X$XoX6XoX5XoXXX6Xf.R.4X4X X#X2X@X<X#X#X,X@XQ.#X",
"XX<XQ.f.E.wXE.d.W.oXd.5XXX<X6X4XwX#XwX#XQ.9X<X,XW.aXwX/.wXaXaX#XwXQ.Q.wXXX>XXX!.XXQ.W.XXwXW.9X#X1.Q.9X0X#X/.E.@XW.E.#XE.#X%X#X#X/.E.W.&X&X#X#XQ.R.#X#X#X/.W.#X#X X{.#X.X@X.Xg.%X|.|.oX@X@X,.oXXXW.XXoX,XoXOXf.|.1X|.6X|.OX$X+X|.oX{.@X X|.#X X$X|.|.4XXX>X>X,X5X|.1X,XoX#XR.#X@XE.aXW.W.E.XX@X,XwXE.wXR.&XQ.#XR.oX,XoX>XOXoX>X6X X@X$X$XXX#XR.1X3X4X6X1X$X1XoX1XE.R.aXE.E.1.E.E./.$X XR.R.@X{.XXOXg.g.|.g.OX+X.X{.k..X$X.X{..X$X XR.R.2XQ.,X#X X XoX,XoX>X@XXX1XR.&X#X$X{.@X|.|.6Xg.OX|.|.g.1X$Xg..X1X,Xf.>X,XQ.OXoXOXW.{.|.}.{.}..X+X.X.X{.#X%XaXaX&X#X&XE.&X{.E.{.}.}.}.}.I.F.}.&.%.H #.F U H Z Z G _ Z F F Z Z G Z S F G S Z U S Z G S S A Z U C D C U S U S U S A S S =.D A P U P S A Z A S A 5 - - - - 2 5 L A 5 L 5 * 2 5 5 A A 7 - 6 D - -.} } Z D -.-.T.k.T.OXP.,.oXXXf.g.f.R.f.f.4XXXXXW.R.#XE.@XwX#X@XE.Q.Q.Q. XQ.R.#XW.W.XXQ.f.,X@XXXQ.#X@X#X1.@X#X0Xd.E.W.#XW.@XW.4X<X#X X@X2X#XR.aXQ.0X<X#X0XwXW.Q.4X@XQ.Q.Q.d.E.XXW.W.f.,X|. XoX|.{.E.W.E.E.1.E.W.W.E.g.,.E.g.{.&X X{.1.>.|.{.$Xg.9Xg. XR.R.R.,XE.yX1Xg.oX@X{.1X X XE.,.>.1.#X6X,.oXoXXX1X,X>.wXXXQ.qX@.~.wXd.Q.d.<XQ.Q.>XXXk.6X,X<XQ.XXXXXXf.R.XX4X<X X#X9X#X#XwX#X$X X4X@XqX,XR.#XqX<XXX5X>XQ.oXOXoX.Xg.3X$XR.{.$X#XXX,XXX<X<XQ.wX@X@XQ.#X<XwX#XwXwX0XXXXXW.,XQ.#X2X@X X%X X X9X0X{. X@X2X.X$X{.aX/./.E.&XE..X2XOX$X6X{.6XoXOXf.1X@X<X$X X X,X9X@X2XXXwX,X0X#X@X",
"d.4X<XQ.d.yXQ.E.Q.,Xd.oXoXXXoXXX<X@X,X@X#X2X#X,XE.wXwX@X#X#XQ.W.rXaXQ.0X9X4XqX>XqX>X X,X2X@X0XE.E.#X#XQ.Q.#X#XW.R.R.0XR.#XwX#XR./.aXaXQ.aX#XaX X#X#X@XaX XW.W.rX{.R. X|..X XR.9XoX X@XW. X,.oX XXX,X>XOX|.f.|.oXoX|.6X{..X1XoX|. XR.$X{.|.$XR.oX|.g.6Xg.1X6XoX>Xk.oX@XoX2X XR.1.Q.0X2X#X4X$XwXqX2XQ.0XR.Q.aXE.&X@X4X1X>XoXoX1XoXW.0XwX X#X2X,X X|.oX|.k.|.oXg.@X{.R.R.E.#X#X.X$X1.@X.X+X X#X{.R.oX|.+XoXOX1XoXf.$XP.{.OX.X.X.X|.#X#XR.aX%X#XW.#XXX#X<XXXoXXXf.oX X$X#X$X|.oX|.|.$Xg.oX|.@X XeX3Xg.{.2X2XW.XX6XXXOX>XoX|.P..X.X{.{.}.&X%X$X&X&X.XE.&XaX#X&X&X%X}.'.{.+X%XF.<.<.F.<.G Z Z H Z F F G Z G G G G F G F S G S Z Z F F S S S D D C Z A U - U A U D P A P A Z A L *.P A D S D A F A A 5 A D D A 5 5 A U U L A A A A A * - A - - - Z Z . Z 7 D } } -.U X.-.+.t.OXs.s.T.<XoX|.|. Xf.>Xg.f.@XE.1.d.#XQ.d.W.Q.<XQ.Q.E.Q.Q.#X,XW.f.f.W.XX XW.@X,X@X4XE.$XW.#X#X#XR.Q. X,XXX9X#XQ.E.@X#X#XQ.@X#X@XQ.E.E.W.@XuXXXQ.f.W.XXQ.Q.2X$XQ.E.#Xf.W.oX|.R. X#XE.E.d.1.Q.E.1.9XE.$X.X>.,.g.@XoX.XoXf.f.{.9X X X1..X Xg.E.$X X2X$X XR. XtXE.,. X.X Xg.@.3X2XqX5Xd.$XE.wXqXqXd.!.~.<Xk.qXk.k.qXa.XXQ.f.>X>XXX@X<XoXW.R.W.W.|.W.XX X#Xd.E.,Xd.E.f.R.E.2XXXf.,XyXXXf.6X|.6X6XoX1X|.|.$X1X X3X@Xf. X4X,X7XqXXXaXwXwX<X@XaXwXQ.9XwX,XW.,X,X4XXX@XwX@XE.@XXX#XwX2X Xg. XoX X.Xg.@X{.{.1..X X%X%XR.3Xf.|.g.,Xg.OX5X2X#XW.R.XX@XW.2X1X#XwXwX2X@XwX",
":.Q.Q.Q.@.Q.Q.#X@X,X#XQ.5X X4X,XQ.$XQ.W.E.E.2X9XQ.#XwXW.wX XwXE.Q.Q.!.wX#XQ.qXQ.4XqXQ.E.0X<XW.R.E. XR.E.W.#X$X@XR.E.@XQ.#XR.W.R./.aXwXE.E./.%XR./.R.Q.R.E..XE.#X1.g.R. XXXg.,.R.,.d. Xg.oXOXqX@X,X4X4X>XoXoXoX5XOX{.oX|.OX@XoX{.{.{.%X{.{.2Xg. XP.g.OXg.+X6XoXOXqXoX|.g.R.E.@X.X@X#XW.E.wX{.$X#XQ.wXaXQ.R.aX#X#XoX2X>X,X>XOX6X@XW.2X#XE.@X9X6Xg.oX5X6X<X6X5XP.@XaXaXaXE. X@X/././.2X XR.{. X X X$XOX.XoX.XoX.X1.$X.X{..X.X.X.XP.&X#XW.Q.E.aXwX@XoX#X,XoX6X,XXX,X$X{.{.R..X XOXoX{.oX1Xg.3X1X3X1X@X{..XoX|.OX,X,XOX,X$XoX.X+X+X}.{.&X%X%X%X&X}.}.&X&XaX&X}.F.%XP.&XP.+XP.` G ` ' ` H H ` =.F H H ` F G G Z Z ` Z F F G F Z C F H _ F D U S Z A A U - U P U D A A A A 5 5 A U A A A S D A U A P Z - A D U A A - - A A A A 5 A L Z 2 A 5 A D A D A D - - 7 - R I -.X.-.s.L.,.1X8XP.oXOXOXOXf.OXW.|..X.X X X XE.E.wX<XXXd.f.W.<XR.f.,X,X@X,X2X@X@XQ.,X XW.@X#XwXW.W.Q.@X>X,XXX,X|.,X#XXXQ.@XE.#XQ.#XQ.@X,X#X2XR.E.E.#X<XXX4XqXXX!.Q.Q.#X#X#X1.Q.3X$Xg. XXXf.,X X X4XW.1.@X1.$X,X#X9X,.g.$X{.P.g.,. X1.g.,.g.,X9XR.oX4Xf.9X6XW.yX9Xd.,.%X9XE..XqXf.3X@X@Xg.d.d.qXQ.wX:.j.XX<X<X!.GX@.k.wXXX>X6X7X>XXXW.XX@XXXR.f.W.XXW.Q.4X<X<XW.W.,X XoX XW.f.5X9X@XXX,X|.XX4X>XqX>X|.oX|.P. X{.g.$X1XE.,X9X4X<X5XXXwX#XwXaX<XwX@XQ.4X#X#XXX6X#X,XXX1X9X@Xg.2X2X$X$X@X@X|.oX.X XOXg.&X#X0XR.aXR.@X{.g.OX$Xg.oXg.oX4XyX Xf.XX4X9X<X XqX#X,X4X2XE.#XwX",
"Q.Q.W.wXd.wX!.Q.Q.!.W.E.,Xd.#Xf.Q.4X,X@X<XE.2XwX0XQ.#X/.rXR.yX#XQ.wX0XwX#XW.qXR.Q.,X#XQ.XX@X@X@XwX@X0X#XW.d. XqXwX#X@X0X0X#X@X9XE.E.R.R.#XE.#XE.%X#XaX XW.uX$XW.XX2X9X9XeX#XR.@X,X$X5X|.XXW.|.,.f.|.|.P.W.f.f.f.|.R.|.f.{.P..Xg.g..X+X X{.3XP.{.oX.X$X|.@XOX6X6X|.|.oX2X@XR. XE.yX#X#XQ.qX0XqX#X/.wX/.&X&XR./.aX@X2XoXXX,X|.2X@X@X0X4XXX1XXXXXW.oX5X,X,XOX>Xa.|.R.#XaXR.E.#XE.#XW.$X$X{. X.X{..X$X|.|..XoX+X$Xg..X.X$X$X.X{. X X X{.R.%XW.#X$X$X<X@X@X@X3XwX,X2X.XR.{.E.#XR.$XoXf.oX1Xg.5X@XoX{.$Xg.|.#XoXOX,XoXOXoXoXOX{.+X%X%X&X+X&X}.&X%X%X8X&X X{.&X&XP.}.{.}.<.;.` Z C G _ G G Z H H G F G F G Z F F G #.Z W Z Z F S G U A W D Z S D A Z Z } - A A R U A 5 A P D S A U I D L I E A U 2 E A U L A A P D A 2 D 2 2 A A - P L - A 5 A - * - A U A A A 2 2 = - A 7 I t.X.%.y.P.P.P.P.g.P.oX$X.X,.{..XR./. XR.@Xg.W.|.XXXXQ.d.k.W.Q.|.f.W.Q.,X1.@XQ.W.,XR.@XQ.,XXX#XXX,X<X4XW.XX,X#X#X,XQ.#X<XaX X XW.,.,X<XqXqXE.Q.Q.@XW.d.d.1.#X#XW.XXR.$X2XR.g.{.|.1.@XQ. X,XW.{.#XwX9X1.R.R..Xg.2Xg.1X{.$X@XXXg.f.oXf..Xg.f.1.g.f.|.g.g. X1.#X,X>.E.9X$X|.oX5XtX>.9X4XQ.yXE.:.7X4XwXqX~.wXd.wXW.qXW.Q.7X,XW.XX XW.XXf.W.W.2XXXW.@XW.XX>XXX>XXXXX,X@XXX,X,XW.W. X6X6X>XXXeX6X|.$X1X6X%X X2X5X1X X#X,X@X>X7XQ.#XW.Q.#XR.#X#X2X<X#X4X4X9XXX#X6X$XwX2XR.yXqX2X@X|.2X$X1X$X6X%X X&X XaX&X$X/.R. X XoXg.OX|.6XP.oXR. X1X1X@X$XwX2X<X X,X#XXXE.#XwX",
"Q.!.d.~.!.wX:.:.wXQ.#X#XwXE.wXW.#X4XwXwXqX#X#X@X#XwX#XQ.wXE.9XaXQ.wXwXwX<X<XwXXXwX<X0X@XW.@X,XQ.yXE.#X X#XR.R. XR.E.1.R.W.E.W.#XR.#X&XaXaX#X#XE.R.E.R.E.g.0X.XE. X$X@X@X@X{.R.$XoX|.oX{. XoX2X1XXX>X,X>X1X1XoXoXOXOX|.|.|.1.oX|.1.%X{.&X{.$Xg.%XoX$XOXoXoXg.+XoXP.>XoX1X{. X@XR.2XR.E.#X#XwX0XQ.Q.wXQ.aX&XQ.R.aX#X4X>X>X1XW.4XXX2XyXwX$X1Xf.1X1X4X5X>X$XQ.,Xf.6XR.aXaXE./.#X1./.{.R.%XE.$X.X1.g.6X|.P.|.oX X3XR.+XOX$X.X{.{..X.X XR.{.0X#X#XR.{.$X|.|.f.oX@X|.oX{. X.X.X{.OX@XoX@XoX@X|.9XoX$X.X$XR.1X3X6XoX2X,XoXoXoX|.P.{.+X8X.X&X&X+X&X%X;X8X&X{.'./.+XP.}.1.&.F S F Z Z F G H H Z J H H #.#.F G F ` #.G =.G W Z Z S F D U C U A - 7 A D A V } A A A U I L A A I L A 5 L L A 2 A A 5 R 2 *.I P A V - V L P I I Z A - A - D A D E A P P - 2 A A - L P 3 A 2 2 3 7 D A 7 F -.s.,.U.6XOXOX<.g.+X1.&X XE.R.#X1.E.1.Q.,XoX>Xk.Q.>X<XoX#X X#X@XyXQ.@X X@XXXE.W. X4X<X>XQ.XX,X5XXX X<X|.#X<X@XXXwX2X#X@X,Xf.4X,X<X,XE.<X#X<XXXXXXX#X#XW.1.W. X@X X,..X XXXg.1XE. XXXE. XE.R. X,.1X X|. X1. XP.OX.X{.,.@Xf.{.5XXXg.5X1XXXg.R.4XoXR.,XW.Q.,.yX2X1.Q.|.XX Xd.#X,X,.d.:.<Xj.HXQ.~.>X+.>X7XQ.4Xd.f.Q.4XQ.XX#X X@XE. X X6X6XW.XXXX|.<X>X6XXXXX,X4X4X,XXXW.XXoX4XqXXX,X2X4X{.g.{. X#Xg.$XoX XoXXXQ.1XXX>X,XQ.Q.@XaX#XwX2X#X9X,X9X9XqX@X<X5X#XR..XE.9X#X#X X.X3XOX$X@X3X1X.X#X&XR.{.R./. X%X$Xg.f.|.5XOX>Xf.,.W.9XXXg.W.@X X X#X4X#XQ.@X0X@X",
"d.~.W.Q.E.<XE.E.<XW.W.,X2XW.wXXX#XR.@XW.0X<XQ.@XE.qXQ.eX@XwXQ.W.yXQ.wXQ.qXqXwX<X<X9X XE.wXyXQ.aX#X,.$X.X#X#X,X$X/. XQ.W.#XaX@XE./.aX/.Q.E.&X#X1.#X/.aXaX{.@X{.2XR.2X$X#X@XR.|.oX5XXXXXoXOXoXoX4XW.OX|.OXoXoX|.f.6X5X,X6X$Xg.8X3X{.%XE.%XP..XE.3X.X1XP.6X3XP.6XoX@X2XoX$X X2X%Xg.E.R.W.aX,.#X0XwXQ.aXpXQ.Q.aX&XwX X1X,X6XqXXX9XoX,X4XXXE.,X6XyX6XOX6X>X6XOXyX>XeXE.E.Q.E.E.0XE.{.#XE.#X/.%X@XE. X3X.Xg.{.+Xg.$XP.3X.X{.{.{.{..X.X&X@X#X&XE.#X#XE.@X X|.R.oX6XXX1X{.%X$X$X{.$X X|.1Xs.{. X@X{.1X.X%X.X2XOX|.R.1XoXoXOX.X+X X{.}.%X%X&X;X%X+X&X&X}.}.}.}.P.I.F.P.%.G - G F Z G G Z G H G #.` F $.$.` ` #.&.#.F =.G U S Z F S S W S U F F A A A D D P 5 I U L A 5 A 5 L S 5 A A U L A A 5 A *.L X.V 2 5 L A 5 A A D - A U 2 L Z } - A S 2 D R U Z Z V * L L * L E U - - - * - - 7 F -.%.,.L.8X<.P..X{.1.1.{.{.&X1.W..XW.f.g.>X<X6X>XR.d.#XwXQ.d.@XW.wXR.R.E.W.0X@XE.W.>X,X,XXXXXf.XX4XW.#X0XwXQ.XX#Xd..XwXE.,XE.#X XE.#XW.@X#X2XXXf.#XwX#XaX.X X|.@X Xg. X{.5Xf.E.W.Q.@X$XE.g.R.0X|.g.{.R.#X.Xg.1Xg.f. X|.f.XX1.,XeXoXg.2X1X|.oXg.oX/.E.wX0X,.R.qXf.1.W.wXW.@XwX>.<X7XQ.4X<XwX:.qX<Xa.4Xd.|.,Xf.5X4XW.2X,X@XW.1XXXf.OXk.XX4X>X6Xf.Q.,XR.R.XX@X>X6X6X,XXXXX>X4XyXW.f.5X.X.X+X1XR.9X.XW.1X6XW.qX1X>X2X#XaXyXwXaXuXwXR.tX2X,XoX4X2X4X3X#X1.R. X3XR.#X2X0X0XE.{.g..X X{.&X@X%XE.E.&X$X$X{.{.|.5XoX|.oXqX X XXX@X,X2XwX#XW.2XwX,XW.qXqXW.",
"wX!.^.E.Q.Q.Q.!.wXwXE.wXwX#XQ.wXwX@XQ.E.wX/.0XqX@XW.@X<XXX4XW.7XHX7X7XqX>X<X!.Q.,X9X XXXqXE. XwX X XW.R.2X X X@XW. X Xf.#X2X X$X/.E.E.{.aXE.@X&X$X#X X X.X X X0X{. X2X2X2X{.oX.X X@X4XoXW.|. X6Xg.XX6XoX5XoXk.XX1X6Xg.g.OXg.eXeX1..X3X{.{.{.{.%X.X%X8X|.P..Xg.s.1XOX+XoXOX.X.X X.X X0X@Xf.oX4X1XaXQ.aX&XQ.aXaXaXE.wXaXQ.#XXXXX,X#X9X@X6X1X5XXXf.XX6X|.1XXX>XW.4X#XaX#XaXwXQ.aX#XE.@X{./.$X#X{.%X3X3X+X.X X{.&XE.%X X.X.X.X$X.X&X#X#X/.#X#XaXE.E.$X@X9X X3XtXE.|..X&XE.$X#X#XoX X X|.{.|..X@X@X{..X.X.X3X|.{.{. X1X%X X{.{.+X&X{.&X}.&X&X+X}.&XI.F.P.I.<.S.A.` G F G S Z Z G Z Z #.` F $.F %.G ' $.H ' ` ` #.&.G W Z U Z S C U Z #.I A D D 5 Z D - } L 5 D U - 5 - I 5 A - 5 U 2 2 A A 5 R 5 U L L I A L I A - L 5 A A 2 U Z L - A 2 - Z U P A Z - 3 - 2 2 A 2 V Z P L - 5 - = - - _ _ %.<.P.P.<.P.1.$X3X%. XP..X@X1.,X5Xk.>Xf.k.Q.W. XwXR. XE.#X4XW.W. X4XXXoXXXf.>XXX<X<XE.R.#X X,XQ. X,XQ.wX2X@X@XXX Xf.R.Q.9XwXE.R.Q.Q.aXaXQ.W.R.E./.d.1.1.#X,.1.R.f.@X{.W.E.R. Xg.f.2X5XOX Xg.$Xf.6X{.1X|.,.1XoX|.>X X|.oX<Xf.f.oX1X6Xf.oXR.@X X,X1.1X,X@Xg.XXf.W.6X7X:.W.yXu.7X<XqX!.d.yX7XXX4Xd.,X0XwX@X@X XR.E. X@X,X XE.<X X XW.@X,X6XXX|.,XXXW.XX@X@XoX#X#X#X#X#XwX#X X2XoX.X$X0X1.eX2XR.$X|.|.4XqXg.,XyX0XqXaX#XwX@X9X1X#X5X@X2X2X$X1X X$X$X9X0X9XeX3XoX{.$X%X X+X3X#X@X/.{.E.aX#X%X{.d.3Xg.6Xg.4X@XP.5XoXXX4X XR.,X,XqXrX@XR.Q.2X@XQ.",
"<X!.wXW.^.E.!.Q.wX#XE.Q.wXQ./.,.#X#X,.Q.Q.E.wXwXQ.XX@X2XwXR.wXqX<XwXqXwX,X4X,X4X XQ.E.Q.,X#X2X#X XoX.XE.XXE.f.E.E.1X9X{.E.#XW.@X/.#X#X%XaX#X#XE.&X.X@X#X$X@X{.@X{.R. X XoXR.oX#X1X.XoX@Xg.oXOX|.d.oX|.XXoXXX$X5XoX3XoXXX+Xg. X.X{.}.&X{.&X3X.X.XP..X%X3X5X6XP..X6XoX>X@XOX|.|.{.@X@X9X@X X,X2X<XwXE.aXQ.aXQ./.aXQ.uX0XwX9X$XQ.#X6X2X X@X$XoX XoX$X5X,X4X1X,XR.,XQ.aXaXQ././.E. X#X#XE.R. X&X{.@X$X+X X{..X{.$X1.$X.X$X.X+XrX&X X0XaXR.aX&XE./.aX2X.XR.#X1. X>.0XR.{.E.&X{.OXoX@XoX$X1X$X@X$X.Xg..X$X$X2X X2X2X$X.X+X X+X$X+X8X}.{.&X;X%X8X}.}.}.F.&.F.<.;._ G _ D F F F U #.F F F ` F ` Z ' G ` $.G #.` H H $.F W G H S U A U Z U D Z Z A Z 5 U - A Z 7 I P - I 2 U A 5 2 A I 5 A 2 5 2 E 5 E 2 2 L 2 A A L 1 A A A D 5 R Z I A A Z C A A A Z U A Z S A 2 V 2 V A L Z V S D - - - 7 7 7 _ s.OXOXoX<.1.{.{.$X{.g. XR.$XR.,.6XoXf.@X@X,X@XQ.0X XQ.XX X@XXX<X|.XXQ.W.7X>XXXwXwXaXQ.#X,XW.Q.@XQ.5X2XW.f.W.,X@X4XXX#XR.#X9XyX#XR.Q.aX%X X/./.R.R.R. X2X6X1X X,X|.XX@Xg. XoXoX X,.f.0X,.5X1Xg.tXg.f.5X$X5X,X|.oX XoXoX6X3XoX4XW.g.g.W.f.E.!.E.,X,X|.,.>X4Xf.qX,X:.wX~.qXqX~.>XQ.a.Q.d.<X<XXX@X@X#X~.@XoX X X X#X#X#XXX1XXXoX XwX2X4X2XW.oX X X,X4X,XXXQ.#XwX#X@X$X@X$X%X+X{.$X.Xg.2X@X$XOXoXXX5X$XoXoX#X2X0X#X#XaX XR.9X1X9X2XeX4X$X1X{.#X#X$X X#X@X#X$X.X1X3X$XOXrX3X{.&XE.1.$X{.@X@XoX1Xg.6X5X$XW.k.oX XyXR.#XXXW. XQ.Q.Q.Q.,X,X@X@X",
"wX!.Q.!.wXQ.#X<XqXwXwX#XwXwX<X/.#XyXQ.FXwXE.<XE.wX9X<X<X2XE.4X4X!.~.7X>X>XQ.XX9XqX<X#X,XW.,X<Xd.R.|. Xf.$X2X9X$X.X#X@X.X@X X XeXR.Q. XE.&XR.#X/..XR.$X2X0X0X%X2X9X%X2X#X Xg.R. XOXg.g.,Xg.5X5X,Xk.qXf.OXf.g.f.|.g.|.|.|.OX{.oX8Xg.&X%X%X.X+X.XeX$X.XoX|.|.|.{.OX6XoXoXOX{.W..X@X.X XoX XoX9X4X@X#XaXaXaXaXaXaX#X#XwXwXR.wXwXQ.aX@X@X XOX$X|.@X1X2XqX#X#X4X,X XqX#X%XaXE.#XW.R.&X9X%X X%XaX%X%XaX$X.X.X.X%X.X%Xg..X{..X{..X0X$X.X/.&X%X#XE./.E.R.$X.X2X XoXqX@XeX.XaX.X$X{.{.|.{.g. X.X X.X2X0X3X$X3X%X%X{..X|.g. X.X{.+X%X+X%X{.{.&X%X&X}.F.F.}.F.%.&.` G Z G ` Z Z Z G F F Z F F F ` F G ` G ` &.H $.' ` ` $.` H G U S U F F S U A A D D S A } A - A - U 5 - U - U A V - L U - 5 5 5 2 I 5 L = 2 h 2 5 A L 2 A 5 5 A A X.5 D I U A A A A Z A U Z V A - - 3 3 3 - A A A A A - - A - 7 Z } D %.P.1XL.L.,.{.P.{.}.P.{.{.P.f.6XXXW.#XQ.W.Q.R.wXR.W.R.W.XXf.R.R.>X,XQ.7XXXXX@XwXwXE.@X4X X#X9XXX<XXXXXXX,X2XXX@XW.oXW.R.#X#XE./.R.R././././.1.E.1.,.P.{.g.g.|.{.@X2XW. X2X,XoXd.|.eXg.g.f.|.P.g.OX,XP.@Xg.g.f.g.f.g.f.oXk.$X|.2X5X9XE.#XW.|.XXR.XXd.4XGXW.f.!.!.E.!.~.j.a.k.wXQ.,XXX<X>X4X<X@XXXQ.#X@X$X@X@X#X#X#X%XR.{.XXW.Q.R.#X#XoX@X#XXX,X,X@XoX#X#XwXaXwX$X0X0X$X.X{.0X@X@XeX,X6XOXXX6X5XOXeXoX#X#X0X#X#X%X#X%XuX@X#X{.$X$X@X1X X X$X$XR..X@X$X.X{..X.X%Xg.3X+X/.0X{.&XrX#X.X$X3X$XXXoX5Xg.|.6X|.XXqXf.2X2XW.#X0X0X2X0X0X#XW.2X",
"!.~.~.!.wXwX~.XXQ.#X#XE.E.E.#X!.~.@XE.@XE.#XqX2XW.XX,X,XXXqX4XqXwX7XwX<XHX<XXXwX@XE.E.@XE.,X$XE.2XXX{.1.#X1X@XR.{.f.g.f. XR.|.eX%XaX%X/.R.%X0X@X.X X X#X@X@X X.X.X X9X2X1XR..X9X,X|.oX$Xf.,X|.|.XXyX>X5X1X|.oX@XOX|.oXg..XoX.X1X{.{.{.{.{.$X.X+XP.|.oX.X.X1XoXg.oXOXoX+X{.|.@X$X X#X@X#X,XyX2X4XwXQ.aXQ.&XQ.E.aXaXrX#XQ.yX9X@XtX X$X$X|.2X@X2XoX%XwX XQ.5X6X@XyXwX#X#XE.uXrX@XR.%X/./. XR.R. X#X.X$X3X$X.X.X$X.X%X%X&X{.{.%XaX%XaXaXW././. XaXaXE.E.2X1..XyX2X X&X#X.X{. X.X$XoX.XoXOX.X X.X$X%X8X$XoX3X$X$X#X$X.X.X.X.X+X}.+X}.:X;X}.F.+XP.P.+X<._ ` _ G G _ G F F F F #.F F #.G G ` G ` &.G ] ' [ ' &.` ' %.F F F U G #.F S A F S A A F A A } A 7 A A U 5 - L 5 I A 7 - I R - 5 V L - L 2 L 2 2 5 2 2 1 5 2 7 2 1 5 5 I - L P L Z A A A A S - A G U D S A C Z * - V 2 2 7 - - Z * = 7 6 * = D t.P.+Xg.}.,.P.+XP.g.{.{.$X@Xg.OXaXW.R.#X#X#XE.#X,X,XXXW. X,X4X4Xk.XXXX@X0XQ.E.aX$X2X#X#X9XXX,XW.|. XXXXXR. X X4X2XR.E.E.E.!.#XR.E.#X@X#X{..X.XE.g.{. X{.XXf.f.W.E.f.@XR.oXR.oX|.oX|.OXeX,.1X8Xf.,XOXW.oX6X,X6X1X1X5X1Xf.,X2X6Xg.XX4XW.W.1XW.6XXX2XqXW.d.Q.<XE.wXwX<XwX<XHXXX~.4XXXf.2XXX#XXX#X#X X X X{.{.R.R.#XoXoX@X.X#XW.#X&X@X6X,X X XXX#X$X#XE.#X/..X X#X#X XE.&X0X$X@X8Xf.oX6Xf.7XoX,XyXoXaX#XaX0XaX@XR.aX9X@XeXeXuX3XoX X{.R.@X.X{..X&X$X3X$X.X3X3X{.3X$X1.0XE.%X0X{. X XoX5X1Xg.,Xg.OXqX@X1Xf.2X4X4X@X4X@X@XW. XwXQ.R.wX",
"d.~.wXQ.<X!.Q.Q.Q.#XwXaXR.wXaXR.yX@X2X0X<XyXwXW.2XwX2X2XQ.<XW.XX7X7X7X~.qX>XQ.Q.@X<X X#XE.W.R.W.#XE.R.R.$X@X1X XR.9X9X{.|.#X2X0X{.%XaX@X#X0X0X%X3X.X%X%X$X5XeX9XE.1.1X$X1X X X9X6X@X1XR.1X Xf.|.f.oX,XoX6XOXW.oX3XoX$X|.$X5X|..X$X.X{..X{..X.XoXOX X6XoX+X8X6XP.+X>X6X3X.X|.{. X{.$X5X2X|.@XXX4XaX2X@X%X#X/.E.&X#XqX2X<XyXwXQ.wX#X%X$X{.3X$X2X{.#X0X#X@XyX2XW.0X@X#X9X#X9XwX#X%X0XR. X#X#X&XaX0X.X.X3X.X.X.X$X$X%X#X{.&X&X{.%X%XE./.{.&XaXE.E.1.0X$X%X0X X%X X3X$X&X&XR..X3X$X#X$XoX@X3X2X.X X{.oX{.{.$X X&X{..X%X$X%X&X+X{.}.}.}.1.%.1.;X}.<.&._ Z _ G F F F Z G Z Z Z G Z Z _ Z G ` H ' M.J ' [ [ ' v.' %.[ G H F F F #.F U S F F D Z F A A F A D A A D D - D A A D - - I R - 5 5 A 2 A 2 L L = 5 2 = = 1 = 2 - 5 6 2 L = I I A L L A A D A - - - Z A C C - - - - * 3 - 5 2 * A 2 = * 7 - 7 7 = %.%.g.+Xs.<.P.{..X&X1.{..XR. X2X XW.#X XQ.f.XXR.W.W. XW.W.f.XXQ.k.|.6X0XR.Q.uX#X#XE.R.,XE.@XXX4X@XXX@X#X0XQ.XXR.E.#X#X#X&XQ.Q././.%X#XE.{.%XR.1.{.|. X6X XXX@Xg.d.XXg.OXR.1X|.f.oX1X,.OXg.|.oXf.d.P.<XOXW.6XoXOX|.OXd.6X6X,Xk.W.@Xf.#X4X4X6XW.qXXXR.4X4XW.qXQ.>X<XHX~.>X!.>XqX>Xf.#XW.R.#X#X#X X{. X#X.X{.E.{. X{.{.R.{. XR. X#X#X{.R.#X@X@X%XwX/.aXQ.wXaXaXaX.X{.$X#X$X X6Xg.f.yXP.6X+X$XyX.XrXE.R.&XaX0X#X0XeX%XeX$XoX{.OX3X%X@XeX%X$X%X3X%XeX3X{.eX3X+X$X$X/.aX/.$X X{.%X$X{.3XoXg.1X1XOXoX5X@XW.eX,XXX#X,XyXyXwX#X,X#XXX2X",
">X<X~.>XQ.Q.Q.qXqX#XE.Q.R.0XE./.wXE.XXd.d.#X@X2XQ.wX,XqXqXf.qX7X~.HXqX>XwX<X4X>XE.0XQ.#X#XW.,X9X@X X2X3X2Xg.R. Xg.$X#XW. X|.{.R.g. X%X#XR.aX.X.XE.g. XOX X@X$X$X2XR.@X X$X Xg. X|.|. Xd.eX6XoX2X4X6XqXoXqXoX|.1X6X|.f.R.oX8X.X1X{.$X%XeXg..X{.3X3XP.OXOXg.OXOXXX1X6X6X1X X{.oX1X$X3X9XyX6XyX5XyX#X2X@XaXaXaXaXwXaX9X,X<XwX#XE.@X2X2X.X#X2X X.X.X@XaX#X@XwX@XE.wX#X#X0X#XaX#X%X%XaX{.{.aX X#X#X0X%X X%X{.$X%XaX.X%XaXaXrX0X&XaX0XaX#X&XaX&X&X@XaXrX{.$X2X2X.X.X0X0X#X#XR..X$XoX{.OX X.X2X%X$X@X3X%X%X%X1X XaX@X{.$X$XeX+X%XP.%X+XF.{.&X}.8XI.&._ _ - G H _ Z G F G G G G F G G #.G H ` H M.$.[ ] ' ' ' &.' ] J Z J F F F H F F F U D F D D G A U - D F U 5 F A A A 6 I A - L U = A 2 2 2 5 L L h * 5 = < - 1 = 5 = 5 h = h = l L 2 T U A A A A Z 5 Z S Z Z Z A S - Z - A * Z 2 = 2 = &   * . = * = 7 = } P.+X{.P.F.F.{./..X1.1.{.R. X#X XE.#XR.#XR.W.XX,XW.W.oXqX<X>XXXW.#XQ.#XaX{.#XR.Q.<Xf.W.f.2XXXW.W.E.W.,.1.E.E.#X@XR.W.#X/.R. X{.{.{..X&X{.$XOXOXR. Xg.g.R.oXR.XX|.1X|.oX,X,X.XoX,.eX|.OX5Xd.P.,X1Xf.f.5X|.oXoX|.XXoXoXg.,Xd.wXE.9Xf.,XW.W.yXQ.Q.XX@X!.wX^.>X<XqX<X<XQ.7XqX,XXX<X,XwX,X#X X#X@X#X$X$X.X X{.@X XR.&X#XaX#XaX%X#XR.Q.9X0X@X#X/.&X0X#X%XR.R.#X&X{.%X{.3X.X5X$XP.yX,XP.6X.X5X+X#XaXuXuX0X%X1.,..X1XiXtX3X.X1XuX.XE.$X{..X$XOX X1X.Xg.$X{.$X{..X&X0X.XaX#X$XeX$XR.OXOXf.oX6XoX5X@Xf.9X<XW.@X X#XQ.W.W.E.XX,XwX2X",
"HXwXQ.<XQ.9X#XwXGXQ.Q.#XQ.aXQ./.wX@XqXQ.W. XR.@X,XqX4X4X7Xd.qXwXj.7X^.<XQ.,X<XQ.E.wX X XQ.,.XXf.g.,. X1X@XR..X@X X.Xf.$X0X XR.#X.X$X%X.XE.%X.X%X$X{.3X2X{. X.XR.0XE.@XoX0X2XR. X@XoXoXf.6X>XXX1XXX>X|.|.1XOXXX1X5X1Xg.|.OXOXP.1XR..X{.{.R.3Xf.{.g.,.P.<XoXoXXXk.@XoX1XoX|.|.$X0X.XR.R.$X|.eX,X,XE. XR.%XaX&XaXaXwXwX0XaX9X@X@XqX%X0X#X$X%X.X.X$X,XwXW.@X%X#XR.rX@X X#X,X#X%X0XW.0X#XR.#X&X#X%XaX%X{.3X+X%XrX0X&X{..X.X$X&XE.{.{.E.&XR.&XE.%X&X#X&X{.0X.X0X%XyXaX%X{.%X{.@X@X$X2X$X$X$X.X X#X%X%X{..X.X$X.XaX%X.X%X$X%X&X%XF.+X{.1.{.&X'.1.[ _ G _ G _ F G Z D ` H G G F H F H $.G N.` ' $.m.b.m.v.v.' &.' ] ` G ` G F F F U W F U } F F U A Z U Z A U D A I A D D - U A A A I - D - A 2 A L 5 L g L , 1 , 5 < l * < 5 = l = g 5 * L L 5 L A 5 U P A F D A A A S - D D U * 5 2 2 L 1 = = 5 & & = Z 7 = 7 %.<.P.P.1.1.F.{.%X/.E.{.E.#X@X#XR.2X,X<XW.XXXXW.d.|.>XqX<X,X,XW.Q.%XE.#X/.#X XaX9XE. XW.,X@X@X@XW.#X#X0X#XW. X XE.Q.#XQ.#XR.{./..X.X{.R..X{.{.g.oX|. X,X XW.R.|.6X|.f.|.oXs.d.OXOX6XP.f.k.,X|.R.P.>X>Xk.|.>XOXoX>X1Xk.qXE.9X<X<Xd.W.W.,X>XQ.<X!.<X<X!.GXk.!.~.~.<X<X4X7XXXwX2X9XqX0X@X X.X X X X X{.R.R..XE./.R.{.aX{.R.wX&X#X%X0X0X#X#X#XQ.wXaX#X#X X&XR.{. X{.$X XoX6XOX6XOXOXeX,X5XoX/.#XaX/.g.%XeXiX$X$X3X{.{..X3XeX#X{.0X.X#X%X$X%X$X{.}.$X+X3X{.%X%X0X.X&X$X%X.X{. XOX1X|.OX,X>XeX#XE.2XW. XqX@X#X0X%XwX2X X@X4XXX",
">X<X~.qX!.qX!.E.wXE.wXwXaXQ.Q.E.9X@XW.E.@X9XwXqXf.<X XQ.f.wXqXwX7X7X~.qXwX~.@X@X,.,XE.Q.#XE.qXg..Xf. X$X@X{.@X Xg.@X XoX@XE.#X$X$X$X%X#XR.0X#X%X.X{.2X3X.X$X3X%X$Xg.1X1XeX$XR. X1XoX1X@X|.|.|.@XoX9Xf.,X@XOXOXoXoXoXOX6X$XOXE.$X{.0X$XoX|.eXOXeX@XOX5X@X|.5X5X|.P.|.6X3XoX.X.XoX X.X2XyXf.1X6X5X#X$X{.%XaX#XaX#X%X#X@XwXqX0X#X@X XeX%X%X@X0X2X$X#XaX&X0X#X#XE.aXwX,X@XuX0XwXuXE.0X%X#X&X#X#X#XaX.X.XyX%XaX%X@X{..XaX&XaXaX&X%X&X&X&X/.aX#X&X1.@X X@X9X%XR. XaX0XaX#X0X&X.X{.{.$XE.1X0X+X.X%X0X3X$X$X@XeX$X@X.X@XeX%X&XP.&X<.{.F.&X}.{.%.G 7 _ F Z G H Z _ } F G G H H H ` ` G ` G S.' J ' b.v.M.v.&.' ] J ' H ` #.F ` #.F #.#.U F F U F F G A U S D U A S S D U S - I D A A P - A 5 L A 2 A 2 L I I , 7 5 , = l < < , , I = g h * V 3 2 R D V U S A U D S U S D - S A U - A - 3 2 1 6 * 2 . = * - = 7 7 7 } 1.P.F.F./.1././.%X{. XE.R.#XR.Q.f.#X@X5X<X@Xf.,XoXOXk.XX<X@X2XaXE.#X/.R.R. X,Xf.4X5X@XQ.W. XXX4XW. X#X.X#XW./.E././.E./.1.R.#X XP..X$XOXoXoX4XXXW.R.d.1X6X@X,XoXg.R.OXg.oXyXg.8XOXg.6X2Xa.g.qXqXoXOXf.OX6Xd.,X6XoX XQ. X<Xd.@X>X6XoXd.<X,X<XQ.E.!.E.qX<XQ.>X>X>XqX<X#XqXW.XXQ.@X@X0X$X@X.X@X#X.X#X&X%X&XE.{.{.%X X&XaX#X#X#X#X{.E.$XaXR./.&XQ.&XR. X&X%X&X X$X+X{.6XoX+Xg.6X5X5X5X$XaXE.%XQ.$X0X$X1XtX3X%X.X5XyX$XP.$X XtX.X.X.X X$X$X{.3X$X$X3X{.eX&XaXR.1.%X0X.X$X2X$X5X|.6X5XoXg.9XqXg. X4XuXwX#XwXW.#XwXQ.XX9X2X",
"Q.Q.E.wXwX#XwXE.Q.#XwXE.@XQ.<XwXE.#X,XwX X0XQ.2XE.#XwX,XE.~.wX#X<X<X<XQ.E.wXQ.wX:.0X XQ.yXE.E.E.W.aXoX|.R.oX3XP. XR..Xg.@X2X$X#X X#XrX$XW.$X$X2XW./. X XaX{.rX&X5X{.$X1X+X|..X|..X$X$XoX#Xg.$X4X9X@XoX4X9X{.XXXXoXXXoX5XoX1XP.1X1X5X1X X|.@X5XqX|.6X5X6X,X2X2XXX|.$X1XOX$XoXR.1XOX2X5X2XqXeX1XeXuXaXR.%X%X#X9XaX#XaX%X2X2X X9X#X@X2X$X X$X$XoX5XeXOX3X5X0X#X@X#X@XR.yX#XqXwX1X@X9X2X@X#XrXE.aX#XR.%XR.#X%X@X#XaX XrXrX&X#X&X:XQ.aX&X&X/.aX/.wXaX{.0X%X#X#XE.2X#X$XW.rXaX.X@X{.%X{.#X3X%X.X.X%X3X@X2X X9X@XeX X{.&X+XrX+X{.1.P.}.P.A._ F _ F G G F F G F G G _ H H H [ ` H [ ' ` ' &.' [ ' [ b.C.' ] ' ' ` ` ` H $.F #.F W #.H U _ F S F F G A F Z } U F A W U A D - W - U U *.- S L P - P A 2 1 L < 7 . h 1 4 = 5 * 1 < , , 5 1 = 3 1 * = 2 2 L A A A A S D S H - Z S D V Z 2 2 A - = 2 < * * & . & = - 7 - Z 7 <.U.{.%.1.&X'./.@XE.#XE.Q.R.Q.#X@XwX,Xf.,XoXoX@X|. XyX@X@X5Xg.$Xg.#X2X#X|.@X5X@XXXXXf.uXf.Q.wXR.W.#XQ.aX#X#XaXE.E.aX#X0XQ.%XQ.wXR.#X X#X XW.f.f.W.R.oX,X#XoX|.W.|.oXR.|.@X5X,.f.yXE.Q.R.uXd.W.2XW.9X#XW.<X,.2XW.4X XQ.W.W.4XXXg.,XW.XXQ.4XQ.Q.<XGX~.!.qXwX>XQ.GX~.Q.Q.<X<XwX4X<XQ.Q.aXE.aXaXE.aXR.#XR./.&X{.{.#XQ.#X#XaXQ.&XwXaXaXQ.#X#X#X#XR.aX3X.X{.3X3X.X%X+X X.X{.%X%XrX.XtX%XR.tX%X3X0X{.OX+X5X+XeX6XtX%XeX{.R.eX{.3X%X.X{.$XpX$X0X/.%X{..X%X%X{.aX&XrXuX1./.{.$X$X$Xg.6XoX{.1X@X@X9X2XXX XW.XX>Xf.4XXX<X7X",
"wXwXW.wX0XwXwXW.aXwXqXQ.@XE.E.@X X XE.@XR.#XW.wX,X@XwX2XE.Q.#X!.d.!.wXqXwXqXE.,.E.wX X1.E.E.%XR.E.E.|.1X|.f.@Xg..X X$X@X.X.X{.#XaX X0XW.W.$X#X2X XR.0X%XaXE.%X$X3XP.oX$X$XOXOX|.g.|.|.oX@X X1X#X<X@XXX#X,Xf.W.R.oX|.OX@XOX6X>X7X4XoXg.|.oXoX,XoXd.1X5X,XoX6X6XoX6XoX@X X$X$X|.3X$X$X$X|.$X5XoX$XR.0XaXaXE.W.rX9X@X#X9X{.2X0X2X$X0X%X.X X3X3X1X3X3X.X2X$X$X X@X X@XQ.wX@X2XaX X@XqX#X$X#XaXE.#XaX#XaXaX@XaXaX,X%X#X#XaXR.aXR.Q.&X&XaXaXaX#X/.aXaX.X2X@X#X0X%X0X@X0X#XwX#X#X0X0X0X0X$X+X{.{..X+X.X X,XR.4X$XeX$X$X&X{.&XF.F.F.F.P.<.;._ G F } D G F G G F F ` H [ H [ G [ ` J H ` J ' J ' v.b.' b.] &.M.&.#.` ` #._ F U F F U #.F #.H F } #.F F W G U D F A #.P S F - W Z P D W - L D S A I U A A A 5 A 2 5 - 1 < , = 5 < < < 1 h < < 1 2 1 2 = A A V S A A S Z S C S G U A A C - - = - 2 = * - = . & . = = = 7 D D ,.U..X{.F.1./././.aXR.R.Q.#XwXW.E.Q.0X1XXX|.oX|. X9X$X1X0XE.2X XoX#X$X@X.X#X,XW.XX,XqX,.,.@X0XyX0XR.R.R.#XaXQ.R.#XE.@XQ.@XR.@X/.W.Q.W.Q.XXXX@XoXf.W.W.W.W.|.6X|.XX1X XW.P.|.4Xd.XX@XXXXX1.XX,XXX<X XW.#X#X,XW.<X XXX6X<X,XQ.W.qX<XXX,.E.#X,X>XQ.>XwXR.qX<XqX>X@X<XwX9XwX<X@XXXwXQ.Q.Q.Q.Q.E./.aXaX&XE. X&X{.{.aXaX#XR.Q.aXaX#X/.E.#XaXQ.aX#XaX3X%X{.+X+X$X%X{.+X{.$X$XrX{..X8XE.rX2X%X%X$XeX3X3X3XOX3XoX5XOX+X$X X X.X%X.X+X%X1.%X.X%X{.rX&XeXaX/.{.aX&X/.#X{..X.X3X1X XP.5XeX#XoXyXg.@X5X X,X4X6X,X>X4X<X<X,X",
"2X#XQ.Q.wX@X@XQ.Q.Q.wXd.Q.Q.R.0X4X#XE.0X#X@X0X@XQ.#X#XwXE.Q.<X#X~.W.<XQ.Q.Q.Q.W.2X#X#XQ.R.R.#X%X Xg.oX4Xg.g.@Xg.@X|.{. X X.XR. X#XR.rX X X0X#X1X@X XaXaXeX{.%X%X6Xg.P.OX1X.X.X1X@X1X3X6X2X X$X XE.E.R.R.XXR.XXR.6X@X1X1XoX6X6XeXoX,XoX6XoXf.,X5Xg.oX1XoX,XOXW.@X$XoX2X2X6X$XoX4X5X3X2X$X2XtX5X$X#XaX%X#X&X#XaX@X#X X$X X2X0X.X3X@X2X#X#X3X5X1X%X$X+X2X@X$X X$X@X#X#X2XwX#XwXW.@X$XE.2XR.#X/.R.aX&XaXaXaX0XaX0X0XaX%X#X&XaX&XaX&XaXQ.:XaX/.&XQ.aX X$X@X XaX@X9XaXaX XE.W..X$X.XE.{.P.{.{.+XaX8X$XXX5X5XeXR.{.{.%XrX}.}.F.}.}.P.F._ _ F G F F _ F F G F G ` %.` ` [ H ` ` ` H [ J [ m.' b.M.v.b.M.v.M.M.&.' ` ` ` #.#.#.} #.#.#.#.#.H F #.#.F F #.S F S S S U F S F S *.C S F Q A A A A A A E 5 A 5 L A L 5 = 5 5 , = h 5 , = 1 l < < 2 < 1 2 * 2 = = A Z 2 A A D C A S U A A 2 - * = 5 2 = 2 5 2 = . . * * * = - . 7 } +XP.P.P.+X/.1.#X.XaXaXR.E.wX#X<X0Xg.oX6X|.oXOX XXX#X1X X9X$X@X@X3XeX1X X2X#XoXXXW.E.wXwX1.E.E.Q.$X#X#X#XR.Q.@XQ.#XW.%XW.#X#X4X4X@X4X1XXXW.E.f. X XW. X|.,X|.f.|.oXg.k.4X{.g.@XW.,XW.Q.4X XR. XXXXXW.yXW.R.wXXXXX<XqXE.W.@X,XR.#X<XqX4X,X Xd.Q.wX~.7X<X7X<X,X<XwX4X@X#XwXwXwXaXwX&XwXaXaXQ./.aX&X/.E.&X#X.X#XaXaX#XQ.aXrXR.#X#XrXaX&XwXaX0X.X$X&X$X&X+X%X.X%X{.%X+XeX{.%XrX/.iX$X.X#X.XtX$X$X1X+X5X$X3X+X$X1X+X1.3X$X{.$X3X1.#X%X%X.XeX.X%XR.E.aX#X{.E.&X#XaX%X0X0X X$X3X,X@X@XyX X1X3XW.6XqX1XQ.<X,X5X7X7X",
"2XwXqXQ.wX@X2XwXQ.~.yXE.wXwXQ. X@X,XW.0X#X,XqXW.E.@XwXwXE.W.<XqX<XQ.qX~.Q.E.wX<X@Xd.#X$XW.E.E.{.2X XeXyX|.1XyXg.oX$X@X.X.X9X$X X{.1.uX#X.X2X#X0X0X@XW.%X%X$X%X%X3XOX$X+X5XoX+X5Xg.{.@XoX#Xg.#X1X3X4XwX4XeX,X4XoXXX|.OX|.k.OXk.XXf.oXW.|.|.XX1XOX|.2X1XoX6X$XXX1XoXXX3XeX#XoX X3X|.f.1XoX|.1X1X{.wX%XE.#X9XaX{..X@XrXR.1X3X$X#X3X#X$X$X0X3X1X$XoX.X1X$X.X#X@X#X0X XR.wX@X#XwX#XwX@XQ.aX#X%X#XaXaXR.%X#X%XaXW.aX%X#X%X#X{.&XR.aX/.&X&XaX#XwXaXwXuX{.@X1X X#X#XwXaXuXwXaX0X0X0X%XE.rX3X3X3X$X.X{.P.2X1X X2X$X3X+X&X%X}.{.1.F.P.<.` G _ D Z G _ ` F _ F _ [ ` ` [ ` ` ` [ [ ` [ ` ' J V.[ ' M.v.v.C.V.M.[ ` ` ` ` F F F #.F F G S F F _ F F W F U #.U F U S D F P F S A #.Z A D U D A A V L - U 2 5 - L 5 I 5 = 5 5 1 = h 1 < = < g = * = = = - . * * 3 2 5 - A Z D - A A S C A Z 2 - 2 A A 2 2 V 5 - = = = = * . - - = = %.P.yXP.1.R..X%XE.d.E.Q.aX$X#XQ.E.>.|.5X.X3X@X{.2X,X9X$XyXE.oX X X2X@X|.XXqXW.XX,XeX4XXXXX@X2X$X$XQ./.#XaXE.#X#X#XQ.,X#X0X,XXXW.W.4X<XXXW.f.XX6XXX X,X|.|.|.|.W.4X|.5XoX,.XX,XXX2Xf.E.<X4XQ.,X2X4XXXqX@X,XyX4XW.Q.4XQ.#XwXXXd.>XXXXXW.Q.,XqXqXqXqXwXQ.~.wX4XwXqXwX4X4XqXGXwXQ.wXwXE.E.Q./.&XE.&XE.R.%X&X#X&XR.#X&XaXE.aXaXaXE.#XR.E.#X#XaX{.{.$X3X.X{.%X0X%X{.%X0X{.+X%XaX{.0XaX.X.XtX+X|.3X1X6XeX1X1X6X5X$X.X{.0X%X{.#X%X.X#XeX+X&X1X{.$X%X%X&X/.@XiXaX XaXE.{.#Xf.1X{.1.oX9XR.eX,X@X X<XqXOXXX,X>X4X4X4X",
"!.Q.wXE.Q.W.Q.@XE.E.wX1.@X2X1.>.wX0X XwX@XaXqXQ.1.Q.wXQ.:.d.Q.#X!.Q.GXwXaXE.wXQ.@XQ.,X#XE.@X Xg.{.d.oX1Xg.$X5Xg.1.$X0X3X X$X X.X%X.XuX.X X#X#XwX@X#Xg.$X$X.X{.{.$X|.1X%X5XOXg.$X1X.X2X3X1XR.#X9X@X#X@X2X9XW.oXoX5X6X4XoX,X6X1X6Xf.6XXXoXoX|.5XoXg.,XoXW.|.6X@XW.1XXXoX1X|.oXoXqX$X X9X9X6XyXyX2X0X#X#XaX0X$XW.aX$XtX$X#X9X@X%XwX#X0X%XwX3X@X6X+X.X3X.X X#X@X X0X XW.0XaX6X2X@X9X#X@X@X{.&X XaXR.&X#X%X#XaXR.%X X$XaXaX%X&X XaX{.aXaXR./.aX&X>./.+X1X5X>X<X@X,X6X9X@X X@X$X$X$X{.%X.X$X$X+X%X8XeX%X$X X%X3XrX%X;X{.I.P.&.1.&.%.` G _ G G G _ ` F F ` ` ` ` ` ` [ ' ` ` ` ' ' ' ' [ N.J [ b.v.v.C.M.&.[ J ' %.` _ ` H $._ #.} ` #.#.#.F H U F F #.F F F D F S U F A Z W A S D U D D P A U 2 U V A 7 L - L A - h 2 L = 5 5 < < = 1 1 1 5 < , i < 1 2 < 5 2 5 7 - A A V V A 2 S A A V - 5 L 2 - 2 V , = O 3 < = * * . * - 6 D l.U.tX1.}.+X$X#X#X X{.#X#X0XqX0X#X#XR. Xf.E.2X$X@X X@X|.1X@X2XqX3X$XwX,X4XqXXX,X@X,X@X#X X#XwX0X#X$X#X#XaXwX#XW.#XE.W.4XXXQ.E.<XXXXX,X XoX,XW.XXXX|.,Xf.|.XXoXd.6Xg.OXuXf.f.f.XX1X@X XXX XW. Xf.W.XX X,X,Xd.d.!.,X>X~.Q.Q.qX,XwX9XHXwX~.Q.wXd.wXQ.<X XQ.>X<X4X,XQ.Q.Q.Q.E.aXQ.&XaXwXR.Q.aXR.aX#X&X#XaXW.R.&XQ.aX&XaXE.0X#X$X@X#XaX2X0X.X.X%X3X}.{..X$X%X&X3XrX{.3X$X{..X$XeX#X$XtX.X.XeX$X5X6X1XoX3X5XoX{.5X%X$X.X&X@X$XoX3X X$X$X+X1XaXaXaXaX&X0XR.0XyX#X#X#XR.tXaX#X$XyXg.2XoX$X,X4X9X,X<X,X>X>XqXqX",
"Q.<X#X#X#XwXwX@XQ.E.@X!.qXwXQ.W.wX@XE.<XQ.Q.wXaXQ.@X2X#X#X<X9XwXQ.Q.wXQ.Q.!.wXaX@X#X2X2X@X0X X{.9X|.$X1X X$X5X2X XE.|.@X.X X{.%X0X#XaX@X X0X#X#X#X9X3XtXrXeX$X&X3X+X5X6X3X$X6XtX2X|.$X#X@Xg.g.#XR.R. X1X4XR.@X2X5XXXoXR.oX1X6X5XOX9X6XyX,Xg.2X9X6X,X1X5X2XoXoX1X5X1X|.6X@XyX1X5X5X|.1X,X,X9X9X@X%X%X@X%XaX0X@X0X#X%XuXg.2X1X0X$X0X@X{.#X.X#X3X.X|.eX$X.X%X$XR.@X#X#X9X,X,X2X,X4X#X0X@X$XaXaXuXaX%X#XaXaX0X@X9XaX0XaX0X0XaX&XrXaX&XaX&X%XwXaX/.uX,X@X5X<XqX5X,XXX2X#X$X$X%XwX%X@X3XoX.X+X$X%X$X{.#X%X0XeX&X{.P.}.}.P.F.<.<.[ _ &._ _ _ F F #.#._ ` ` #.#.` H ` ' ' ` ` ' $.' ' ' [ S.J [ V.C.v.M.] v.] ] ` [ ' ` _ F #.` ` F F ` #.H F F ` F F #.F F W F F F H U Z F =.F U S S Z D U A P A R A L A 5 2 5 I 5 L 5 L < , h g i , 5 < < < * < < . = < < 1 < = 1 < 5 7 2 - A - L L A A V V P A 2 - 5 , ; * ; < < * * * . . * = I R 5X$X8X1.s.&XaX%X.X#XaX#X/. XE.R.Q.3X{..X@X1X0X1X0X{.R.R.@X3XoX{.0X<XE. X<X9Xd.E.,XqX2X#X XE./.Q..Xd.E./.R.,X0XwXaX2X,X2X@X5XW.XXXXQ.Q. X X@X|.g.5Xg.g.$Xg.|.$Xg.,X Xf.9Xf.W.XX#X<X4X@XXX4XqXXXqXW.<X<X,X>X~.yX<XQ.yX4X<X!.k.!.XXQ.<X<X<XQ.qXqXqXwXwX<X<XwXwX,X#XXXwXwXaXwXQ.wXQ.&XaXQ.R.aX#X&X#X%XR.&XaXQ.aXQ.rXR.%XR.2X$X&XR. X#X.X&X%X&X{.aX%X{.0X+X%X&X{.3XaX.X+X3X$X3X{.$X$X1XeX X$XoX6X,X8X+X$X{.tX$XOX$X$XoX$X$X+X|.$X1X1X1X9X#Xd.#X%XuXE.#XaX&X&X X X$X.X{.@X9X0XR.1XqX2X1X>X,X4XoX>X,XqXqX",
"Q.wXQ.wXW.wXwXW.qXE.Q.W.,XE.Q.#X@XE.1.E.W.E.E.W.E.f.Q.Q.wXXXwXqXW.@X<X#XwXQ.0X,XW. X|.<X0X3Xg.|.eX6X1X X X X X0XeXR.g..X0X3X%XtX.X.X.XaX#XqX%X#Xg.1X.X3X$X%X{..X.Xg.{.P.P.g.+X3X Xg..X.X$X@X$X9XR.#X@XXX Xg.|.OX9X|.|.f.$X1X5X4X2X4Xg.,X1XP.6XXX2Xg.|.5XoX,.f.oX,X5XoX6X5XuXoX1X4X|.oX6X@X6X@X X0X&X#X#X@XaX$X%X$X XrXE.@X$X1X@X0X@XR.#X#X.X3X.X{.5X.X#XwX%XE.0X@X@X2X$X X2X X2XR.R./.R. X&X@X&XaX XaXaXrX%XtXaX#XR.#XaXaX#XaX&XaX#XaX&XwXaX/.wX1X,X4XXX4X4X,X,X2X X9XwX1X3X@X@X%X$X$X%X$X+X.X{..X{.{.&X&X}.F.1.F.F.<.` ' G G &.G _ ` #._ ` #.` _ ` ` ` ` ` ` $.' ` [ ` [ ' [ J [ D.J ] C.C.M.v.' ] ] ' ` ` ` [ $.` &.#.$.` ` ` ` _ H ` ` F F #.F F W F #.U W F F U -.F U F A A S U Z A A U 7 A D 5 5 5 I 2 5 5 L = 5 L 5 5 2 l 5 7 h 1 g g < , * . < & & < = < < - = - = A - 2 L A A L V - V V < < < ; ; > : ; . = - 2 4 =   D ;.+X}.P.P.OX{.&X1.R.&X X%X0XaXQ.qXg..XE..X$X@X$X@X{. X$X0X$X@X2Xg.XX,X6XXXE.#XW.E.#X$XwX#X#XwX2XwXaXQ.#X@X@XQ.!.f.W.1X X5XXXXXXXf.R.|.|.,XoXg.oXXXOX,XoX6X6X|.oXXXW.,Xf.,X2X@XXXXXXX,X9X9X#X9Xf.>X!.7X~.Q.<X!.!.!.j.~.~.wX<X>X<XqXqX<XqXwX4XQ.~.9X<X<X,X@XXX<XwXQ.Q.Q.#XR.aXQ.aXaXR.aXaX.X{.$X&X&XaXrX&XaX/.rX#XaX#X0XaX#X$X@XaX.X$X%X{.{.eXeX&XeX{..X{.$X%XrX+X$X0X+X3X1..X3X+XeXP.$X$X8XOXeX1X$X+X3X3X.X3X8XoX1X5X|.oX1X$X6XoX#XaXE.aX#X0X%XR.#XwXwX#XaX#X#X#X@X2XeX XeX2X,X>XW.6X>XXXoX5X7X7X",
"/.wXQ.wXE.Q.@XE.Q.E.0XwXaXQ.$XQ.#X X#XQ.2X<XE.E.wXE.Q.XXqXQ.<XqXW.wX0XwX0XQ.0XwX1.wXW.E.1XyX XoX X2X0X XoX$Xg..X$X{..X.XeX2X#X.X#X%XR.0X#X9XqXyX#XyXoX3XoXrX.X{.$Xg.3X$X$XoX$X Xg.{.3Xg.g. X$XeX@X9X9X,X$X|.qX5XuXoX,XoXqX5X6X2XXXeXoXoXXXf.4XXXoX,XqXeXXX,XyX6X X9XoXoX|.4Xf.oXoXoX5X5X1XoX|.oXyXE. XaX$X XR.#X2X%XE.qX$X@X,X$X#X@X#X0X$X XeX$Xg.$XR.@XeX0XE.0X@X$X#X%XR.wX X9X@X X&X#X#XaX&XaXaX X%X%X0X{.0XR.aX#XaX&X#X&XaX/.aX&X%X%XR.rX#XwX6X>X5Xf.>X6X7XGXqX@X9X$X X2X$X3X3X1X8X3X+X.X3XrX&X{.{.&X.XF.F.<.F.I.I.[ _ G _ $.G G ` %.` ` #.` H ` ' ` ' ' %.] ' ' ` ` [ ` [ [ J Y.[ ] v.v.b.V.V.V.] [ [ ' ` _ ` _ #.` #.` H ` ` W H #.#.H F #.H F U G #.U #.Z F W #.S S D S F U U A A U R - A L 7 P 7 L - 7 5 2 = 7 k = = = L . . < < , < . ; : < < & % < & . * = * 1 2 2 - * 2 A A 2 - 3 - * * 1 1 ; ; ; * * * ,     k 5 & = A P.L.+XP.}.{.&X&X{./. X/.Q.#XQ.9X1.1XE.0X9X.XR.@X#X.X.X$XwX2X X,X,XW.2X<XXXqX,XwX,XE.E.E.@X9X$XR.#X#XQ.#X#X@X@X2X<X,Xf.<X>X,Xf.1. XXXd. X<X|.W.oX1Xf.6Xg.|.f.|.#X,X#XW.,X XQ.oXW. X@X<XW.Q.4XQ.qX!.qXwX<X<X<XGXQ.<XqX~.<X<XQ.>X~.7XGXwX<XQ.<XwXwX4X4XqXwX@X#XwXQ.Q.aXwXQ.wX/.Q.aX#XaXQ..X XaX#XaX#XaXQ.aX/.wX&X%X X&X#X#X0X0X%X%X.X%X&X1..X$XrX&XP.{.aXrX%X{.{.$X$X#X3Xg.3XeX$X1X|.5X3X3Xg.6X$X.X$X{.yXP.3X3X X@X8XP.1X6X$X6X{.E.wXQ.aX%X#X#X%X#XaX{./.%X#X0X0XoX3Xg.,X2Xg.XX1XQ.9X>X,X>XGX<XQ.",
"!.wX<XqX<X<XQ.,.Q.wX@XQ.wX,XE.E.@X X#X>X,XwX@XXXwXQ.<XwX4XwX4XwX,.qXQ.wXQ.0X2Xd.#XyX@XwXg.|.oX1X5XE.2X2X#X@X0X,.uXaXR..XrX.X3X@X%X$X X X4XyXyX2Xf.9XoX.X$X X%X3X.X5X3X5X+X$X$X X{.$X0X#XE.@XE.$X X X1X X XtX XR.#XW.|.5X2XGXW.4XoXg. X,XW.d.6X5X5X4X,X1X@XoX5X4X,X2X1X6XW.5X5XoX9XoXyX2XOXuX X6XrXR.0X0X0XtX#XR.$X X0X@X9X X2X2X#X%X X.X$X|..X$XP.3X|.3XR.$X0X$XaX0X#X$X@X0X{.3XaXR.%X0X0X&XrXaXaXaX{.aX3X.X0X$X.X%X%XrX/.%XtX&XuX&XaXQ.%X0X1X#XXXyX>X7X>XyX7X,XE.W.9X9X2X5X$X$X3X.X$X.X8X1X{.{.{.&X3X{.&XF.<.F.}.&.G ] &.$.G $.#._ ` #.` ` $.` $.' ` %.' ' ' $.] [ $.] J [ ' ' M.C.] V.S.] v.V.v.] ] ] ` ` ` ` ` ` %.%.` ` ` H ` H H H ` G F #.F #.F #.F =.F } ;.U U F S Z U U A P A S A D - A U A A A A 5 A 5 A 1 7 5 , 5 = 5 = , 5 < < ; & : f O < : % < % & < & * < = = 2 L 2 2 - 2 V - 3 2 = . = 1 I < . 1 * * . . * = = < = - +X<.+XP.P.8X%X{.{.{.R.aXQ.1.W./.%X0X X.XrX9X0X X X#X X#X@X#X6X,X X4X,X2XXXXX4XR.#XwXqX@X,XwX XwXwXqXQ.<X#X X,X@XW.XXqXd.g.XXW.,X6XE.9X@Xd.$X5Xf.g.W.g.g.1X|.|.E.XXW.,XW.f.2X@X XW.2XE.<X X9X<XQ.<X>X7XwX!.<X<XwX!.d.Q.~.!.<X~.0XQ.!.wXqXuXQ.qX#XQ.<XaXwXQ.#XyXwX<XwX#XaXQ.Q.$X#X%X2X X#X0XrXaXaX&X#X%X%XaX$X%XE. X#XaXaXrX#X%X.XpX0X{.{.&X%X{..X&XP.%XaX%X+X{..X.X.X.XeX$X3X+X$X$X5X|.3XOX$X$X+X0X$XOX.X%X.X5X3X{.5X1X$X$XoXE.@XuXyX X X$X#X%XuX0X#X#X XE.R.$X,X9X XXX1XOX2XqXoX,X,X9X,X7X>X",
"wX4X<XwX,XQ.@X<XQ.@XE.#XaX#XE.wXf.E.Q.XX,X#X9X4XqX1.Q.yX<X<X<X,X!.uXwXaXQ. X@X,.2X,X5XeXoX|.f.@X,Xg.$X2X%X0X0XE.rX#X&X{.%X.X+X.X#XaX0X$X X#X<X5XXXuX$XoX5X.X3XeX$X%X|.+X+X1X3XOX$X#XeX@X X2X#X%XR..X.X.X X9X2X3X,XyXyX5XXXeXW.4X4XoX1X6X1X@X5X|.5XeX5X6X6X6X5XyX6X2X4X5XoX2X2X@X5X|.5X1X6XyX4X4X#X#X9X0X%X$X$X%X@X X2X$XeX|.1X5X X@X X@X3X XP..X.X1X X3X{.@X2X2X$X@X@X$X@X0X{.0X.X.X$XaXaXaXrX&XaXaX&XaXrX.XrXeX{..X.XeX&XrXtX{.aX/.aXaX%XwX$X,X,XqX,XyXqXyX7X5X@X X2X#X#X2X$X X5X3X$X$X%X3X+X+X&X}.F.}.}.F.P.D.;.` G ` &.&.W ;.` ` ` %.` ` ` ` ` ' ' &.&.' ' [ ` J ' ' ' ] ' ] ' n.[ V.G.C.C.n.[ ] V.] [ ' [ %.` $.' $.' ` ` $.#.#.` ` #.` F $.F #.#.H F ;.-.$.&.U #.#.U F F D S D D A D I - A U A 5 L 5 L I A 5 5 L L 5 5 < 5 , 5 5 < 4 g , < < < : & < 4 < & . = 1 l 5 < < 2 2 2 L A 2 - - 2 2 = = = = * * 3 ; < . < . . . = - - S +XL.s.<..X&X{.&X{.R.aX@X#X9X#XqX2X#X.X#X$X#X.X$X$X&XR. X#XXX,X1X<XW.1X,X#X,XXX2X2X,XR. X X#XaXE.1.#X@XXX4XXXR.9XR.W.<X5XXXR.@Xd.4XW.f.@X6Xg.|.oXoXoX$X4XW.XXW.#XW.XXXX@X9X4XXX,X4X<X2XXXXXR.^.qX~.!.XX~.qX~.qX<XQ.<X<X!.<XqXwXQ.<X<X XQ.XX@XwXwXwX^.wXaXwXQ.aXwXaXR.0XwXaX2X1X2X$X.X{.#X%X#XaX#X&X%X%X0X#XaX&X#XaXaX X0XaXeX1.&X{..X:X.X{.&X.X3X&XaX%X%X.X$X%X$X.X.X3X$X X$X$XoXyXXX6X$X5XoXoX1X{.oX+X1X+X1X1XP.1X$X$X$X$XaX#XW.R.@XyX0X$X0X,XE.E.#X.X#XaXeX2X1X$X4X5XW.,XW.XX<X7X>XXX4XqX",
"wX<X#X<XwXE.Q.wXE.#XE.wXwXwX#XwX,.R.#X@X@Xd.Q.E.Q.E.E.Q.Q.Q.a.f.d.wX#XQ.#XQ.9XQ.2X|.9X@X1XoXoX5X$XE.2XwX#X0X#X%X%X.X2X{.{..X{..X0XrXrX0X$X,X3X9XXXyX4X5XuX3X6XeX X$X3X$X3X3XeX3X3X{.eX@X.X0X#X0X%XeX1X3X{. X1X@XR.3X,XR.E.4XW.2XXXXX6X5X6XoXqX1X5XqX,X,X1X X|.OXXXW.oX4XXX6X4X4X4XW.4X4X4X4XqX9XE.aX#X#X XR.#X@X1X|.@X@X4Xf.@X9X#X#X.X1X3XoX.X|.$X6X.XtX$X#X#X9X X.X.X@X.X%X$X%X.X%X@X&XaX:XpX&X%X&X{.aXaX&X3XeX{.$X$X%X%XrX%X/.aX&XaXaX%X0X$XyX6X7XXXOXQ.>Xf.4XyX4XwX@X1XyX9X2X5X3X$X6X+X1X{.+XtX{.$X{.P.D.I.V.G G F H #.F G =.#.#.` &.%.` ' ` ` ' ' ` ` ] $.&.' ' ' [ ' ] ' ] [ C.M.V.D.V.V.V.[ ' M.[ ' &.&.` ] ` $.' $.$.' $.$.' #.` #.` F $.H ` } #.F #.$.#.#.F #.#.} F F A S D D U A U S A I 5 A A A A 5 5 A 5 5 L h L 1 h * 7 < = < , < O & , < % : : % < % < , f < = = 1 2 5 A 2 = 2 A A = = 2 = . * * < * < * < O . O . A = . U U.+X1.P.pX{.1.1./. XR.g.W.1.#X{..X#XR.#X#X$X$X#X#X#X{.#XE.XX2X9XQ.4XqX2X,X@X6X XXXXX4X@X@X#XQ.wX#X9X2XE.XX X4Xf.,X,XXX4Xf.g.@X@XW.W.|.g.f.|.|.1X,XOXoX|.oXW.XXR. X X<X4X@XQ.,X@X6X4X4X<X<XqXwXQ.!.XXQ.7XQ.<X<X<XHXqX>XQ.qXqXQ.qXwX<X@XqXwXwXwXaXaXwX#XQ.wXaXwX#XE.wXaXQ.9X<X X.XaX2X@X&X%X&X#X%XaX#X%XaX#X{.&X@XaX{.2X0XeX{.&X&X$XpX%X{.%X$XaX%XrX%X&X{.eX3X%X$X%X.X.X X1X3X+XyX$X+X6X3X$X3X1X.X3X$X1X3X1X1X X$X#X#X$XaX%X X%X X0XuX2X1XrX#X&X0X9X$X@XeX9X1X@X9X5XeXR.,XXXoXoX4XW.4X7X5X",
"<X<XQ.Q.wXQ.<X#X#XwX XQ.W.aX#X2XQ. X,X<XQ.1.!.,.<XGX<XQ.<X<XE.4XE.Q.#XE.@Xg.wX XoXXX2Xf.oX6X5X5X@XR.0X0XW.aXE.0X@X@X%X.X.X+X.X$X0X0X@X$X1X9XwX2XE.2XoX2XyX6X+X%X{.+X$X+X$X{.%X.X@X,.%X{. X%X{..X.X2X2X2XR.$X2X@X X.X|.#X2X9XXXuXoXoX2X4X Xg.@X6X5XqXoX6XuXqX6X4X9X6X4X5X@X,X2X<X9X,X4XyX,XXX9X9X$X0X$X#X0X@X2X$X3XoX@XoX@X|.1XeX,X$X#X$X$XoXoX$X%X$XOXeX%X#XW.9X&X.X%X&X.X0X2X0X@X0X%X&XaXaX:XaXaXaX&X&X%X.X%X$X%XrX0X%X%X%X%X.XaXR.#XaX$X,X$X2XOX5XyX<X9XyX@X2X@X#X,X$X#X6X3X6X5X+X$X+X X+X.X.X8XF.rX&.<.1.` G ` ' N.%.#.F F ;.` ` ' %.` ` ] ` %.' ' [ ' &.m.] ' ' ` [ ] v.[ [ v.S.C.V.C.C.C.C.] v.M.] ] 2.#.[ %.$.' %.%.' ` ' ' #.` ' ` H W $.` #.#.` F #.#.Z U G G U F F F A U A U S A U D 2 D A 5 Z 7 - 5 5 5 2 - 6 A I 5 5 * 5 5 < < , , = ; f , < 4 < & < < < < & . * ; 4 < 1 = = 2 A 2 7 = = = < * , 3 = * , ; i < . : * . - 5 . -.P.s.U.1.{.&XaX0X%X@X#XrX#X#X1.E.aX#XtX{.{.E. X%X#X X#X4XXXqXuX,X@X2XXX,X#X,XQ.,X4XyX4X#XW.@XuX,.@X@Xg.@X4XW.,XqXf.f.,X@X|.<Xd.1X9X@X,XyX5X|.|..Xa.,.,.2XW.@XXXXX,X4XXXXX X2XXXW.#X@X,XwX>Xf.Q.>X#X7XwX<X>X!.,.,XqX4XwXQ.@X~.4X4X4XXXwXqX@XwXaXwXQ.Q.wXwX#XQ.#X#XwX#X#X9X2X.X.X0X%X#X.XaXaX%XaX&XR.&XaX#X{.R.&X2X%X0X$X&X{.$X&X{.&X.X&XrX%X3X&X%X.X.X%X3X%X%X$XeX+X1XOX3X5XoXeX1X{.8X5X+X5X1XoXyX3X$X%X%X%X$X%X$X&X#X@XE.#XrXaX0XeX X2X0X#XwXuX9X|.{.@X.X X X0X,XeXW.5X4X,XXX>X~.yXqX<X",
"~.<XQ.Q.Q.4XQ.@XyX<XR.d./.E.wXR.0XE.XXXXE.,XQ.W.,X,XQ.qX>X<X!.f.wX0XwX#XaX1.#X,X X,X,XOX1X@X4XoX@XR.@X@X#XeXE.rX.X@X.X%X$X.X%X2X&X$X0X$X@X,XwXyX1X5X$X1X8X1X+X6XtXtX%X.X%X$XeX+X$X1.2X@X.X$X X X{.{.$X XR.eX#X@X1X1X1X9XqX4X#XuXeX1XoXoX1X|.6X,XoX$Xk.|.5X,XoX6X5X>X4X4X,XXX,X,XyX5X<XGX,X1X6X4X2X0X$X#X%X9X$X9X5X2X2XoX1X,X2X9X2X#X$X#X X.X+X$X.X.X|.3XaX XE.%X$X.X0X$X$X3X3X3X&X%X&X{.aXaX:X&XaXaX&X#XaX&X$X+X$X%X%X$X3X3X%XrXaXR.rXaXwXaX0XQ.XX5XqX X2X<XE. XXX@X4X9X2X5XeX5XeXoX5X{.$XoX8X+X%X+X+X<.F.&._ [ _ [ ;.` #.` #.L._ ` ` $.` [ ] ` ' ] ] &.] ] ' J ' ' ' ' M.v.[ ] [ v.] [ V.S.V.[ v.&.A.M.&.' _ ' &.#.' %.$.$.' ' $.` H ' ' H ` &.F ` #.` F ` %.G F F G #.G } F D F Z S A A D D - P D A 5 Z A L I D 5 2 A 5 A 5 l = L 6 1 2 < < < < 5 4 < < = = < & < < < ; & * < = * = 1 5 1 = * 5 = = 7 * 2 3 * * < > s > . ; #   L = = = } +X+X2.1.{.%X%X%X@X.X#XE.aX#X%X0X1.R.#X#X X#X0X0XaXwXqX#X2XqX<X,X4XW.<XXX4X,X4XXX<X XE.#XwXW. XQ.#X X@X,X X,XXX>X6Xd.,X@X>.oXoXW.W.oXf.oXf.f.oX1X6XoX,XR.W.R.XX,X2XW. XXX<X,X X<X Xf.<XXXQ.,XXXXX<X9XW.<X4X2X4X@X!.E.XX,XwX,XwX2XwXQ.wX#XwX0XwXR.#XwXaX#X@XwX@X@X@X@X2X4X1X@X%X$X{.#XaXaX%XaX$X{.#X#X&X&X.X&XrX%X0X%X%X%XaX%X&X%X%X&X&X%XrX&X&X{.&XpX$X3X3X.X+X%XtXP.6X%XoX5X3XP.5X3XOX5XXX|.tXoX.X$X+X$XaX&X%X#X#X&XaX#X{.{.0XpX$X.X0X$X3XeX6X XoX4X X#XoX1X XeX X4X,X>X6X<XXXqX7X4X",
"Q.!.~.wXQ.XXQ.,XqXE.Q.E.Q./.#XE.wX,.#XXXQ.9XE.E.GX<Xf.qXwX<XQ.!.Q.@X,X2X@X!.wXuX,XoX|.,X5XOX5X1X0XW.#X XaXyX#XaX{.$X{.3X%X$X%X+X$X0X0X0X@X@X3XqX9X5X7X6X,X1X@X+X5X3X3X+X%X$X3X#X3X.XrX0X0X0XaX2X.X#X$XR.{.0Xg. X0XwX$XwX2X@XQ.E.6X4X,X|.5X5XyXoX9XyX1X1X6X X>XyX|.k.@X4X6X1X4X6XqX4Xg.qX,XqX<X6X@X@X0X#X XR.E.0X$X2X5X2X1X2X2X@XwX$X0X%X XoX.X.X.X{. X$XwX.XE.0X%X@X0X$X%X.X$X3X.X$X&X%XaX&XaX{.&X&X&X%X%X#X$X$X$X+X8X%XrXeX%X%XaXaXrX#XaX$XyX$XyX5X2XW.1X X X9X@X#X X,X2X2X5XoXeX.X8XP.1XoX5X.X+XI._ <.<.G G G H Z _ G F #.F <.H ` ` ` ` ` &.[ ' ' ' ' $.] [ J ' ' ' ' ] b.] v.v.C.C.n.D.(.V.V.&.' V.V.&.] [ %.&.$.` $.' ' $.m.' ` H ` #.` #.&.` ` F ` F G $.D #.F F #.S F F Z } A D Z S D A A 7 A A A L A 7 A 5 L 5 I 5 2 5 A 4 5 - = < 4 - & * 1 , = < < = = & % 4 $ % & . & = & = < < = = 2 1 & . < . 2 . = ; . > ; > O O # : ,   * . _ @.F.tX%X1.1.$X3X$X X0XaX@X X#X0X.XeXR.&X&X#X.X X%X9X,XW. X X@X9XyXXX9X2X4XXXW.f.W. X@X0X0XaX X2XwX X#XXX XE.f.4XW.E.5X@X2XyX,X|.oX|.oX6XoXoX|.f.oXoX4XXXf.f. Xf. Xd.<X XXXoXXX9X@XW.<X9XqX<XXX@X<XXXXX,XQ.XX<X,X4XqXwX4XqXwXuX0XwX0X#XwX0XwXQ.aXQ.aXE.Q.qX@X#XwXwXwX5X<X@X1X9XaX#X.X#XaX%XaXaX&X&X.X0X$X$X0XrX.X.X%X%X%X%X{.{.&X.X{.%X&X%X.X%X&X{.$XeX%X#X3X%X.X5X.X8X1X1X3X3XR.1X+X+X6X|.P.eX+X$X3X.X{.&X{.&X&X&X#XR.aX0X%X XE..X5X9X0X2X6X3X4X3X6X3X2X1X$X@XyXXX,X|.W.7X4X,XqX7XqX",
"4Xd.!.qX<XXXXX<XQ.E.wXwXwXR.aXW.yXd.qX4XqXqX#Xd.IXqX!.!.Q.Q.>XqXE.Q.@XwXW.Q.,X0X1X|.oX|.5XP.6X1X9X#X2X XQ.aXaX X.X$X#X%X.X3X+X&X0XaX$X$X,X$X,XXX<XoX4X4XOXoX+Xg.+XeXeXrX0X3X%X.X@X$X#X%X$X2X%X2X$X3X{.{.$XeX{.2X9X2X@X@X2XwX<Xg.1XqXqXoX4X,X2X|.6X6XoX4X2X@X9XuXqX,X5XqX5X4XqX@X4X6Xk.4X<XyXXX4X9X$X$X9X$X{.@X2XoX2X9X5X1X1X1X2XqX@X0X$X@X3X$X.X$X+X#X.X0X2XR.aX%X&X3X&X0X.X+XeX%X&X%X%XaX%XaX&X&X&X%X&X&X&X#X%X3X$XtXrXrX%X{..XaX#X&XR.R.W.9X0XoX XXX XtX#X0X9X9X2X@X9XeX9XyX$X3X|.eX.X+X+X5X{.+XP.%.<.&._ G ` ' ` #.` #.;.F L.#.` ` ` ` [ &.[ ] ` ' ] ' ' ' &.] ' b.' [ [ [ v.[ n.C.v.] v.] ] v.] &.V.A.&.` F %.' $.` ` ` $.$.' ' ` ` ` ` #.&.` #.F G _ G _ G _ F F #.Z } S D #.A F A } F D D Z A A D I A - - 5 L - I 5 2 7 5 5 7 = < 5 5 < < , - < 5 7 2 4 = % < & O . & . & & * & . & * 5 h = < . < * 3 . 1 > . > . ; w # ; @ # j   = = = 1.<..XP.{..X{..X{.#X$X#X#XR.#X/. XaX0XeX0X@X$X0XyX9X,X<XQ.@X2X4XW.yX<X4XXXXXW.,X,X0XwXQ.2X,.wX2XXX>XQ.Q.f.4XXX1.Q.R.E.yXg.W.,X5X2XoX|.|.oXR.g.oX$X9X4X#X X,XE.|.W.yX,X,XW.XX,XoXW.XXW.2X,X,XqX4XXXGX4X@X<X4X,XQ.W.#XQ.<XXX<X<XQ.wXwX,XwX@XwXwXQ.!.Q.wXyX#XXX,X0X2X9X,X#X2X9XrXaX X&XaX%XaX%X$X%X&XrX%X.X%XtX{..XaX:XrX%X.X&X%X$X&X%X.X&X&XaX%X}.{.eX+X{.tX2XE.%X$X3X$X3X+X5X|.1XOX6X5XOXOX8XOX0XrX.X{.%X{.&X&X&X&XaX%X{.%X%X$X3X{.$X3X1X+X6X1X+XXX5X,X2X@X,X5X|.,X,X|.>X4X>XGX<X4X",
"yXd.!.Q.<X4XqXwXQ.Q.0X9XE.Q.wXaXqX1.<XW.yX<XyX~.Q.Q.<X9XR.Q.GXR./.Q.Q.#XE.0X,X XoXg.uXg.yXOXoXd.@X@X0X#XQ.R.2XW..X%X0X%X.XrX.X.XtX9X0X0X9X3X1X,X9X@XyX8XOX5XuX6X+X1X|.$X X@XR.1.#X2X|.$X$X4X9X5XeXtX|.2XtX3XE.2X$X#X@X2X@X0XyXoXoX1X6XoX5X@X6X,X2XXXXX4X5X6X6X1XyX,X6X>X<X,XqX,X<X5X4X2X9XqX@XyX0X X,.0XeX@XyX@X@X4XeXqX6X@X2XuX9X X@X X.X0X6XoX1X@X@X X2X0XW.$X.X.X%X.XrX.X.XrX%X$X%X%X&XaXpX&X&X%XaXaX#X&X$X0X3X+XuX3X+X.X%XrXaX#XaX0X#X#X0X0XyXyX9X X2XW.wXR.<X6XXX4X5X<X3X|.1XoXeX+X.X+X3XU.s._ I.F _ F [ F G F $.#.F } Z L.#.%.` ` ` ' &.[ ' ] v.M.&.[ ' M.m.' &.' [ ] V.V.] n.C.2.v.n.v.v.] &.V.A.M.] ` ` $.' $.&.$.#.H H $.` ' H ' H ` &.G F F ` =.G _ Z ` #.F #.Z F F F F D A Z U A A U D R A A D D A L D A - L I 5 5 = 2 2 7 2 5 = 2 5 h < 1 5 1 5 1 & = % < & ; & < < . & & * < 5 < O * g 2 5 = p ; Y L ; i # u u . # @   w ; & = 7 = <.P.P.}.+X.X#X{.{.#X{.%X{.%X#XaX#X X$X$X{..X%X@X9X,X9X2XqX,X<X,XqX>X,X,X4X4X4XW.1.@X0XQ.2X,X X X Xf.XXXXyXW.qXQ.:.4XW. X4X5XXX1Xg.g.W.oX|.XX6Xf.W.XXW.#X4Xf.W. X Xf.2XW.,X X,X@X<Xf.,X<X>X4XW.Q.9XXXW.,X<XoX@XwXwXqXqXwX@XwXQ.@X#X#X@XwX#XwXaXaXaXQ.@X X,X,X2X2XXX@X9XyX@X X#X#X%XaXaX&X&X%XaX%XrX0X{.&XtXrXrX%X&X%X{.&X%XtXrX&X.X&XrX.XeX%X0XrX X3X.XrX{.$XtX.X+Xg.6X X5X$XeX$X5XyX$X$XeX X%XeX{.{.:X{.@X%X&X/.#XaX{.0X$X{.tX5X X5X1XoXoXOXOX6X@X X1X@XoXXXf.5XqX,XOX4Xk.qXXXqX",
"R.Q.wXQ.d.qXqXXXXX<X1.wX@X,Xg.wXuX!.qX,X4X4X,XXXa.k.yX<X<X,XW.XX,.@X9X<XE.uX@X9XqX@X2XR.4X2XeX1X@XQ.9X@X9XW.oX XyX2X3X3X0XrX%X$XeXrX#X#X0XrX@XwX0X$X1X1X2XyXuX6X6XqX4XW.XXoXOXoX1X6Xk.oX1XyXqX2XyXeX4X2XOX2X@X3X.XuX@X|.@X2XoX2X X#X#X XFX@XwX#X XqX X X5XyXyX,X5X<XOX6X<XyX@X$XqX%XyX@X9X@X4XqX2X2X XeX X<X2X4X,X1X2X<X5X,X,X2XXXoX X.X5XoXqX$Xf.uXoX X5X2X XeX3X X.X$X$X%X%X%X$X3X%X%X#XaX%XrX#X%X%X%X.X#X$X$X#X0X0X3X#XeX3X3X0X#XtX#XaXd.$X XQ.,X#XXX9XwX<XyX6XqX4X@X2XwXyX{.eX+X8X.XrXP.%X&X%.&.[ 7 %._ ` F %.F F _ ` ` _ ` ` ` &.$.&.` ] ' ' ] M.A.M.' ' M.' &.M.M.] M.v.V.] C.V.V.C.n.C.] &.] M.A.&.&.' ` ` ;.$.&.` #.#.` $.` ` ` $.F ` ;.G #.` F ` F #.G #.G F #.F _ F G D F F D Z G D A D D D D A D L V A A 2 I - = 7 I = 5 5 < 2 5 5 < , 5 , 5 l g , % = f < f < < f O ; O , % , O , , ; , > l 1 = i 5 h . > > p 8 8 0 8 9 @ : , , - = 5 <.P.OX.X+X%X$XaX X X&X%X.X&X%X&X.X$X%X.XR.#X2X#XXX9X#XXX4XyX>X9Xf.qXyX#XE.wXyXwX#X@XqXwX9X@XW.Q.1.2XQ.@Xd.qX Xd.qXW.|.oXd.oXf..X8XyXqX1X,X@X XE. X1.Q.W.W.0X X XE.<X#X,X@XXX9X>X<Xf.<XqX<XW.<XXXf.4X>XqX<X>XQ.wX,XyXQ.4X#X#X@X#X,XqX9X2X#X XwXyX#X#X<X4X9X<X<X4X4X4X@X$X3X2X0X%X&X X%X%X.XrXaX3X%X+X%X%XrX$X%XaX&X{.&X3X8X3X{.3Xg.rX%X.X%X%XrXeX$X.X{..XeX3X$X{.$X$X3XeX%X.X$X0X@XR.tXeX%X$X#XaX&X#X&X&X#X&X%X%X$XeX$XoX8XoXyXyX8XOXoXeXOXoX1X1X,X6X5X|.6X|.6XyXyX|.W.,XqX<XuX",
"~.~.qXwXQ.XXXXQ.9XqX#X,XqX0XW.@XQ.qXyX2X7Xd.W.4X X<XQ.Q.W.>X9X<XQ.wX2XQ.!.uX,XwX X@X.X@XoXeX2X$X0X#X0X@XqX@X4X4XyX$X#X X$X0X0X&X0X0X%X{.$X X#X0X2X$X5X6X,X9X6XoX5XuX4X5X4XqX,X5XqXqX,XXXk.<X7X7X,X1X@X#X.X0X@X9X|.5X3X5X|.1X1X X3XyX2XR.9X5XeX X1XuX2X<X4X4X9X4X,X6XGXyXqX2X@X$X@X#X0X#XqX4X9X2X4XyX3XwX2X#X#X4X2X<X2X#X4X@X7X4X1XwX9X2X2X@X5X@XR.4X@X#XqX9XXX9XeX+X+X$X%X3X3X3X$X0X0X3XaXaX#X%X.X.X@X$X.X$X%X#X.X%X%X$X.X%X0X0XaXQ.rX#X2XE.9X2X0XwXE.W.<XqX<X4X7X8XqX4X2X0X9X{.3X{.{.tX<.pX+X_ F.&.%._ #.G F %.U.%.` ` ` _ _ <.A.#.` ` &.] M.%.' ' ' M.M.] b.M.] M.] M.] v.] v.[ C.V.v.] ] V.] ] ] ] &.M.M.&.` ' &.$.&.$.#.$.$.&.$.` $.%.` ` &.G #.#._ ` F #.G } Z G #.Z F W } F S F U A D F Z A S D A Z A S - A A A A - 5 7 5 < 5 5 4 , 5 5 < < 5 ; = , < < = < , < < < % < ; = O < O < O w : : < * < < < 1 = h ; ; . @ # @ u 8 e u w O = = = * I -.P.1XP.{.g.R. X0X@X%X&X%X%XrX&X{.$X%X%X2X1X@X0X9X#XyX4XE.f.9X4XwXE.#XwX#XQ.#XwXqX@XE.wX@XW.@XQ.#XQ.XXR.f.4X<X,.oXW.5XOX|.6Xg.{.#X6X@XW.|.,X2X@X XwX0X#XwXR.9X X@XQ.4X0X@X4XQ.,X,X<XqX<XqXGX7X<XqX,X4X<X,X,XqXf.XX,XwXW.E.2XqX#X$XwX9X9X#X#XXXXX4X@XXX4X4X6XqX6X4X<X4X9X$X@X$X$XaX9XrX$XeX{.rX%X%X3X%XrX&X%X%X%X8X%X+X.X$X1X5X.XeX$X3X3X%X%XaX%X%XeX%X{.{.%X3XeX%X&X&X$X&X%X$X{.{.0X0X.X.X$X#XaX#X&XaXaX/.{.$X.X X$X6XtX6XoX@X$XoX6XeXoX1XoX2X@XXX1XoXyX5XyX|.9X>X,XQ.4XXXwX",
"qX<XQ.4XQ.Q.Q.W.<X,X,XQ.E.#XW.2X,X4XQ.~.yXQ.<X,X|.,XoX6X|.qX9X>XW.wX4XE.@XuX2X4X2X9X1XyX$X5XoX2X2X#XwX2XyX$X<XoX5X,X2X@X0X3X0X{.#X0XtX0X0X@X9XtX@XoXqX2X4XyXXX6X<X4XXX9X6X5XXXqX6X7XyX>XXX6X,X<X@X2X1X#X@X3X@X9XoXeX1X5XeX@X|.$X1X9X1X@XoX X6X6X2XuX6X@X1X1X4X1X>XOXqX1X4X@X@X@X0X9X2X#X1X2XyX2X@XyX9X@X2X.XoX4X1X6X5X4XyX5X5XeX4X,X5X2X1XW. X5XoX1X4XOX5X1XW.5X3X$X$X%X%X$X3X3X0X2X%X%X2X0X{.#XaX@X.X$X%X%X2X.X.X%X0X9X%X$X{.g.@X{.0X#X9X#XwX.XuXyXXX<XqXqX<X9XqX6X2X2X$X9X@X XuX#XeX|..XtX@.Z A._ G G ` Z G _ ;.` _ ` _ _ F ;.&.` #.` $.[ [ ` ' ] ' ] ' ] ' &.] &.' ' [ v.v.2.C.*XZ.C.V.] V.v.M.] ] ' &.] ] ` $.&.` $.#.] $.$.` ` H #.$.F F &.G W F F _ G W G ` F F *.G F F F F U F D D D F A D A S A A S A - 5 L A 5 < A 5 - 5 5 5 5 1 5 = = , , . = = . O < < < < < O < < < O O : O : O : : < > < ; ; < 2 * 2 ; r O ; # @ @ 8 w w O . . = 2 . 7 D 1.T.}..X.XR.{..XE..X&X%X&X%X&X.X$X#X X,X2XqXE.wX9X,XXX<XR.GX<X@XQ.0X2X#X#X@X#XwXQ.Q.Q.Q.wXwXQ.wX#Xd.<XXX4XXX>.GX4XoX{.1.|.|.oX@XoXoX,X@XXXwX,X X$XE.E.#X1.XXE.E.,.Q.Q.E.R.d.Q.<XXX>XW.4XqXf.,X4X>X,X<X4X>XqX,X#X,X9X2X,X,X,X$X4X1X2X2X@X@X X#XwX@XW.>X,X,X5X,X6X2XeXqX.X.XaX$XaXaXeX%XrX.XeX%X%X3X+X%X.X%X+X&XrX%X.X$X$XeX2X$XeX@X3XeX$X$X%X$X$X.X%X%X{.$X%X%X%X$X#X.X$X.XeX.X$X0X0X{.%X0X/.aXE.{. X%X/.{.%X%XP.tX6X3X$X+XoXOX+X1X5X+X$X{.$X1XoXoX4XyX1X6Xg.5X6X2X,XqX,X4X",
"GXqXE.<XQ.<X2XXX<XwXuXFX,XqX,.d.qX4XuXqX4XXX4X<X,XXXqX<X,.yXoX4XQ.0XqX#X9XwX@XwX#XR. X6X5X{.$XyX,X#X2X,X9X#XXXP.5X2XyX%XeX.X0X{.#XaX9X0X%X$X0XqX@X.XyX5XyXuXXX9X,X6XXXqX4X4XXX4X>X<XFX<X7XGXqX9XwXeX9X@X1X5X@X9XoXeXf.|.3X1XP.XX.X.X#X9X X XoX4X|.yX4XoX6XqXyX4X5X6X5XoX2X5X3X1X%X9X0X@XR. X1X9X$XtX9X1X9X2X6X5X6X1X,XoX4X,X5XyX5X6XeX,XXX@X6XuXoX|.9XXX@X|.g.2X+X.XoX$X3X$XeX3XaX0X.X&X%XrX%X#XeX%X2X3X2X0X3X.X$X@X.X.X.X$X9XtXaX X0X0X0X#X4X#X0XwX@X9X4XqX,X2XGX6X2XqX9XiX%X$X3X%X%X+X8XU._ P.%.G G G H _ #.G F F #.#.` ` ` %.&.` &.%.&.' ` [ ] ] ] ' [ ] b.' M.v.M.v.M.V.Z.Z.Z.(.C.V.Z.V.Z.n.] ] V.V.&.] &.' &.&.' N.$.' $.$.&.$.$.$.$.#.$.;.` #.#.#.#.H #.U F F _ $.D U F D S D F U S U U A P D D L A D L C A Z - h 5 5 5 5 5 5 , < = < < = < , & , f . = , < . < . % , % , O O : ; ; O : ; ; : i ; = < 2 * 1 1 L ; > u w + # @ O o O . . & = = - I s.P.U.1X.XR.{.R.aX%XaXaXaX%XrX0X$X X2XyX#X X2X,X2XXXXXqXyXf.4XyXwXE.0X9XwXW.wXwXuXW.R.uX#XE.qX#Xf.>X9XXXR.k.6XXX,.R.,X8X$X2XoX{. X<X@Xd.E..X2X2XW.#XyXQ.Q.#X4X X@X X,X2X>X,X4X4X4X7XqX<XW.qX7XqX4XwX<XR.#XqX<X>X@XwX9XQ.W.,X9X<XoX,X,X9X4XQ.1X2X<X,X,X<X4XXX,X5X5X5X#X$X0X#XaX$X%X0XiX%XrX%X3XrX%X3X+XrX%X{.:X$X&X0X2XyX X$XrX X3X8X%XrX.X$X&X.XeXrX&X%X$X.X%X$X$X%X0X.X3X@X%X2X%X.X0XrXR.0X%X%X/.aX.X&XtX.X.XtX6X$X6XyX1X5XGXyX$X|.5XeX,.XX4X6XeX5X XOXoX1X,XoX4XqXqX9X",
"~.<X!.<XXXXX>XXX9XR.Q.<X<XFX2X@XwX<XuXqXQ.d.#X,XW.W.qXqXf.9XW.Q.@XwX9X#XqX@XwXuX@X X9X2XuX|.yXuX%X@X,X$X5XoX6X1X5X3X5XoX1X{.8X{.aX0X#X0X{.%X$X%X$X X9X6XqXuXOX5X<X5X7X6X5X4X>X4X6X>XyXW.,XyXeXyX5X9X9X#X1X2X$X9X X6X$X$Xg.1X5X|.4X5X1X5X1XuX5X|.g.5X,X6XqX6XqX5XoX6X6X5X@X$Xg.g.#X0X0XyX@X$X2XyX0X9X@X9X@XqX3X#X2X1X9X2XeX@X@X2XoX2XyX XR.eX9X9X@X|.tX2X9X2XXX5X3X6X3X3X3X.X%X.X%X2X%X3X%XtXaX0X9X3X3X2X1X1X3X$X0X3X9XeX5X1X$X$XaX#XaXaX#X.XeXeX X@X#X2X2X4X,X,XeXoXoX1X1XeX.XoXiX6X8X8X5X7 <.` G G ` F G ` #.U ` ` &.#.H #.` &.A.` ` ` ] ' ] ' [ ] ] ] ] ] M.M.] ] ] v.V.n.Z.D.V.(.Z.n.Z.n.Z.Z.] [ n.] ] [ ] ] ] ] [ ] ' ' ' ` %.$.#.` ` ` ` #.F H F F U G F F #.F F } G F } F F S D D A F U D F A D D S L D A D - - A 5 - - 5 5 5 5 - = 2 4 - 5 1 = 4 j < < , , & < . = < % , % : : : ; : ; O O ; i ; > 1 2 . L h h * ; , > ; O % : O O #   . = = = 7 } s.P.+X{.{.$X+X%X{.&X%XrX&X%X%X0X%XwX1X@X#X9X<X4X@XXX>X>XE.4X9X#XW.0XQ.#X@XqX<X<XQ.W.,Xf.W.W.Q.1XR.Q.W.,X4XQ.,X@X6Xk.{.$XoX X@X@XoX#X#XW.XX#XW.E.#X0X#Xf.@X4XXXXXf.XX4XW.k.f.<XQ.<X<XOXR.XXd.,X,XqXqX7X,X<X>X4X4X,X,X,X4X@X4X@X,X9X5X4X,XE.XX,X2X4X4X4X4X,X5X5X2X1X@X9X0X$XrX0XrXrXrX#X3X.X$X%X%X%X&X3X8X{.%X+X$XtX3XeX|.3X0X XrX3X$X%X&X$X%XrXeX.XE.rX$X.X%X.X%X%XtX%X.X{..X.X{.3X0XaX#XaX0X0X1.aX%X{.3X1.%X%X5XeXeXyX1X{.$XOXoXOX$X.X X9X$XW.oXOXoX5X7XoX1XW.qX,XqX4X",
"qXwXXX4XqX7X<X<XFX<XqX9XqXqX9XQ.qXuX$XwXuX4XqXuXuXqXR.|.E.Q.yX2X,XQ.@X@XqX2X0X9XR.2X9X$X2XR.3X.X@X$X2X9X5X6X1X1XqX6X$X$XrX$XeX{.@X0X XrX$XyX.X@X@X X5X,X6XyX,XqX6X5X4XXX4X2X,X>X4X@X,Xf.XX4X<X,XyX5XeX$X$X,X$X@XoX3X5XtX$X$X5XeX9X4X6XqX5XyX,X1X9X5Xk.4XuX,X XT.qX4X7XyXqXyX.X|.9X2X$X9XwXuX9XuX2X$X{.9XoXeX3XoX1X$X5X9XyX6X6X4X2X@X@X1X@X1XoX2X$X X.XR.#X$X|.$X{.|.%X8XtX$XuXtX@X3X%X0X0XrX#XaX3X2X5X3X1X3X5X1X9X2X$X|.@X1XyXtX$X#X#X0X2X0X0X$XqX2X@X,X5XqX4X1X9X2X9XeX3X9X0XeX3X$XP.6X_ P.<.} G F G F F F H ` #.U #.#.#.H H $.A._ ' ' %.[ ` [ ' ] M.v.v.v.M.V.v.n.Z.n.Z.D.(.(.v.(.`.Z.Z.C.Z.(.G.V.V.2.C.v.V.n.V.S.&.V.&.M.M.] ] &.' ' $.#.$.;.$.#.$.#.#.W #.U W F D F S } U Z U U U S A A P A D A D A A A D 5 A 5 5 5 7 7 7 5 < , 2 4 5 5 < < 5 1 ; , g , , g g , < < ; < % < ; , : > ; u : @ : . > . h l 5 . h 1 1 ; > > ; * O : : w o o % : % < = 7 I -.s.+X.X{.$X1.{.{.&X&X%X{.%X$X9X,X3XXXuX#X0X,XXX6X9XR.XX,XXXXX0XwX@XE.wX<X,XE.@XwXQ.E.Q.,XW.9X,X X@Xd.,X<Xf.,.6XuX3X0XP.oX$X@XXXXX,X2X9X,X X XQ.@X@XQ.,X2X,XXX<X X<X4X<XXXR.4XQ.Q.>X,XqX<XQ.>XQ.XXW.k.4XXX<X5XwX>X,X9XwX4X6X@X<X9X4X<XXXXX2X@XoX4X6X,X5X4X9X4X1X1X$XeXaX@XtXrXrXrXeX&XpXrX3XrXeXtX3XrX%X}.:X%X$X3X2X0X$X0X0X$XtX3X.X{.eX3X3X&X$X&X.XrX&X{.3X&X0X%X%X{.$X$X$X%X{.rX3XeX&X&X#X%X{.0X%X/.$X{.iX$X6X5X6XoXyXT.|..XeXtX%Xg.tXyX X X|.oX1X8X6XoX5X|.5XW.4X4X",
"<XQ.Q.f.<X,XXX!.GX<XqXXXk. XqX@XwXtX,X,XwX#X@XwXyXtXXX@XyXXXyXW.uXwXwXqX9X,X,XR. X4X5X9XeX@XyX3X$X$X1X9X5X6X1XoX6X6XoXeXtX1XeX@XE.$X#X9X0X9X X@XoXoX5X6X6X8X5X5X6XqX7X6X5XqX,X6X4X4X2X2X,X5X,X,XyX@X9X2X$X$X$X|.{.6X$XrX3XOXOXtX6X1X2X4X6XXXR.yXGXuXOX6XGX5X,X|.uX,XXX@X5X9X1X2XrX.X$X#X#XtX@XeX2X9X@XeX9XeX9XeX2X@X.X X2XXX6XyXtX2X XeX0X@X@X9X9XyX2XoX@X2X@X5X5X8X3X5XrX{.eX+X.X%X0X0XaX0X#X$X5X2X5X5X6X5XeX5X5X4XqX1X5X,X,X X1X.X@XrX3XeX$X XtX1X2X#X5X,X0X<XwX$X2X3X%X$XrX8X6X8X8X%._ U._ _ #.F G _ #.#.H H F F #.#.#.#.H ` A.` &.&.V.] [ ] v.2.v.v.v.] ] V.] ] n.v.Z.n.Z.Z.n.(.'.Z.(.Z.D.(.(.V.n.v.Z.] V.] V.C.] ] [ ] ] [ [ ' ' ` ' ` ` &.$.` $.#.#.H H #._ W F F F U A Z U P U U L A L A A Z D A A 7 D A 5 I A D 5 h 5 5 2 - 5 2 5 1 < = , 5 = = 1 g g 1 l g < < < O < O ; : ; > O r ; @ > . , . f h h * , * 1 1 p 2 * ; * O % : % + 0 t % . & & - D X.P.1X{.{.1.&X&X%X&X%X&XrX0XtX@X9X<XwX4X<XE.4X4X<X4X,X,XQ.@X0X#X#XW.uX<XQ.wXwXqX@X X9XXXXX<XQ.@XyXf.>XqX4Xk.6X5X|.OXf.@X1X XR.@X,XQ.E.f.R.@XqX<XE.E.<X<XXX>X5XXX>XXX9X<X>X4X>Xf.>X<X<X<X7X9X<X7XQ.,X4XQ.4XXX,X>X>X4X<X<X4X<X<X6X,X6X,X@X4X,X@X4X<XXX9X4X9X2X2X9X3X3X0X XrX0X9XeXeX0X3X%X+X$X.X3X+X&X&X%X3X:X%X%X0XeX@X0XeX3XrXoX.X+XrXrX%X{.{.rXaX%X{..XrX.XtX%X$X/.eX%XeX%X%X0X%X0X.X$X&X$XaX0X+X$X3X%XuX$X$X+X1XoX6XoX6X$X6XOX{.@X|.@X{.eXyXeX6XoX1X6X5X6X@X#X9XqX",
"E.>XGXR.<X5X<Xk.qXyXqXqXQ.qXGXW.uXQ.9XwX@XyX0XqXyXwX9X1XFX X@Xf.uXqXqX0X#XwXuX,X9X2X2X5XtXg.5X3X9X$X X@X1X7X8XyX6X8X6XyX5X.XtXtX&XyX0X$X@X#X@XuXoX,X9X4XXX1X7X,X>X4XXX4X7XqXXX,X@X4X,X5X,X1X6X5X%XE.3X1X@X2X3XR..X3X5X1XP.5XtX.X1X0XeX,X1X6XR.1Xk.5XOXOXoX>XqX4XyX1X9X6X5X@X2XiXwX.XtX@X%XFX2XeX%XyX0X%X9X X#X9X1X$XqXyXuX2X@X6X2XyXoXoXR.2XeX1Xg.9X1X2X@XoX{.@X.X.XoX$X0XP.tX3X%X0X0X0X@X9X@XaX5X4X5X5X6X5XqX6X5X4X8X1X8X6X4X6X#XaXyXuX X#X3XtX,X#X9X1XeX,XuXyX9X0X@X$XeX3XtX6X<.eX8X-.s.%.} Z Z ` H F W F G #.H H $.H #.$.$.` S.F ` [ &.V.] &.V.] ] ] v.M.v.V.Z.C.Z.n.(.'.).`.`.-X(.(.fX-X(.(._.'.(.'.(.Z.(.'.n.Z.V.n.n.D.Z.V.v.M.V.M.] ] ' ] ] ` $.` $.H ` ` ` ` S G G #.U F D S U U A D A A A A D I A A A A 5 A 5 I 5 5 7 5 7 < = , 7 < 1 , < 5 ; < h l g , h j * , < * < . . : ; u O i ; ; ; . i . ; * 1 1 1 * 2 1 5 ; < g < & . O w 9 + o +   O < 1 6 U U.P.1.{.$X:X{.{.&XaX%XtX0XqX#X4X,X#XE.0XwX<X<X5X4XXX X<X9XQ.E.eX@X#XQ.wXqXQ.Q.E.~.qXE.Q.1.2XE.1X,XqXqXE.9X@XR.d.eX2X@X.X,X9X9X<X#X2XqXwXQ.@XXXE.<X,X>XXX4XyX>X,XQ.XXXX,X<X5XXX4XwXQ.Q.4X<X,X,XXX4XHXQ.qXQ.<X>X>XqX6X#X4X6X4X4X,X1XqXXX@X<X5X9X,XoX4X1X2X$X9XtX2X$X3X{.rX9XrX9X0X%X5XrX3X%X+XrX3X3X.X&X+X3X1X3XyXyX{.1XeX3X$X{.%XtX$X.XeX%X%X%X$X%X.X%XtX.XpX%X%X.X3X{.%X%X%X.X&X%X{.%X&XR.%X{.1.rXrX%Xg.{.6X8XyXuXtX@X1X+XtXeX+X3XeX0XR.9X|. X|.P.$X2X1X6XQ.qXqXqX",
"qXqX>XXX5X>X<Xd.<XQ.,XqX>XqXHX<XqXyXyXqXQ.R./.Q.9Xd.@X5X9X9X#X9XwX9XwX9XwXuXuXwXFX2X9X#X5X1.eX X5X3X X5X@X5XuX7XyX5X5XeXP.yX0X0X X@X9X$XtX.X0X3Xf.uXyXk.$X@X6XOXyX>Xk.GX7X5XW.6X@X9X#X#X$XwX#X%X1X2X@X3X5X X.X+X X.X{.$X.X$X$XoX|.6XoX6X>XXXoXeX@X@X5XyX5XOX,XyXoXoX1X5X.XeX5X X6X0X2X3X0XtX$XeX%X0X{.0X3X%X0X0X@X2X3X$X1XoXR.$X$XtX@XoXGXeXyX6X1X XuX@X5XoX{.5X$X1X5X8X3X$XpX5X%XaX$X@XaXuX#X0X5X3X5X5X5XeXqX@X1X@X1X2XeXyXeX5X1X$X1X0X9X0X9XtX1XoX@X5XqXyX8X,X2XeX2X9XDX$XrX3X8X8Xs.-.U.F } F F H F F H F H #.` H H $.$.$.#.H M.] &.] ] [ V.V.C.2.[ [ V.C.D.D.(.;X'.-X_.'.(._.`.-Xn.[.-X-X_.'.(.-X_.-XhX-X_.(.(.(.Z.'.(.'.Z.(.Z.Z.D.Z.S.V.C.C.V.A.] &.&.' &.H ` ` F F F F F F F D P U U U D S A A Z A A A A 7 5 A A A I 5 D 7 2 5 2 1 < 2 5 * h = < , h l 2 < g , < * O < < ; < : . r . i ; ; u ; > . . < * ; h < * = 2 ; 3 h ; & . o o % 8 + + + O . . 5 - U -.oX+X%X%X1.F.%XaXrX%X@X%XQ.yX#X@Xf.2X<X,XXXXXf.9X<XXX X2X#X@XR.<X<X4X^.E.,XGX>Xd.XXf.XXqXf. X@XqXQ.,X,XR.2X4X3X.X X$XwX XW.,X4X,XQ.g.,XXXW.,X<X,XXX<XqXXXW.Q.4XqXa.>XW.,X4X<X>X6XQ.>X4Xf.Q.qXqX<X4X5X7X<XqX5X>X>XqX4X4X,X4X,X4X@XXX4X@X#XwX@X#XtXeX X9X3XyX$X5X0X@X%XeXtXtX3X3X3X3XtXrXeX3X8X%X}.aX%X3X%X%XeX.X3X0XiX9X1X%XtXrX%X.X&X%X3X%X.X{.%X%X%X%X%XpXrX1.3X{..X%X{.%X{.%X$XpX$XeX%X{.#X%X{.&X@XrXtX%X+X|.1.5X9XtXoX$X{.$X XtXR.{.3X3XoXeX8XyX6X6X@X9XuXR.",
"Q.>XXX<X7XyXFX!.GXqXXXQ.7XqXGXwXQ.IX<X0XuXwXrXwX4X2X2XwXyXqX2XqXqXqXqX0X#XyX9X#X3XwX2X$XoX4XuXeX.Xg.oXqX6XeX6XyXqX6X6XGX>X6XoX5X%X2X%X.X3X X1XyXoX5X6XoX4X4XyX6XyX>XOX7X>XqXoX4XwXwXaXwXyX0XaXwX9XeX$X@X$X.X$X1X3X5X$XeX8X5X$X+X{.4X9XeX$XP.oX5XGX5X1X7X6X6X7X5X4X1X$X2XoX5X5XoX5X9X2X$X@X0X$XrX%X9X%XtXtX0X#X{.$XeXeX0XeX3X2XeX5X2X$XyXeXg. X{.@X$X2X$XeX1XoX9X+X1X8X1X3XoX3XoX.X@X.X.X@XpX@XaX5X6X5X5X6X5X8X@X1X1X1X6X6X6X6X1X$X9X9X1X2XyXyX4XyXoXoX8XyX6XoXs.qX0XE.0X0X{.$XrX8X+X<.;.%.Z F F F W ` W W ` H ` ` H H ' ' ` ' $.A.' ] V.C.2.V.Z.Z.Z.Z.(.-X*X-X=X_._._._._._.`.`.`.-X'._.-X-XhXlX(.).-X(.-X(._._.'.(.(.Z.(.(.Z.'.G.(.(.G.`.D.D.D.V.D.C.S.A.V.V.` #.` ` ` ` G G F G F S A A P P A Z D A D D S D 5 Z 7 5 5 A 5 5 1 5 h 5 5 < 7 1 = h < 1 , i g < , g g < < . = ; O < <   > # p @ # y O u : > > . . , , < * < 3 ; 1 < O . O % 9 q q 9   9 :   2 2 A D g.P.P.+X.X}.{.%XaX%X%X0X#XwXE.@X4X@Xd.XXW.Q.yX,X<X,X#X,X XwX<X<XQ.<XqX~.Q.>Xf.XXqXXX2XyXf.XXXXQ.f.qXXX,X,XeX@X@X@X@X XW.wXyX<X@X,X9XwX#X XXX#X<X,XXXXXW.>X>X6X,Xf.4X<X7X<X6XwX,X>X<XqX<X4X7X<X>X<XqX7X<X7X4XQ.XX4X6X4X6X5X6X4X5X@X9X2X$XqX2X$X4XyX3XyXoX6XoXtXiX3X2XeXeXrX3XrX%X+X3X$X%X.X%X$XaX8X3X&X+XeXyX$X0XoX0X3X8X%X$X+X%X$X%XaXtX%X&X{..X+X%X@X X%XaX1.pX$XrX3X.X%X}.%X{.%X.X%X3X{.{.P.{.$X{.{.g.E.1X$XP.5X1XOXg.g..X5X2X2XOX3XeX6X8XyXf.OX1XoXXX4XqX,X",
"XX6XQ.XX9X>X>Xf.qXqXk.Q.7X^.>XwX1.GXQ.Q.uX@XuXwX,XyX,X@XqX4X@X@XwXqXqXqX#X0XwXQ.1X9XeX3X@XeX3X1X3X3X$XeX6XoXP.<XqX6X,XuX5X4XoX0X X#X X X1X Xf.6XuX5XqXqXqX5XGX6XyX7X6X7X>XyX<X4X2X@X#X%XyX#X#XaX$X2X.X#X$X$X1X%X$X$X|.+X%X3X{.OXoX6X3XeX5X6X5X1X8XoXoX6X6X5XyX8XeX3X$X2X6XeX4X6XeX9X3X$X@X%X$XyXaXrX$X0X0XrX$X.X.X5X$X2X0X@X$X5X3XOX$X5X$XOXtX{.3XtX1X$X3X|.g.2X+X$X6X6XeX5XtXrX0X9XaXaX0X0X X@X3X2X2X2X1X3X6X,X$X6X5X3X2X2X3X5XqX9X4X9XqX9X4X4XyX1X1XqX4X7XeXyXyX9XW.rXeX8X6X8X+XL.;.L.Z F _ F #.W #.#.#.H H ` ` ` ` ` ` ' ' ' V.[ ] v.V.V.Z.V.n.H.(.(.:X-X-XhX-X(.hX_.-XSX_.(._.lX_._.-X_.-X-X[.fXkX_.-X_.-X:X)._.-X`.`.(._.(.(.(.).(.(.(.(.(.Z.D.Z.G.D.Z.C.2.] &.] ' ` ` F F S H F G S F S S V D D P D A A A 5 5 5 5 A 2 A 2 L L h 5 2 2 5 = h 5 h 1 i g 1 g , f , < ; ; : ; ; ; ; u # > @ ; p u ; * ; < * O < h h ; ; > 3 ; < = % o @ 8 0 w 8 # @ O * , . 6 7 -.g.{.6X%X$X&X&X0XaX2X#XW.wXQ.4Xd.4X9Xf.Q.9XQ.#X4XwX@X2X#XaX@XyX<XqXGXwX<XwXqXqXqX#X<X4XR.4X2XQ.W.qX<X4X,X5XR.0X$X X X#X0X2X@X@X XyXW.@XwX@XW. XoXXXOXQ.9X4X4XQ.,XqX4X4X,X,X4XQ.Q.W.<X,X<X,X,XQ.>X4XqX<X4X4X,X,X4X4X9X4X9X,X,X4XXX4X<X,XyX1X2XeXyX1XeX3XeX1XeXFX%X2XeXrX3X1XeX3X3X3X$X0X+X6X8X%X&X$X&X+XtX0X.XeXR.3X%XeX3X{..XrX%XeX$XtX&X.X.X%X%X3X&X.X$X%X{.rX.XaX%X$X+X.X0X{.rXeXeX3X{.3XrX.XpX%X%X$X3XFXeX8XyX|.{.rX6XrX$XeX|.$XtXeX+X1X+X@X+X1X X5XqX9XXX",
",XwX>Xf.qXf.Q.Q.HXqXXXqXqXGX<XIXwXyXFXwXwX#XwX,.,XyX,X,X2X9X,X<X9XwX9XqX@XwXyX$X4X#XyX@XyX9X0XyX0XFX XeXtX5XGXqX4X,X,X4X6XqX2XqX@X$X.X9X9X1XW.5XqXOXoX6X6X>X5X>XqX7X7X7X>X5X6X4X4X$XwX@X0X%X#XwX#X$X{.%X5X3X%X$X5XrX$X+X5XeX%XtXoX XOX@X$X2XyX$XOX,X5X5X6X4XyX6X5X1XoX3X5X0X$X,XeX5X0X0X0XeX3XeXaX0X#X%X@X0X%X%X2XtX$X3XeX@X3X%X9X3XeX.X X0XFX|.oXeX2X@X3X|.{.eX1X$X+X1X6X$XeXoX{.@X#X#X0X0X#XaX5X3X3X1X@X$X6XoX$X2X5X0X5X5XeXyX9X4X<XqXqX4X5XqX>X1XyXuX5X,X1X@X@X0X2X9XyXeX+X+X<.%.%.%.Z -.#.F #.W F ` H ` H ` ' [ ' ] ' ' ' v.S.D.*XD.'.*X-X(.-X:X-X(.-X-X-XkX_.(.-X_._.kX_.`.[.-X_.'.kX-XcXkX[.:X-X_.-X_._._.fX(._._.).(.-X_.`.).(.`.H.`.(.H.G.(.(.(.G.D.G.D.S.F.V.&.&.] ] $.H G F #.#.F S F S U A A Z V A 5 D A A 5 A 7 A 2 5 A 2 h 5 5 l < 1 < < * < < < , < < < < ; < < < ; : > , . O ; w u p r . O f , ; O r 1 < < , < < , % O   # + e w @ @ #   , <   5 = D -.T.+X{.P.&X%XrX0X%XW.E.4X,XXX@X1XXXyX2Xk.W.2X9X0XwX@X#X#XE.qX~.7X<XQ.<X<X4XwX,XXX<X,XW.qX4X4X<X9X<X2X5X1XE.9X1X#X#X2XQ.Q.@XwX X2XR.$XyXwXQ.W.<X,X<XXX4X4X4X,XqXXX>X<X>XXXQ.<X6XXX,X<X7X,X4XXXQ.<X4X4X<X4X4X4X4X4X4X4X4XoX@X,X X,X1X$X9X$X$XeX0X.X5XeXtX6X1XeX@X5XtX3X$X%XeX$X$X+X+X%X$X$X8X8X&X3X3XeXtX5X3XtXOXtX3X0X3X{.3X0X0X%X{.eX{..X3XiX3X3XeX%X%X0X%X%X{.%X&X$X%X%XrX{.+X{.{.{.P.$X%X{.eX{.$X3X1XtXg.1XyX|.8XiX.X$X.X9X{.$XyXeX|.6XoX8X.X$Xk.uXGXeX9X",
">X7X<X>XW.<XGX,X7X,X~.>X^.IXwXqX,XQ.FXwXqX9XqX<XGXyXGXqX<XGX,X2XyX0XwX,X#X2XyX9XuX#X2XE.2X.X.X$X X9Xd.2X9X4XyX4XqX<X>X2X4X9X1XwX9X0X1X9X0X9XXXuX5X,X1X4X7X7XGXqX>X>X7XqX>X6X$XwX4X9X0X%XaX0X#XaXeX3X{.3XeX3X$X%X3X%X+X{.oX$XP.8X%X1X3X%X.X+X0X1X.X6XtX5XOXoX1X.X3X%XOX2X6X8XoX@XeX3XeX8XeXtXeXeX#XaX%X%X%XrX$X$XrXiX$XeXtX3X0X$X3X1X3X$XoX{.6X5X1X3XtX|.tX1X{.8XeX5X8X5XeX5XtX3X0XeX3X$X0X$X X#X0X3X2X2X$X1X2X$X3X3X3X3X3X2X3X5X,X7XqX4X4XqXyXqX6X>X>X>X6X7XyXqX<X4X2X@X8X+X6XU.<.%.;._ F &.U G U H } ` ` ` ` ' [ [ ] ] V.V.C.V.D.C.(.(.*X(.(.-X-X-X_.'._.:X:X-XhXkXkXhX:XlXfX_.MXMX-X[.hX-XkX:X].fX_.[.-X`.fX-X_._.[.(.-X_.-X).`._.).`.H.(.).(.Z.Z.Z.Z.Z.Z.Z.Z.C.V.V.] ] ] ' ' ' H H #.#.G S F P W S A A A D A D L L L I 5 A 2 1 5 2 5 1 5 L 2 L 5 1 , 1 h i g < < ; = < r < > r : ; : ; > ; ; # ; ; ; O O O . . . # O ; < ; : > % :   O O s s w # # O % % & % & - } P.+XU.P.oXaXeX&X#XQ.#X<XQ.qX|.<XXX,X4X9X<X2XwX2X2X%X#X#XQ.qX>XwXwXqXHXwX>X,XXX>XqX4XXX9XXX<XXXqX#XyXXX9X#X#XwX2X X@XwXwXXX2X@XE.@XQ. X@X#X@X2XXX#XXXXXoX9XQ.qXQ.R.<X<X>XW.<XqX<X7X4X4XXX<X,X@X<X2X@XXX,X<X,X,X@X@XwX$X@X$X1XoX6X4X$XyX$X%X$X3X$X0X3X5X+X3XeX3XeX0X$X3X0XtX3X$X+X+X$X%X%X8X+X{.&X%X$X%X X@XtX$XtX#X%XeX+X3XaXaX%X{.$XF. X0XtX$X%XtX%X&X%XrXaX$XrX%X%X&XeXeX8X$X{.+X8X3X6X{.$XrX.X%X3X%X3XP.8XyXg.eXeXP.{.$XoX{..X.X1X+X$X6XeX+X6X{.5X4X4XtX",
",XqXOXyXk.4XqX7XqXk.qXwXHXHX7XqX@XwXGX4XGX<XXX@X4XQ.4XqX1XGX5XGXqXwX9XwXwX4XwX<XwX$X$X4XyXFXuXuX0X%X0XuXuXqX<XqXqX6X<XqXyXwX X2XwX%X9XeX3X5X|.5X6X5X>XOX6X,X5X6X,X>XyXHX4X4X,X,X#X1X2X#X XwX/.%X%X2X{.eXeXeX$X$X8X$X8X.X8X%X.X3X%XrX1XeX$X%X3X1XeXuXtX3X3XeXtXeXeX3X+X3X5XqX8X5XyX1X5X5XrXrXrX3X@X%X3XrX3XtX$XeX3XrX.X$XeX%X$X+X$XoX$X%XeX+X$XeXeX1X8X{.tX3XP.,XoXoXoX+X1X1XeX1X3X3X$X2XtX9XrXyX3X%X0X%X$X$X3X$X0X0X2X3X3X3X3X2X<XwXqXqX4X<X7X5X4X7XyXyX7X5X7XOXyX4X2X$XyXOX+X+X&.` %.G ` F F #.` W #.` ` ` H [ &.] M.V.Z.G.D.D.-XZ.*X*X-XhX-X-X[.-X-X-XfXlXlX-X-X-X-XlXhX-XkX[.(.-X[.-X-XlXkXlX:XlXfX_.zX`.kXfX`.hX[.'.hXfX_.).).sX-X).`.).-X-X`.`._.).(.).(.*X(.G.S.C.C.V.V.M.&.&.' H H H H S S F S P D A D A A A A A I 2 L Z A A 5 5 5 5 L 1 h < ; = < 1 < ; > < = ; < < : * , < > u ; ; w ; p i i j p O % : % O . % < O O : : @ r O : # u i : > O   r % X % = * 6 -.U.6X+X+X3X0X$X.XW.<X#XXX,XW.4X>X>X<XqX4X#XwX#X2XR.Q.aXyX4X~.7XqXwX7X7XqX<X<X4X9X2XXX9X,XW.qXQ.FXW.4X X9X2X@X.X X@XwX0X#X@X@X/.0X#XQ.#X X#X@XE.@X4X<X XwXQ.9X>XQ.qX4X4X<XXX<X#X<X,X7XXX7XwX4XwX5X<X$X4X9X2X<X1X,X9X2X2XwX5X1X4XyX@XtX$X0X@X0X3X0X3X3X6X5XeX9XeX%X8XtX3X3XtXeX$X$X.X3X5X%XrX&X%X8X3X$X3XtXtX9XtX{.$XtX3X3XrXeX0X.X%X{..X%XaX$XaXrX.X{..X3XaX%XrX%X&X$XeX%X3X.X{.%X3XrX8X{..X&X.X$X+X.X1X@XeX1Xg.1X0X X%X0X3X5XiXyXuXeX+X+XeX1X5XOX1X@X1X<X",
"oX,Xd.yX,X>XQ.qX<XQ.HXGXGX!.wXHXQ.4XqX7XGX<XqXuXyXyXqXqX>X5XW.W.qX9XqX0XyX,X X#X1X1XR.uXoXeX#X X0X#X@XyXqXuX6XqXqXwXwXqXqXwXXXwX2X.XyXyX6X0X@X5X9XuX4XXXyX6X6X7X,X7XyX7X7XqXwX.XW. X0X#XaXaXE.$XE.$X.XtX3XeX$X#X3X.X$X.X8XrX$X3X.X%XP.3X.XeX+X$X.X$X.XP.6XeXeX8XrX5X1XyX5XyXyX5XyX$XeX3X0XeXrX3X%X%XeX%X%XrX%XtX1X%X.X$XeX3X$X$X5X8XeX$X8XeXeXoX$X|.$XP.eX3X@X2X1X8X8X8X5X+X5X+X3X0X@X$X9X$X$X#X2X%X0X2X$X%X3X%X0X%X2X3X0X0X9X9XyXqXqXHXqX<X<XqX>X<X7X6X>X5XGXGX9X,X,X1X8X+X<.<.%._ F ` #.F F #.W } } F F ` [ [ C.D.D.(.(.(.(.(.hX(.dX=X-X:XgXfX_._.:XhX-X:XfX(.fXfX_.hXlXlXSXlX`.:XfXzX-X-X-XlX-XfXcX`.lX`.-X`._.lXfX`.fX_._._.).sXsX_.`.).-X=X(.H.).(.(.).(.`.Z.Z.n.n.n.v.v.] M.M.&.` J ` H H S U D P F P D 5 5 A A A L 5 P A L L 5 L h 1 A < 5 2 < < 1 i < , < < < < : < ; ; ; ; r r ; ; : > ; ; O ; ;   o O r e : : : O o : $ o w o : . ; s O j O   d %   % . . - 7 @.U.+X.X&X%X2XaXE.Q.>X<Xf.Q.4X,X4X4X>X,X~.2XQ.aX#XR.@XuX<XwX7X7X7X>XqXGX4X<X4X<X,XXXqXqXXX<XyXQ.qXf.9X.X9X#X#X2X@XQ.<X#X2X2X@XwX2XaXwX@XW. X X4XyX9X@X9XQ.,X7X,XqX>X4XqX>X<X#X>X,XqX4XqX<X,X2XwX4XwXwX2X2X1X2X,X9XwX2X0X5X1X4XeX@XyX@X0XrXrX3X3XeX5XeXeX3X0X2X%XtXiX1X%XrX3X$X$X{.3X8X.X8X&X%X%X$X$X0X5X3XyXtX X3XrX$X$XrX3X%X%X3X$X%X&XeX%X3X%X{.{..X.X&X%X%X%X}.&X%XaX%X+X3X3X$X3XrX3X{.{.%X%X3X3X2X3X|..X$X3X#Xg.3XrX.X$XeXeX3X$XP.g.3X.XoX1X3X5XyX4X",
"yXf.,XqX>Xf.qXXXQ.qXwX<XqX4XGX4XQ.R.9X<X,XwXGXqX,XGX7XqX4XGX<XwXuXyXwX#XqX$X@XwXGX9Xg.FXoX#X#X#XiX0XW.2X4XqXqX,X,XqXqX#X<X4X@XqX,XE.2X@Xf.1X6X5X@XqX XT.FX7X6XFXQ.>X7X>X>XuXyX@XR.f.0X#XuX0XR.0X{.rX%XeX+X0X%X$XtX{.$X.X3XeX3X3X.XrX.XtX#X%X.XtXOXrX3XoXtXtX6X6X3X$X3XtX8XyXyX6X8XoXtX5XeX3X0X%XaXaXaXrX%X0X{.3X$X$X%X$XeX3X.X3X5X3XtX1X1XeXuXrXoX5X%X1X1X.XoX$Xf.oX5X5X5X$X5X$X@X%X.X@XuX%XaX%X%X%X%X0X%X2X9X%X0X%X0X3X3X3X0XwX7XqXHXwXqXqXHXqXGX7X<XqX7XqX5X7X4XwX1X6X7X5X1.#.%._ F #.#.#.#.G H F G G [ %.V.D.Z.'.*X(.*X*X*X-X:XG.-X-X-X-X_.cX-X-XlXMX[.kXMXfXNXzX:XlXfXhXlX`.lXMX-XcX).cXkXVX[.-XcX_.lXhX[._.cX`.-X_._.`.-X[.`.-XdX).G.`._.).(.Z.).(.(.(.Z.(.H.Z.Z.Z.Z.D.V.V.M.M.v.$.] $.$.` W W S S P F U A A A A A A C L 5 L L 5 L 5 2 1 < 5 < < 1 1 5 < 5 < 3 < ; ; < < ; > ; ; ; w > > O   > : : , r d . o : % o O o ; y % # u ; u   O > o : %   $ o % X & . = 2 D s.+X8XR.&X%X0X%X0X#XQ.4XXX4XoX>X>X1XXXaX2XW.wXaX#XW.$X7XqX>X~.<X7XqXW.<X<XqX9X9X@X0XwX<XqX,XXX,X#XwXW.#X,XqX9X#X@XwX#XE.#XuX#XE.#X@X@XR.<X@X4X2X<XXXqX4XQ.<X,XyXQ.>X9XXX<X>XqX4XqX<X,X,X@X2XwX,X$X@XW.XX X,X#X9X#X2X0X4X1X2XtX#XtX%XuX0XeX9X%X3X5XeXuX3X0X$X@XyXpX3XiX3XoX1X3X{.yXeXP.&XaX+X%X%X%XtX%X.X0XtX$X%X.X.X+XiX3X.X%X%XrX0X%X%X$X$X.X{.eXrX{.{.+X+X3X{.%X3X3X%X.X8X3X+X%X%X.X%X{.%X.X$XeX.X X3X.XyX$X$X&XrX$X$Xg.+X3X{.3X3XyX+X1X5XtX1X@XtX2X",
"qXk.7X>X9X4XQ.GX|.oX,XyX7X>XGXFXqX9XqXQ.aXQ.wX#XwXuX4X,XqXqX<X<XuXQ.wXwX,X,X9XyX9XyXk.iX4XuX4XoXrX@XwXuXQ.~.yXGXGX7X,X@XoX9X1XFXR.E.wX@X9X@XqX9X@XFXR.6X9X2XyX,X@X4X4X6XXX<X9XoX4X2X2X$X,X9X$XrX{.rX%X.XE.$X0XyXeX X.XaXrX.XeX3XrXrX%XaX%X{.%X%XiX$X1X%XeX5X5X5XeXuXoX@X2XyX5X2X2X2XuX2X3X9X0XeX$XrX3X%X3XrX{.5XoXrX3XeX1X$X$X3XoX5X$X+X,X6X8X1X6X1X$X+XeX3XP.3X{.9X1X3X$XuX2X3X.X0X%XaXtX0X9X#X%X%X0X%X%X0XyXaX0XeX9XeX0X9X2XyXqXqX<XHXwXwXqXHXqXHXwXwXqX7XyX6X5X$XoX+XuXL.-.` Z -.U y.#.F #.F G ` G ] V.D.Z.n.Z.(.`.-X(.=X-XvX-X_.-X-XNXhXbXlX:X-XcXjX_.-XsXNXjX_.NXkXNXhXfXbX_.VXnXsXbXkXgXcXbX-XkXfXlXhXlX'.MX`.kX_._.fXhXlX'.fXjX`.-X_.-X-X-X-X_.fX'.-X).(.`.H.Z.H.G.*XG.C.C.M.v.' M.J $.' H #.#.} U S A D S 7 S A R 5 A V A L 2 U 2 L < L h < 5 1 1 1 2 < = < = < ; ; > , u : O ; : < : . ; , , O ; i i > . O i . . ; ; 8 # : % o : : @ ; @ @ :   e :   . =   1 5 * _ OX+X{.&X{.aX:X X0XwX4XqX<X|.OXOX$X6X6X8X,X$X@X,X@XQ.7XwXwXqXqX<X<XGXGX<XQ.<X7X<X<X,XXXwXyX@X#XyXwX,X2XwX,X,XwX0X4X,X%X#X#XW. X$X2X0X5X@X#X#XeX1X5XqX4X>X4X<X7X,X,X6X4X<X4XyX X<X1X#XyX<XQ.@X,XXX,X,X4X5X9XyX9X0X2X0XwXaXwXyX9X@X#XaX0X3X0XeX$X@XtXtXtX.X+X3XoXtXyX0X@X2X1X$XuX1X X3X{..XaXaX&X{.rX&XrX$X+XeX%X3XyX{.%X3X{.&X%X8XrXtX%XoX.X XeX1X3X$X$XP.tX.X$X2X3X%X$X%XeX$X%X+X%X.X%X{.#X&X@X$X3X2X#X%XeX9XeX{. X1.tX%XtXtX.X%X3X.X$X3XrX.XoX5X5XeX",
"7X<XGXwXW.4X,X4XoXoX1XqXoXOX9XXX1.@XiXuXtX0XqX9X9XwX1XwXqXqXwXqXGX^.wXaX4X4X2X4X6X3XoX5X6XyXyX5XwX#X@XuXaXwXwX9XqXqXGXGXqXyX@X0X#X0XyXuX9X$X0X@X1XuX X2X9X@X$X|.qX4X4X6X,X5XqX@X|.9XyX0X X@X X0X#XaXaX:X&X&X&XaX.X&X0XrX%X1..X3X{.&X1.{.%X%X0X%X3X.X5X+X6X.XoX1XGXeX X2X3X0X9XeXyXyXuX3X9XyX9X2X$X3X$XoX1XrX%XtX$XeX.X3X$X8X$X1X+X6XoX$X1X1X$X+X+X.XoX$XeXeX XtX.X2X.X3X@X3X X0X.XaX%X0XtX$XaX#X%XaX0XaXaX0XrX0X%X9XyXuX9XqX9XqXHXwXqXGXqX~.wXHX^.wXqXqXGXqXyX>X1X1X8X6X}.%.%.<.#.=.F W F F #.G ` &.] V.2.V.'.'.)._.'._.-X-X).(.fXlX:XvXhX-X-X:XMX-XjXhXjXcXjXbXcXkXNXcXfXjXjXkXzXsXzXfXhX`.sXsXfX[.cXfXjX_.kX_._.-XcX`.).hX`.:X_.-X_.[._.n.hX_.(.).(.).Z.).=X`.H.G.(.=XG.C.v.v.M.M.' J m.J ' ` G ` ` F F G G A P A U D R A D A 2 A - L 2 5 1 l h = 1 5 < 5 1 2 < = ; , 5 1 > ; O ; > , > : ; ; T n j ; ; : : O r ; s u ; ; . ;   O O # w w 9 w @ w : # r w . O   . . . 2 7 F +X}.{.%X&XrXR..XwX,X<X>X>XqXeX1X.X+X5X@XoX#X0XqXqX<X>X>X<XHXqX7XHX7X<XwX7XwX<XwX#Xd.2XQ.$XGXW.@X9XqXqX2X,XwX4X<X@X0X%X#X%X0X$X#X.X3XyXyX1X6X@XuX2X6X>X5X<XqX6X,X,X|.,X4XqX,X9X9X#XqX<X<XqXqXqXqX4X4X,XXX9X0X0X%XwXaX2XaXrXtX0X2X0X%X2X0XtX3X$X0X0X0X3XeXrX{.oX5X3X5X3X1X$XuX2X X X3X&X{..X.X%XtX%X8X{..X0XrXrXiX%X3XrX{.%X%X3X%X%X$X+X+XOX8X1X5X6X5Xg.2X.X3XrX3X$X$X+X%X$X%X%XrXrX%X$X#X0X9XeXyX0X%X2X$X X.X{.aX X3X&XaXtX%XeX3X#XiXeX.X{.rXiXrX3X",
"<X7XwXQ.Q.yXqX1X+X6X9XeX1XqXFX,XeXtXeXuX9XqX0XwXqXQ.,XqX<X4XyXqXqXwX0X9X4X9X4X1Xf.|.9X1X1X3XyXyXwX,XwXuXwXqXwXqX@X,XtXyX@XeX2X2X,X9X@XtX#X$XwX#X X0X$XyXeXeX@X|.5XoX6X1X|.,X9X Xg.yXyX2XE.9X X$X&X&X%XrX0X%X{.aXrX$X{.%XpX%X%X$X$XrXaXrX%XeX3X3X3X3XeX$XyXeX8X3XeX1X@X9X5XeX4X2XyX9X9XoX2X3X5X2X$X$X$X.X.X3X%X1X.XrX$X5XOX$XoX3X6XuX5XyX3X5X3X9X1X$X1X3X3X3X$XrX$XeX1X1X.XeX3XrX$X0X%XrXuXaX0XaXaX%XaX0X%X0XrX0X9X0X2X2X@XqXyX9X9XGXqX<X<XHXGX7X^.7X7XqXyX<X1XT.9XP..X+XP.<._ F } } #.F F S F G ` ' ] D.*X*X(.n.'._.`.(.-X-X-XhXcXhX=X-X-XcX-XkXAXhXjXcXcXnXfX).fX-XfXfX`.sXhXsXbX`.bXhXfX).fX_.).-XfXgX_.(.kX-X`.-X-X_.`.lXZ.-XfXZ.'.`.`.n._.`.Z.`.Z.`.`.)._.`.`.(.G.H.G.(.Z.M.v.M.M.v.M.' ' ` ` %.$.` #.#.U F F D U A U 5 P A A L 2 A 2 L 1 L h < 1 1 = 2 1 2 < 3 * * : i r > ; ; u : O ; : f T Y g , ; : w ; > ; s i > ; # # # O O . s $ @ w # y @ o : : O # O r . . D 7 7 {.+X}.&X/.rX$X#XyXXX7XqX<X,XoXoX1X1X3X$XoX#X,XqX0X#X<X4XqXqX7X<XwXwXwX<XwXQ.Q.,X~.wX2XuXwXE.FXqXQ.wX9X<X@X2X5X1X$X,X%X#X.X X X{..X,X@XXX6X5X>XyX,X5X>XyX<XqX,X4X5X6X4X4X5X<X9XqXqX4X#X@X<XwX4X4X<X4X1XXXwX0X9X2XaX#X#X0X0XaX2X0XaX0X0X%X0X2X$XeX0X$X$X6X1X2X3XeX2X5X9XqX2X5X,X5X9XeX%X.X%XrXtXtX$XiXoXeXrXtXrXrX+XeX%X{.aXrXaX+X{..X$X$X.X6X$X8X6X1X|.3X$X3X5X$X+X3X$XaX%X%X%XrX&X#XaX$X0X0X3XeXOX@XyXyXeX{.#XaX@X$X.X{.$X{.$X{.{.$X%X$X.X$X1X.XrX",
">X<XW.f.6X2X5X4X,.XXoXoX X6XGX<X2X2X2XwX2X0XuXIX9X X4XqX<X<XqX<XwXwXuXyX4XeXyX9X6X5XFX4X,XwX<X>XyXqX,XqXyXqXwXuXqX6X5X5XoXtXtXtXtX2X XwX XqXeX%XOXoX|.g.R.5XoXoXuX,XyXqX X6XeX6Xf.5X#X#XE.uX@X$X&X#X.XaX%XaX&X0X%X&X{..X0X.X%XeX&X&XaXaX$X{.$X$X3X3X5X.XtXyX6X3X1X1X0XyX2XtX9X1XyX9X9X1XeXqXtXeX3X3XrXeX%XrX3X$X$XiX8XyX$XeX5XtX.X8XoX$XOX1X$X$XtXrX3X3X%X$XoX3X{.2X@X.X{.3X$XoX@X%X@X0XtX&XaX$XaX%XaXaX%X0X0X%X9X9XtXuX5XuXGX9XwX~.<XqXGXwXHXwXGXqXqXHXGX4X4X7XyXL.6X8X.X1.G F F Z #.A F F _ ` ` &.A.D.Z.Z.(.`._.-X`.`.dXhX-XdXhXvXbXjXvXcX-XhXhX)._.-X-XjXhX_.hXsXjXkXkXsXzXzXkXsXNXbXzXbXkXfXkXNX-XVX_.cXMXcX_.cXlXkX].NXlXcXfX`.SXfX(._.-XfX)._.`.'.`.`.'.Z.Z.C.n.n.Z.H.C.v.C.C.V.M.N.] ' ' J ` ` F _ ` U U S U U D D A D A S L 2 A 5 h 2 L 1 < 5 , < 1 = 1 , < < < & ; > r i u ; O O ; ; : : O O O O ; ; : . > p > ; > > . o : @   y @ @ w # y @ : @ : O . # % ; . & = - _ P.8XP.&X%X%XwX9XwX9X,XQ.oX,XoX.X$X3XoXoX#X#X2XQ.<XwXqXwXwX<X<X<XHXwX~.yXqXqXqXGX$X,X4XQ.wX@XuXqX@X,X@X,X2XwX4X,X#XaX$X{. X$X2X$XyX3XoXyXeX@XqX|.5X,X7X>XqX6X7X4XW.@X2X4X9X2XoXQ.4X<X,X<X<X4X7X<X9X4X@X9X0X9XwX0XwX@XyX0X#X#X0X#XeX9X2X3X3X0XtXtXtX3X$X$XyX3X2X|.2X4XeX5X@X6XyXyX.X%X+XrXeXrX+X{.3XP.eX3X5X+X$X|.&X+X{.:XtX3X.X{.3X3X3X+X%X6X1XoX{.oX9X2X|..X.X3XtX%X%X+X.X&X%X{.{.#X X#X@X.X@Xd.uX9XE. X X0X#X/.tXpX.XrX%XrX.XrX.X2X%X+XeXtX$XeX",
"~.<XXX,XW. X@XoXg.yX2X@XqX4X4X6X9XeXyXqXqX4X2X<X,X4XqX7XqX>X7X<X#X@X0X0X#X0X9XoX6XoX5X6X5XFXyX4XuXwXwXqXuXqXW.qXyX<X4XyXoX1X$XOX9X|.9XeX,XeXoX{.yX1X5X5X6XtXoX1XtX,XyXeXXX5XyX1X#X%X X@XR.uX$X$X0XaXaX&X&XaX.X%X3XtXrX%XrX{.%XpXtX#XaX%XyX%XrXeX.X8XrX.X3X6XoX3X0X0XtXeX.XyXeXeX$X2XeX0XtX1X$X X%X.XeX%X.X%X3X.XoX8XR.oXoX5XoX+X8XyX$X$X3XtXeX+XeXeX$X%X%X$X$X3X$X$X%XtXtX0X$X3X%X3X.XeXuX&X3X3XaXaXaX0X%X0X9X3X2X3X5X2Xf.,XyXqXHXqXqX^.>XQ.GXHX7X<X<X>X7X1X6X1XoXs.8XP.,.G G _ } Z S Z F #.` $.M.S.D.D.Z.Z.`.'._._.`.`.-XcXhXcX-X_._.Z.n._.(.cXfX_.fXhXhXdX]._.kXkXkXzXBXfXjXNXgXfXkXzXfXNXjX].kXbXsXkX_.NXhXgX`.MXfXkX[._.fXlX[.`.kX`.-X`.`._.`._.'.`._.)._.).H.Z.Z.`.H.n.v.C.V.M.' J [ J ' [ ` %.` G _ ` ` F U U Q S S A P A S L V A 5 2 < L 1 1 h 1 1 1 3 , = 2 , 1 < ; ; ; ; : ; : : O . . O O # ; ; @ O ; . : > : u s > ; % % o   w w @ : @ y @ u O : w O #   O .   = = - _ +X{..X.X%X@X2X@XwX#X#X2X0XaX#X3X9XaXwX9X9X0X#X2XwX<X@X<X7XqXwXyX~.wXQ.wXE.Q./.E.9XwX9XQ.0XwX2X@X2XwX2X2XwX@XwX@X#X@X$X0X9X2X#Xf. XoX2X|.oXuX6XGX>X2XoXGXyXqX<X4XqX9X#X1X9XqX9X#X,X4XqXwXqXyXqX4X4X1X9X9X9X0X$XaXaXyXwX$X$XtX@X$X0X$X0X0X0XeX3X$XOX1X5XuX1XyXeX5X1X6X5X1XqXqX1X3X5X$X3X$X3X+X%XiXOXtXeX5XOX1X6X.X.X$X%X0X%XoX$XeXtX1X$X8X5X$X+XW.$X5X@X|.$X%X3XrX+X+X.X.X&X%X.X&X0X@X3X3X3X8X|.yX0XoX9X%X%X$X#X3XtX.XrX%X%X#XeX3XtX3X.XtXiX1X%X",
"<X,X,XGXf.4X9Xg.oXuX1X1XuX5X#X#XwX$X4X9XGXGXyX4X,X9XGX4XyX7X7X7XuXwXwXaXwXyX9XR.4X,X2X6Xf.yXXX>XyX@X@X9XqXqXQ.yXyXeXuXFXeX0X0X9X3Xf.uXeX@X@X|. XeXP.1XiXeX3Xg.+XqXW.1XoX X5X2XW.wX@X$XyX XtX2X$XrXrX0X&X{.rX{.&X3X%X$X.X%X.X.X.XrX{.%X%XaX.X0XeX$X3XyX$XeX8X8XtXtX3XyXyX$X3X@XeX0XtXuXyXtX2XeX2XrX3XtXrX3X3XrXeX3XeX$X3X8XeX3X3X@XyX8X1X1X3X5X1X3XeX$X3X0X%X3XrX3X$X$X$X.X$X%X%X3XeX%XrXuX$XrXrXrX8XrXrX0XrXeX0X3X9XeXFXyXFXqX,X7X<XqXGXGX~.wX>XqX7XqX>X6XyXyX@X8X6XtX%.%._ %.} F A F Z F #.` &.A.S.S.D.*X=X`.Z.(.-X-X[.-X_.n.Z.(.(._.-X(.VX-XjXhX-XfXNXCXkXjXbXkXBXjXbXzXbXfXCXCXjXkXZXfXBXCXgXbXkXkXNXgXNXkXlX_.cXfXlXcX`.fXfXkX_._.`.MX_.-X_.)._._._.(.`.`.`.`.).).`.H.G.(.Z.H.G.C.C.V.B.M.m.] ] ` H H ` F #.U #.U D D S D A A L L L A 2 2 h 1 g l 1 5 1 2 1 1 < ; = , , > < ; u u , ; O O ; r r > > ; ; ; > i , ; , s 3 ; O : : O O @ @ @ w 8 u @ $ @ $ : o @ ; O # & * * 7 7 -.%XP.{..X|.qXE.,X2X#X@X#X#XwX@X$X#X#X#XwXwXR.E.@XwX<X7XwX7XqXW.wXW.yXQ.yXwXwXFXE.yX0XwXwX4X#X,X2XwX2X9XwX4X2XwX#X#X0X$X X X2XtXuXqX9X XXX2X1X@X|.<X,X4X<X#X#X4XXX,X9XyXXXQ.#X#X<XwX4X<X9XqXqX,X<X,X9XwX9X%X0X0XaXyXaXwXaXtX0X0XrX0X9XtXtXtX9X5X8X6XeX5X|.6X1XqX6X,X5X,X5XyX5XtX3X3X3X$X5X3X5X5XP.5X1XoX{.5X8X3X%X%X.X$X$X%XyXeXeX$X1X6X6X.XoX3X6X.X{.3XtXeX3X{. X%X%X0X&X&X{.eX0XeX5X9XyXqX@XuX2XOXtXuX9X%X X%XuX%XrX%X$X$X%X$XtXeX.X#X3X$X0X",
"<X<X<X<XXXyXqX#XoX3X X2XqX9XqX<X,XqXqXqX2XqXyXGX<X4XGX7XGX<XqXqX0X#X@XQ.W.0X@Xf.oXoX,X4Xk.,XXXqXqXwXwX@XwXuXwXFX<XqX9XyX4X5X0XeXuXR.tXyX$X.X1XtXtXOX1XeX$X$XoXuX6XoXqX,XoXyX3XoXyX0X9XyXR.0X9X XaXaX0X&X@XpX.X%X$X%XrXeX3X.XrX3X0X{.aXrX.X%X0XiX$X#X3X$XeXrXyXyX0X$X0XeX0XtX X0X$X3X0X3X0X@XeX3XrX$X3X1X3X3X3X3X$XeXeXeXeXoX6X8X+X6XeX1X3X|.3X3X$XtX3X5XtX$X$X3XtXrXeX$X.XeXtX3X%X%X&X%XrX.X3X3XrX0XrXrXrXrXeXeXyX9X@X5XeXGXqX2X<XqXHX!.wXGXGXj.7X7XqX>X6X6X,X|.+X8XU.%.%._ _ F Z F W #.F #.#.V.V.D.G.D.'.(.-X-X-X`.n.2.n.(.Z.`.-XfXvXcX(.kXhXjXJXcXhXhXbXhXhXbXbXNXkXbXgXbXfXBXVXkXfXCXkXNXBXkXgXkXlXkXjXkXkXgXkXfXlXgXNXfXkX].lX[.[.fXlX`.fX[._.).`._._.].-X`.H.-X).n.C._.=XC.V.S.v.C.C.C.v.[ ' ' ` _ ` G F F ` F S D F D A A A L L A L 2 2 h 1 h L 1 p 1 2 1 1 < * = ; , i i r u , > ; ; < r ; : ; O # O ; O i r ; , r ; > . j : O u   ; # + u # # # $ @ @ o # @ @ # O   . 5 - _ .Xg.g.OX{.yX2X@X XW.2XwX@X X9XyX0X0XaXwXrXwXd.@XwXqX4X<X<XwXwXwXuXQ.wXQ.qX@XQ.FXQ.R.<XqXqX@X2XwX,X,XwX9X,X2XwX0X0X2X$X X$XyX9X.X X2X,X2X X2X2X4XyXuX5X9X<XyXFXXX@X9X9X X1XqX9X9X9X2X1X9XyXqX2X4X,X9X%XeX0X0XaX2X0X@XqX#X9X3X.X2X#X#X1X$X$X1X$X1X+XqX@X6XuX1XeX5X6XyX6X5XqXyX$XP.1X%X1X3X$XoX1XOX6X8X1X1XGXiXeX0XrX.X.X%X3XrX3X8X6X5XoX.X|.$XeX$X X{.tX8XeX5XP.&X0XrXtX$X{.{.0X{.2X$X,X5XOX|.4X$X X|.R.1.@X$X%XiX3XrX%X.X3X+X%X%X0X$XeXtX3X3X",
"Q.2X4X,.eX X.XyX@X.XR.oX XXXqX2XqXGX9XyX<XuX7X<X4X>XqX<XqX>XqXqXqX0XuXwXaXqXqX0XuX6X4XyX9X4X,X7XqX0XqXwX<XuX0XuX9XuX5X5X3XeX3X$XiXR.$XyXoX+X5XtX.XP.6XeXoX8X$X3XoX1XiX2XOXqX2X2XuX#X9X0X1.aX9X{.aX%X0X&X&XtX&XeX%X%X%X%X%X.XeX3XiXrX0XpX{.rX%XrX%X$XtXeX3X$X3X5XeXeX0X@X3XFX%XtX X%XeXtXiX2XeX$X8X.X%X%XtX3X$X$X3X3X5X8XiXoX3X3X5XoX.X.XtX.X8X3X{.eX%X3XrX$X.X%XeX.XeXtXtXeX3X$X3XeX$X3XrX%XeXrXrXaXeXrX0X0XeX0X9XtXqXyXqXyX9XyXGX7XwX7XGX<XHX<XHX<X7X4XyX,XT.8X8XT.%.F %._ _ F F F Z F F &.V.A.D.D.(.'.-X_._.n.'.n.`.`.'.lX_.:XkX:XkXhXhXcXcXdXhXNXjXkXVXVXkXNXCXkXCXNXcXkXgXVXkXBXfXbXNXbXbXjXlXNXsXbXlXkXNXkXSX_.NXkXfXfXNX[.NXfXfXlXfXlX_.`.fX[.`.lX_.lXfX`.).(._.-X(.J.Z.Z.J.H.v.C.V.C.M.M.] &.[ ' ` ` H ` H F Z S F F S Z Z A V A L 5 1 h 2 h h < 1 1 = 2 2 i 5 , ; * . ; > : ; ; u > : O . : u w u > : ; ; > O ; , i g . i ; # r   @ @ w u   @ # $ : % $ # @ s : . . * 7 & 7 } 6X+X1XP.6XQ.@X0X@X2X%X@X#X@XyXqX0XwX@XwXaX#X<XXX<X4X<X<XwXqXqX~.qX#XwX#XwXQ.~.yXqXwX#X#XqXqXwX2X,X9X9X4X#X3X2X@X XwXuXqX Xf. X<X6X#XyXoXwXqX1XXX1X,XyX@X1X5X,XwX@X4X9XFX2X@X,X<X,X1XwXwXQ.4X2X@X2X1X9X0X0XwX0X9X2XrX@X%X@X X0X2X0XuXeX5X3X1XeX1XyXOX1XuXoXqX6X,XuXGXyXXXR.6Xf.5X8X1X1X5X6XyXyX5XGX5X+X5XoX+X$XeX{.%X3X$X3X6X5X8XeX.X{.k.8X2XoX$XOXyX|.%XtX.XeX%X.X%X}.{.rX0X{.1X@X$X5XOXoXyX6X1X1XyX2XuX9X%XtXaX0X%X%XtXeX{.g.+XrXtXiX3X%X",
"W.4Xf.E.E. X{.#XtX1.aX#X0X@X#XE.XXqX4XGX,XGXQ.4XyX>XqX,X,XqXyX9XuX2X0X3X3XeX6X|.qXuXf.GX,XqXqX>X7XQ.Q.FXqX<XqXqX9XR.IXtXeX@X@X3XoXyX$X$X%X.X$X$X.X.X$X5X3X$X+XtX$X6X5XeX|.eX9X5X5XoX1X$X1.2XeX$XrXrXrXaXrX0XrX&X$X.XrX@X0XaX3XeXrX$X.X%X%X.X+XuX%X3XtX3X$X3XeX$X+XeXtX0X3X%XOXtX%X0XIX3X3X3XrX$X3X3X3X3XrX3X.XrX3X%XeX5X5X3XoX.X%XOXeX.X1X%XtXrX$X3X+X$XtX0X$X3XrX%X$XrX3X3X8X%XaX%X%XrXpX%XiX8XrXrXyXrX9XrXyX3X9XtX5XyXyX5XqXGXqX<XqX7XqXHX7X~.GX7XGX6X+XyXT.;X+XL.%.` ` _ _ F F F F W #.` ' V.D.(.G.(.Z.v.n.Z._.`.`.hX-XcX-X-XcX_.hXnX_.cXAXhXfXVXjXnXkXNXjXfXNXBXsXBXBXkXBX_.zXNX`.BXzXzXZX].BXMXlXCXlXlXBX[.lX[.lXBXlXfXgXxXNX[.gXgXfX_.lXkX[.[.lX]._.fXfX).).]._._.(.H.n.H.(.Z.C.C.C.M.v.V.v.M.V.&.] $.$.` #.F F Z Z S F F A D A 2 L L h 5 1 1 5 5 1 L L 5 1 1 1 g , * . ; ; i u ; i j r ; u ; @ ; w > > : O > g : . < , < . % : O O O w w 9 9 $   e $ : $   #   + # r *   6 = 7 }.+X{.+X|.2X@XtX2X0X@X#X@XaXwX0XwX#X<XyXwX@XQ.wXQ.XXqXwX<X<X#X,X>XQ.Q.wX@XuXwX#XQ.@XuX<XuXwX<XwX#XqX#XQ.wXwX@X,XyXqX4X@X X9X9X,XqXtX@X@X2X2X0X0X XuXwX9XwX X@X2X$X2XqXyXwXwX#XuX XuXyXwX,XuX4XeX2X9XuX@X2XuX#X9XwX9X$XyX#X XtXyX9X9XeXtX0X$X8XqX6XyX@XuX8XqX1X4XuXyXqXXX|.yXyXyXeX6X5XqXoX5XGXoXqX7XT.GX$X2XuX2X3XoX2X5X3XeX6XtXoX1X$XeX6X5X2X$X{.oXeX$X{.%X+X3X%X&X{.{.rX.X.XuX$XyX8XOX6XyX5XoX6XoXeX.XtX{..X.XaX%XtXeX&XrX$X.X3XrX3X$X$X",
"d.4X,X@X{..XR.#X9Xg.0XwX0X0X#X!.XX4X@X4Xf.qX<XFX<X>XqX4X>X7X7XXXwXE.2XwX|.5X5XqX6XyX6XqX<XqX4X6XqXwX4XqXqX@XuX2XqX XtX0X$X&X0XeXoXeX5X0X3X.X1XtXeX5X$X3X1X.X1XtX6X1X6X5XoX3X5XtX2X.XeX0X$XeXtX0X%X%XaXaXrX.XaX#X.X%XpX%X&X.X$XiX%XaXeXrXeX3X%XrX3X%XeXrX2XeXtXeX1XrXtXeX3X5X$XiX$X3XeX+X3X1XeX3XtX0X3X3XtXtXeXeX$X$X6X$X|.+X3XFX3X$X8XeXtXrXeX1X1XrX.X.XeXrX3X%XrXrX%X3X3X3XrXeXrX%X%XrXrX.XeX%XrXaXrXrX0XyXeX3X9XyX5XyXyX5XqXGXQ.qXGX<X~.GXGX>X7XP.7X1XP.$X|.FXU.<.} _ F _ F } F F #.&.N.A.I.=XG.Z.C.n.Z.`.`.(.-X-X-X-X(.-X-XfXcXcXcXVX(.VXJXVXcXVXhXNXcXKXBXjXBXNXzXNXBXzXBXgXBXzX_.CXBXlXZXNXzXzXkXBXbXlXBXgXBXzXzXNXzXgXlXgXNX_.lX[.MX[.lXfX].gX_.lX].].gX]._.fX).).Z._.).Z.Z.C.n.n.n.v.v.v.] v.] ] ] &.&.$.` #.W F F F F S S D A A L A A l L 1 1 5 2 1 h 2 1 1 < = < > , ; > u ; O u i : O ; ; > u ; ; : , r . O j r . . f > , O O ; u + 8 @ @     w @ o o % w : 9 # # . . I 7 7 @.P.k.T.OX9X.X.X#X0X2X0X9X<XwXaX0XwXaX0X2XuXwX@XwXwXwX<X<X<X,XwXQ.uXQ.0XQ.#XGXqX@XqXqXyXE.<X9XwXQ.qXqXE.uXeXoX.XwX0X@X2XqXyXyX,X2X4X#X.X2X@X0XyXwXyX0XrXuX2XtXuX9X,X2X9X0X9XwX9XQ.0XqXuXuX9X2XqX0X3XyX%X3X0X#X0X@X0X#XtX9X1XeX%X@X$X1X2X@X+X@X6X$XyX$XeX,XyX,X4XyXyX2X,XuXuX5X6X7X5XyXyX5X5XyXT.8XyX8XFX5X3X3X%XoX#X XtXuXeXeX5X$XeXoXoX4XeX XoXoXeX3X.X%X3X%X%X%X%X&X1..X+XOXeX6X5X6X1XtX,X8XtX$XtX5XoX+X0X1.{.iX.X$XE.R.1X$X%XeX3X.X$XtX",
"1.4X@X,X9XyX0X#X$X1.yX#XQ.@X@XwX,X@X@XwX4X4XQ.<X4X9XyXqX4X4XGX4XFX#XuXuXg.#XOX1XOX6X4XXX,XqX>X<XqXwX4XwX9X@XuX@X0X0XrX9X%X2X9X0X@X2X3XeX9X#X$X9XiXtXtXtXtX$X%X0XtX1X6XyX2X1X8XtX%XOXyX%X3X3XeX$X%X%XaX&XaX.XrX%XtX.X+X.XtXaX.X{.%XrX3XtXeXeX$X3X3X+X3XtXeXrX3X%XyX3XoX%XeXiXrXeX$X%X.X.X3X%X%X3X3X$X$X$X%XtXrX3X3X5X3X1X3XFX$X1.iXeX$X3X%X$X.X5X3XeX%X%XtXtX%XeXrXpXrX3XrXrXtXrX%X$X$XrXrX.XeX%X0X0XrX0XrXrXeX9XyXyXwXqXGXyXqX4X7XHX7X7XwXqXHX7X7Xk.yX>X>X6X.X6XP.;.#._ F G Z G Z U #.$.&.&.&.V.n.v.Z.Z.`.-X_.-XkX_._.-XhXhXhXbXhXNXhXSXhXNXVXkX_.kXhXcXhXNXjXsXNXkXBXkXNXkXkXfXCXzXfXzXCXjXCXzXxXzXxXBXBXgXzXzXfXkX[.gXlXfXgXgXMX[.NXgXkX_.gXlX[.fX).xXfX_.fX].[._._.).`.sX_.(.Z.`.Z.C.C.J.C.C.Z.V.v.] &.' ` ` #.#.$.#.#.#.U F G P D A A A A L L 5 2 2 = 1 K 1 5 1 , * ; g i : ; ; . . ; : ; O @ @ @ ; w ; % : : ; : g , ; : : r r ; O $ u : ; s u o X c e o $ : : $ e o # . # < = - 7 k.T.|.P.3X$X{.5X0X0X@XwXwX#XaXwXaX<XqX$XQ.#XQ.0XqX<X~.!.qXGXQ.qXqXwX<X,XGXQ.wX,XwX XE.wXwXFXE.2X#XE.qX2X<X4X9X,X,X9XyX9X0XwX@X@X,X.X2X0X#X#X@X#X@X0XaX@X#X2XwX2X,X2X0XyX0XaXwXaXwX@X2X@X4X4X5XyX1X9X0X0X9X0XrXaX9X#X0X0XeXyX2X1X0X2X3X2XoX$X$XP.2X@X2Xg.2XoX6X5X,X1XwXFX6XoXOX$XoXoX@X6X6X1XoX,XyX7XyX5XyX@X9X3XtX{.eX9X,XuXXX2XyX1X{.5X1X{.$X3XiX$X.X3X3X$X.X.X3X$X{.&X3X$X5XeX8XoX6XGX5XyX8Xk.eX.X3X3X%X%XpX{.&X/.%XPXFX3X.X3XtXeX3XrX",
">.,X,X$X.X@XaX0X9X/.@XE.aX0X@XW.uXwXwXwXqXXXXX9X,X>XXX6X4X,XuXwX%XR.0XuXR.9X5XuX6XyX<X|.4XGXwX7XqX4XQ.qXwX2XwX0X2XrX0XyX$X3XyX%X0X0X$X9X9X%X2XaX6X+XeXeXtX%X$X$X0XOXoXeX3X|.,X$XtX0XtX2X3X2X%X0XaX&X%X{.aX&XrX/..X&XrX%XeX$XrXPXeX3X{.eXeX0X.X3XiX3X0XiXuXeXtXeXpXtXtXrX{.%X.X$XtXtX$XeXiXrX3XrXtXrXtXeX$X3X$X|.1.3XtXeX.XtX3X$X5X5X.X1X3X.X$XtXrX0XeXeXpXrX%XaXrXrXrXaXrXrXrX%X3X+X3XiXrX%XtX5XrXrXrXtXqXrXeX3X9XyXeX9XyXyXqX5XFXqX~.GXGX<XqXqXyX6XGX8X6X8XP.P.;.-.%.} #._ #.#.#.#.#.#.$.' [ v.C.Z.sX).`.-X`.`.lXkXSXhX-XcXvXcXvXSXkXVXKX-XnXcXhXCXAXbXbXbXkXkXCXzXBXkXNXNXlXfXCXzXbXkXCXzXBXlXxXBXlXBXBXgXzXBX[.zXxXlXBXxXzXBXlX[.gXfXgXlXfXxXfX_.gXsXgX_.sX[.-X).[.fX(.`.`.(.Z.H.G.Z.C.C.C.n.v.v.v.] M.M.M.&.' $.$.$.=.#.H F A S S A A - 2 A L 5 5 2 2 2 5 2 < = 1 1 , ; ; > s ; O . ; O O , > . . ; > s : ; O r f ; o : r . O , : O O o @ @ u u #   b $   % < % . O w u O . & & 7 7 -.+X>XP.R..XP.3X#XQ.#XXX0XwXwXwX#X<XwX@XQ.qXwXQ.<X<XqXqX~.wXQ.XX9XW.wXwXE.@XE.@XwXQ.yXuXE.Q.qXuX XQ.@XwX1XqXyX4X,XqXyX<XwX9XwX0XwX0XwX9XwX0X0X0X0XuXwX@X9X9X0X9X9X0X,X$XR.#X#XyXaXqXyXqXyX5X4XuX@X3XeX3XuXwX0XwXqX@X@X@X2X9X2X9X9X@X6X3XtXtXeXOX3X0XtX+X9XeXyX3X0XrXqXqX5X5XeXyXyX5X5X5X5XqXuX4XGXyX5XyX$Xg.3X3XeXg.1XR.|.iXg.1X5XeX@X5XR.|.5X@XyXoX+XoX{..XF.{.aX%X.XtX$X$X+X6X$X|.8XyXyX6XP.5X5X+X%X5XaXtX0X1.PXtX#X1.tX+X$XuXiXeX$X0X",
" X9X X X%X9X0X#XaXR.uXaXaXR.R.wXyXwX9XaX4XE.4XFX<X4XqXuXFX2XuXtX X0X#X0X.X4X1X,X2XGX<XwXqXGXqX7XqX<X~.qXwXwXwXrXQ.0X#XaX X%XyXaXrX0X0X0X0X9XaXaX%XOX%X%XwX%XyXrXyX6XeXuXuX1XtX5X0XeXrX3X$X3X@XeXtX0XrXrXiX%XrX{.aX%X3X3XiX3X3X%X5X5X$XrXeXeX.X%XpX.X{.$X.X$X3XrX3X%X&X3X3XiXrX3XrXrX+XrXiX%X.X3X.X$XeXeX3XtXtXeXiX3XoX2XeXtX+X{.tXtX%X$X3X$X3XrXrX$X%XrXrX%X.XaX%XrXaX%XrX%X3X&XrX%X3XiXrX1XrXeXtXrXrXtXyX9XeX2X,XuXGXyX5X5XyXGXqXGX7XHXqX<XHXqX7XT.6XoX+XP.g.P.} F G G G F F F #.#.F H ' M.S.(.=X(.sX).-XjX_._.cX`.-X-XVXcXhXcXvXVXcXcXJX_.cXNXcXBXNX-XVXNXNXbXBXNXlXzXzXBXzXzXZXlXMXkXZXzXBXAXMXBXlXMXBXgXzXZXgXMXxXgXBX[.gXBXxXgXlXxXgXgX].fXfX].gXsXfXfXgXsX[.).fXgX`.`.H.(.n.`.H.Z.Z.Z.Z.n.v.] v.v.M.V.M.&.' ` H #.H W H S D F A Z A - 7 A A 5 5 A 5 2 A 7 = * < 1 , * O ; j i O O ; O ; r > # . . < < : O w ; % < % O % . O r , % ; # # O 9 u # X d +   o % & . o w t 9   , & 7 - A P.OXU..X3X.X5X6X9XyXqXwX9XqXwX@X2XqX XQ.uX4XwXqX7XqX7X,XGXqX<XqXqXqX<X1.qXwXyX@XwXuXQ.#X2XwXE.qXPXwXE.yX4X4X4X4X2X4X9XwXqX9XqXqX0XwXaXR.#XaXwXR.aX#XaX@X#X@X0X9X9XwX9XuXyX0XyX2X5XeX6XyX6X1XyX$X2XeX%X2X@X,X$X9XwX%X0X$X9X2X0X9X@X1X3X3X%X%X{.$X5X0X#X9XtXuX9X0XeX0X#X2X1X$X2X9XuXqXoXuXyXGX6XeXyX1X4X3X$XyXyXeX,XuXyX9XyXf.5X2XtX9X2X$X5XyX$XtX%X0X3X+XeX%X$XrX}.1.&X.X3X.X$X3X$XeXeXyX+XOXFX1X{.3XeX%X3XP.%X.X.XtXpXeX{.$X0XeX3X$XtX",
"E.9X9X5XQ.@X0XaXaXR.wXaXwXR.#X#XQ.,XwX0XwX X<XqX1X2XqXqX9XQ.@XwX XrX#XaX3X9X5X$X|.yX4XGXqXqX<X7XqXwXqX4XyXaX0XwX{.rXaXrX$X%XaX@X0X0XuX0XwXrXwXaXyX3XtX0X9X3XuXrX3X$X5X5XeX.XiX5X{.$X3X5X1XeX+X%XaX&X&XaX%X/..X%X{..XaXrXuX3XeX3X%XrXtX3X%X%X%X3XFX3XeXtXeX%XeXrX%XrXtXrX%X3X%XrXtX3XeXrXtXeX%XiXtXeXrX%X3XtXeX.X3X$XeX8X5X5X6X5XiXiX$X{.3X3XrX.XtX$XeXeX%X$X.XpX3XrXaX{.rX&X:X%XrX+X$XrX%X3X8XtXrX0X0XrXeXeX9X3X6XyXyXqXHXyXHXyX7XGXqXqXqX7XyX4X6X>X5XoX5X+X+XU.#.#.#.%.#.} F D F F G H &.V.S.G.H.`._.)._.fXfXhXkXhXSXhXcXcXhXSXkXVXhXkXZXhXNXhXcXcXVXfXZXCXCXjXzXCXjXBXxXBXkXzXZXlXkXlXZXZXBXzXMXZXlXzXAXzXMXBXxXNXMXgXZXlX[.bX_.[.gXgXgXgXkXBX].zXsXzXsXgXlX].fX_.[._.`.-X).`.n.Z.(.`.H.H.H.Z.n.n.n.v.v.] ' ' ' ` H H #.H H F F S Z Z F A A A 5 - 5 L 5 A 2 2 2 1 > = , g , . r : * # O O . , > ; * O . . O O r % O : : % % O ; < ; ; w : @ # w t 9 # c + X % & & & o @ w 9   ; . = 7 = ,.T.OXP.OXP.oX@X5X4XoX,XwXwX0X,X4XyXXXwXwX XQ.>X>XwXHXqXGX!.qX<XwXQ.<XqXqXuXuXQ.qXE.@XqX<X#X@XyXQ.wXFX4X>X,X5XqXqX9X<X@X0X@X@XwX@X2X%X&X#XaX%X#X0X#XuX0X0X0X0X@X#X@X0X0X0XaXwX,XyXyXqXyX,X1X3X2X2X0X2X2X0X9X2X0X0X9X9XqXyX5X9XyX3X1X$X3X3XeXeXtXuXeX2X2X1X9X0X2X2X$X0X9X5X0X2X1XyXuX@XtX7X4XOX6XyXoX,XyX4X1X2X2X2XeXoXFX2X{.yX9X2X0X$X$X@X.X|.oXg..X%X{.%X+X$XaX%X%XtX.XpX%X8X8X5X5X5X1X.XeXiX.XP.3X8XrXaX{.iXrX+X$X%XiX$X3X%X3XeX3XiX",
"R.@X X,XaXaXaX&XaX#XQ.#XaX/.wXuX,XwXQ.@X@X@X,X@XwX$X1X X@X#X#X2X0XrX0X0X3X3X5X1X6X,XqXGXGXwX<XHXwX<XwXwXyXwXrXuXE.aXwXrXeX0X$X.XtX,X9X0XaXaX2X#X0X0XuX9X0X@XrX@X8X6XeX5XuXOXFXeX X$XrXrX3XrX3X3XtXaX&X0X%X&XrXDX3XtXtX3XrX&XtXiX$X3XtX.X3X$X0X3XtXeXtXtXrX3XrX3X%XaX%X$X8XiX%X%XrX$XtX%XrXrX%XrXtXeXeX3XrXtX3X%XrXtXFXoX.X.X3X3XoX6X{.2X0XrXrX|.tX%XtXeX%X0X%XtX:XrXaX}.pX%X8XaXaX.X&XrX%XeXeXrXrX%X3XeX9XeXeX5XqXeX6X5XGXyXyX<XqXqX7XqXHXqX6X7X|.OX1XP..XP.{._ Z F } #.#.#.F G F W #.;.S.S.C.Z.H.).fX_.).)._._.fX`.-X-XkXjX-XVXcXNXbXSXLXcXZXhXjXfXZXbXbXNXZXsXNXZXzXZXzXAXxXbXNXzXzXgXZXZXBX[.MXZXzXMXBXzXBXBXlXkXMX[.BXzX[.NXMXBX].gXgXlXfX[.fXbX].bX_.gXfX_.fX_._._.).fX`._.n.`.H.`.Z.J.Z.n.v.v.v.2.v.v.M.M.$.$.` $.$.` H F F G G Z D A A D A 5 5 5 2 - 5 - 5 1 , < , h i ; ; ; ; . O . . ; , , u > ; O : < : < e : : w w # O ; O ; u u 9 @ + w + X 9 o   o   & $ . $ + 8 #   . = 7 7 } s.P.+X+X1X1X6X4X,X>X4X4X,XwXXX,X9X4XwXQ.wXwXwX7X7X<XGX~.~.<XqX4XwXGXwXyXQ.wXE.#XqX0XE.Q.qX#X~.FXqXwX,X<X4X<XwXyXyX,XaXwXQ.@X0X@XaXwX0X#X#X#X0XuX#X9X#XwXqX9X1X0XtXFX0XrXuX9X4XyX1X1XyXoX5X1XtX3X0X0XqX9XqX9X@X0X4X.X3XeX2X2X3X1X1X@X3X$XrXeX0XrX%XaXyX0X0X9XrXeX9XuXtX9XuXyX X1XuX2XFX6X,XyXqXFX4XqXGXtX2X9XtX9X0X XFX@X@XeXyX@X1X.X9X5X.X2X5X.X3XtXrXuX%X%X&X.X+X%X&XtX$X1X8X$XP.$XP.|.iXrX8X%X%X.X%XE.{.$XpX0X1X.X$X%XFXDXtX0X&XyX",
" X4X2X9XQ.aXqXwXaXaX/.E.wXQ.uXQ.Q.uX#XwXXX@X#X X9X#X@X XuXDXwX2XeX#X0X$X X$X6X3XyXR.qXqXuXqX~.GXyXwX#XyX0X#XQ.DXQ.aX#XaX9XeX0X2XDX2X0X0XaXwX#X#X0X%XuXrXeX@XyX%X5X$X8X9XtXP.tXrX$X$XrXoX$X%X5X%X%XaX.XaX.X0XrXrX{.eXrXrXtX$XrXrX.X{.eX3XiXeX%X.X3X3XeXeX$X3XiXtXeXtX%X$XeXpX%X%XtX.XiX%XrXrX%XeX$X3X3X$X%X$X{..XtX.X3XP.tX5XeX2XeXiX+XtX{.3XeX3XeX%XiXeX3XrX%XeX%XrXaX&XiX%XaX8XrX+X%XiXeX8X8X3XrX%X3XeXeX8XeX5X6XyXyXuXyX6X6X6X<XHXHX7XqXqX<X7X6X1X3XT.+X<.<.%.F H F F F G D D S ` $.N.S.I.G.=X).-X).-XfXfXhXfXhXfXSXzXhXhX(.JXvXkXJXcXZX(.AXVXNX-XBXCXdXZXKXlXBXAXgXzXgXBXkXBXzXNXbXzXzXbXzXzXBXZXzXMXBXxXMXBXfXxXCX[.MXxX[.NX].BX).BXfXzXfXlXsXgXfXjX_.gX_._.fX)._._._._.`.sX`.(.`.`.H.Z.n.n.n.n.n.v.] ] v.&.M.$.#.$.$.` H G F F A D S A - A I Z 5 2 2 - 5 5 2 < > 5 i < ; ; . ; : : < ; O O ; O . . ; O O O O O : : @ $ O . . : : O ; ; ; u # + @   $ + o . & & & o w # @ # . & & = A 5 -.P.$X|.8XoXoXoX<XGXqX4X>X6XQ.Q.9XqXaX<XqXwX,XqX<X<X<XwXqX7X~.GX7XqX<XE.wX0XW.0XQ.wXW.uXQ.9XuX#XQ.qXqX<X,X<X4X4XqX9XqXqX0XqXuX9XwX0X0X@XaX#XrX0XE.0X@X0XrX9X2X0XwX0XW.2XtX#X$XyX<X5XeXoXuX1XuX9X$X9X2X$X2X0X,XyXyXR. XqXeX0X5X1X5X5XrX$X3X3X3XtX9XuXiXuXtX%X9XuX9X0XyX$XqXuX@X9XuX5XFX@XoXFXeXGX6XuX5XqX9X2X5XXX9XyXyX@XyX3XuX3X2X#XoX$X{.1X3X+X$X3X+X%X.X%XeX%XrX%X{.tX3X8XtX5X.XtX3X3X%X.X0XtX%XtXDX1.%XtX{.0X3X3X%X{.1X%X9XtX$X2X",
"E.qX#X9XuX@XuXQ.2XwX#XqXwXyXuXQ.yX#XaXwX/.wXuXE.2X$XuX0X0XuX0XwXuXaX/.aXR.Q.Q.uXuXR.rXDX2XqXwXuXuXXX4XXXqX@X2XuXwX$X9X@XyXwXyXuXtXiX3XtXeXtX.XrXrX%XiXaXrX0X0XaXtX0XtX{.aX{.iXtX0X XaX{.tX%X$XeXpX$X%X%X$XR.$X%X$XiX$X%XuX$X%XrX9X0XaX&XrX0X%X0X{.tX%XuX3X3X3X%X5XtXrX3XeX$X$XrXuXeX3XeX%XeX.XrX5X$XeXtX$XeX1X%XeXOX$X9X5X9XtX1X+XtXtX3XtX3XpXrXeX%XtXpXrXtX+XeX+X%X3X&XrX%XrX3XrXoX5X8X8X5X+X%XeX8XtXtX8XyXtX8X5XyXqX6XyXyX5XqXqX7X5X4XqXyX#X#X$X%X6X+X+X<._ #.S } U #.D - Z F #.$.&.S.S.C.(.(.).hX_.)._.-XcXlX-XhXzXSXNXNXsXCXcXfXJXbXkXjXZXcXJXcXcXVXhXVXJXjXBXCXgXzXBXCXjXZXkXBXgXNXbXjXNXZXlXZXbXkXNXBXfXkXkXjXBXjXVXZXxXCX[.BX[.MXlXMXgX[.[.lX[.fXlXsXsXsX_.gX_.[._.sX).-X(.`.`.(.H.Z.Z.n.n.n.C.V.] ] M.V.M.` ' $.H $.H ! W G S D S A D A L A 2 5 5 - A 2 5 2 2 h 5 < < p * < O . . . < O $ #   ; : : : . . O u ; o # @ w : @ O o @ w w @ # $ : @ u w : @ O % O w w o + #   . < = L 7 D 8Xk.,X1X|.6XoX>XqX7X~.qX<X7XwXwXwXwXuX0XQ.E.9X9XQ.9X<X7X>X7XqX7X7XqX<XwX4X<XqXf.qXqX,X,XyX,X~.uX9XW.9XwX2X#XqXuX<X4X9X4XwX4X2XqX9X9X,XyX,X2X9X5XuX,X9XyX2X9X%X0X%X0XuXaX<X9X#X9XuXwX5X5X>X8XqXoX5X5X9X1X XyXuXqXaX9X9X4XeX1XyXuX5XyXyX8XyXeX6X5X5X5XyX5XuX6XtX5X5X0X#XyXuX$X9XFX#XGX@X@XyX6XGXyX6X4X5XyXGX7XT.iX9X6X.X5XtXeX8XoX3X.XoXrXoX%XOX{.rXrX1X3X%X%X%X+X+X3X$X%X$XrXP.rX$X%XiX{.tX{.%X%XrX%X{.+XiX{.eX&XtX#XrX1.3XtXiX0XaX",
"W.uXwX#XQ.Q.uXE.Q.,XQ.<XQ.Q.wX~.wXwX0XrX@X0X%X#X9X.X%X.X$X0XaXR.aXaXQ.aXaXpXaXDXuXR.aXwX@X9X$X0XqX4X5X4XuX9XqXyX$X1X9X,XGX2X<X6X3XrX.X3X%X0X.XwXrX#XuXuXrXaXwX@XrX:X#X&XrX.XpX#X0XaXtX%XtXtX0XrXiXaX%X0XyX9XyXyXoXuX3X5XrX&XaXtXaXrXaX&XrX%XaXpX{.pXoXeX%XeX3XeXeXeXeX3XeXrX3X3X3X%X%XeX3XtX%XrX3XrXrX3X1XiXeX3X5X3XtXeX1X2XyX9XyXeXoX1XrX3X0X$XpXtXrX0X+XtX3XeX8X3X%X.XpX%X8X$XrX+XrXeX3XrX+X6X8XeXtX8X6X8XyX6X8XyX8X7X8XyXeXqX4XqXqX4XqXwXaX,X2X1.P.+XL.;.-.F D U Z - A F #.G ` &.&.V.D.G.*XZ.-X-X-XkXjX_._.hXkXkXkXkXjXvXdXJXkXkXJXAXcX).ZXbXfXkXjXKXfXNXVXhXBXZXNXBXZXNXlXZXjXZXcXbXzXnXJXJX].bXzXBXJXbXjXBXsXnXJXbXhXCXjXnXgXMX[.xXgXzXlXxXfXlXgX].gXsX].sX_.fX).[._._.`._.).).(.(.G.H.Z.Z.C.C.Z.C.n.v.M.V.&.' $.H H $.H F H F U S S A S A A U A A A 5 A - 2 2 2 > 2 2 < < * < * & & . & . : $ o % : % i ; u u : O O @ 9 @ @ # o @ $ w r O # w o o @ O O @ @ O o % 9 @ $ o : . & < < = = s.l.6X>X$X5X6X>X5X7X<XHX7XwX7XqXGXwX@XaXwX,XQ.#XQ.<X,X,XqXHX<X>X7X<XqXqXqX!.4XQ.yX4X<XqXW.#XGXQ.,XqXQ.yXwXqX2X#XwX2X9X2X9XqX9XyXqXqXXX1X<X9XqX,XyXqX9XuXtXFXwX2X0X0X0XaXaXeXwXqXqX2XeX5X4XqX5X6X5X2X1X2X0X0X#X X@XyX5X9XwX4X#X4X5X7XyXyXGXyX5X1XU.5XyX8XyX1XiX5X5XyX0X9XqX X1XyX XyXOX5XGXqXFX5X+XyXqXqX5X8X>XGXyXtXOXtXeX+X1XrX$X X3XtX+X3XtXtXuX8X3X8X%X$X3X.X{.%XoX+X&X%X{.%X.X{..X&X&XaX%X:XrX&X1.&X%X.XpX%X#X.XpXeXiX9X0X%X9X",
"%X#XE.FXqX/.<XwXqX@Xd.Q.wXwXyXwXE.#X@XwX2X XE.#XuX@X$X XwX@XwX#X/.aXaX{.aXuXQ.aXaX#XaXwX#X9X@X#XqX2X,XeXuX2X%XyX0X2X9X%XFX5X2XqXeXyX#X%X0XtX%XrX0XW.aXuX#XwXaXW.aX0XR.0XtX%XtXaX&X$XyX%X$XtX3X%X9XaXaX%XtXeX9X0X1XiXtXtXeX%XyXpX%XrXaX$XeX.XeXrX$XuX$XeX3XtXtXeX3X3X3X3XeXtXeX$XeXeXrXtXrXtXeXtX$X8X%X+X%XtX6X+X9XeXyXeX2XtXiX9XyXyX5X$X$XeX$X{.uX&X+X%X%X8XP.3XrXeX3X+XtX3X8X@XrX$XeXeX3X8X$XeXeXeXeXtX8XyX8XqX5X7X5XyX5X5XeXqX4XqXwX4XwX0X2X2XtXoX+XU.U.,.%.} } D - A S A F F $.&.] M.S.(.-X).)._.'._.:X-X-X-XNXhXhXNXVXVXhXnXcXcXjXNXCXsXJXkXkXJXjXKXjXNXVXlXBXBXlXgXZXNXxXxXzXZXjXbXnXzXbXZXgXzXzXzXZXNXkXBXzXbXBXCXhXZXjXVXxXMX[.MXlX[.gXzXgXgXsX].gXfX].gXfXgX_.fX_.sX)._._.).).`.`.`.H.J.Z.n.n.C.v.v.V.M.M.$.$.J H $.#.H F S W G Z Z A A A S A L A 5 5 7 2 1 2 < > h 1 * < 1 < = = ; < . # o # #     ; # ; ; O @ O @ 9 @ $ # o $ $ w : o o 9 # # O # @ # o : o @ w 9 w o % O O , & - . 6 T.7Xg.oX,X2X6XqX<X7XqXHXwX7XwXqX9XQ.2X@X2XE.Q.aXoX4X<XyXyX>X>X<XqXwX!.<XQ.yX4X<XwXuXd.wXuXf.9XGX@XwXW.9X,XqXFXqXqXqX4X9X9X5X9X6XqX<X9X9XwX0X2XqX9X0X0XwXqXaX@X0XaX0X0X0XyXwXuX0X6XyXyXqX5X5XqX3X5X0XeXuX2X.X@XwX0X3X5XoX9X@X5XqXyXyX5X8XyXyXyX6XyXtX8XyX5XiXeX5XtX0X9X9X2XwXyX9XyXP.yX8X6XyX8X7XGX7XqX6XuX6XyXyXeX5XtX+X$XrXtX0X.X@X9X2XeX$X{.{..X%X$X%X$XpX%X%XeX%X%XrX%X+X%X$X{.3XtX1.{.0XpX$XaXrXpXaX.X%X+X%XrXtX%XtX0X0X%XyX",
"@XuX0XqXW.,X0XE.wX@X2XQ.GX#XGXqXwXyX0XaXaX$X.XaXeX#X9XR. X#X@XaXwXaXrXE.aXrXaXuXaXaXwXaX2XuXqX4XqXeXXXyXqX$XwXrX3X0X4X2XFXyXeXFXtXtX3XeX9XtX9XtX0XaXwX%X#X0XyX#X0XrXaX0XtX%XuXtX@X%XtXeX&XtXrXaXaXrXyXrXeX3X3XeX+X5X3XrX0X$XrXaX$XrX$XaXrX{.%X%X0XpXrXiXtXtXtXeX$X%XrXeX$XrXeX.XtXtXrX3X$X%X3X3XeXeX5XtXtXtX$X3XtXyXeX5X1XyXyX6XoX5XiXyX$XiXtXrXiX3X%XtXtXtX+XeX$XeXrX%XrX.X8X%XtX3XrX3X%XeX8XeXeXtXyXeXGXyX8XHX5X>X7XqX7X6XqX4X5X7XqX7X5XwXXX3X{.P.U.<.<.G Z D = - - A A C G #.N.S.I.D.(.*XG.n.-X-X_.'.fXcXMXlXcXkXcXbXcXvXjXCXVXZXcXnXCX_.VXfXbXZXhXcXjXcXZXkXbXBXBX[.BXbXBXNXbXZXgXCXJXkXjXBXCXBXbXgXBXBXbXzXbXjXbXCXsXZXfXbXMXlX[.MXzX[.gXxXlX[.[.).jXlXsXfXfXgX_.fX].sX_._.-X).(.(.G.`.Z.Z.n.n.C.C.V.v.v.V.M.' &.' ' $.$.F ` W *.F U S U S A L 5 A A 5 A V 2 L 5 2 1 5 2 ; , 1 , , < < , % % e : e ; : r ; . O ; ; @ @ O 9 w @ o $ @ @ @ o : u ; u y w ; # # $ @ : w w e #   % , 1 = L - = d.6Xg.OX|.1X4X4X<XqX<XHX7X<XwX<X0XwX0XQ.R.E.wXaX#X9X6XwX4X,X7XqXQ.<XqXqXf.Q.<XqX!.E.yX4X,XwXXX4XFXwXwX2XwX@X,XwXqXqX4X4XqX<X2XXX9XqXyX9X1XyXwXrX9XqX9X@XwXqXyX9XwXaXyX9X0X9XuX0X6XyXqXyX5X5XyX1X1X0X0X9X.X9XtX0X1XyX1X,X5XGXeX5X7X8XoX,X6X8XGXyXyXGXeXyX5XtXeX5X9X0X9XqX9XeXyXuXyX6XFXqX6X5XyXFXyX6XyX5XFX6X6XyX6XeXeXOX3X5X3X8X%X.X.X.X3X%X2X3X3XrX3X3X.XtX+X%XtX%X%XrX$X0X%X&XpXrX&X0X&X%X&XaXrX3X{.%X$XrX{.tXrXaXR.%XeXrX$XaX",
"uX9X#X0XE.E. XE.#X2X4X@XqX,XyX9XaX0XaXwXW.R.#X{.0X#XtXW.R.aX@XwXuXR.uXR.$X$XeXrX2X0XyX2X6XqXqX2X7XFX7X5X1X9X9XeX X$X0XwXFX9X0XtXeXyX3X9X9X9X9X9X0XtXuXQ.qXyXiX0XrX0XrX0XrX@XeXuXrXrXiXpX&XrX3XpX%XrXrX3XeXeX3XrXtXeXtXtXtXtXtXtX0XrX$XeXuX&X0X.X.X3X3XeX1X1X3X%XtXrXtXeX%XrXrX.XeX%X3X%X3X3XrX3X6XtX5XtXrX3X.X3X3X9XyXeX9XtXuXFXyX5XFXiX$X5X.X$XiXtXrX$XoXtX$X%X%XpXtXrXtX3XrXeXtX6X8X3X8X5XeXeXeXeXqX9XqXqX7XyXqX<X7XqX4X<X5X4XqX<XHX4X5XyXW.4XOXg.T.P.#.Z D Z C A L Z 5 G G G $.&.M.V.V.H.*X-X_.(.:X_.lX_.fXfXfXjXbXjXfXdXjXnXNXZXVXNXCXjXNXdXCXKXbXCXNXkXZXcXlXAXZXkXZXAXAXzXzXZXgXNXZXNXzXzXNXNXBXzXBXNXbXbXbXcXZXBX].CXjXzXzXxXgXxXzX[.lXzXgXgXgX].jXgX].sXfX[._.fX[.]._.)._._.).`.`.H.`.Z.H.n.C.C.n.V.V.V.M.' $.' $.H ` H H S F Z S A U A A D A A 5 A A A 5 2 2 2 2 < 3 < , 1 < < < * < ; . O O o # O u . O ; u : w + @ @ $ # o @ o @ w @ @ u ; : s @ O # . O @ $ @ @ u 9   . i < g g 5 = { oXT.1X|.3X,XXX<XqX>XHXwX<XqX2XwXyXrX9X#XwXaXaX,X$XwX#X$X4X>X4X7X4XqX>XQ.qX9XXXXXqX4XW.f.@XyX,XE.Q.qX#X$XuXuX<X,X<X$X9XqX4XeX1XqX5X2X2X9XyXqXqX$XqX9X0X9XuXrX0X0X@XyXyX5X9XGX5X6XyXqXyX5X4XyX2X6X8X5X3X XtXuX5X1XyX$X$X6XyX1XOX8XyX6X8XeXyXyX8X6XeXeXyX9XyX5XeX9X0X0X9X9X9X9X9XqX6XIXyX5X6X5XGX5X1XyX5XyX@X7XuXyX6XeXrX3X$X0XP.%XtXtX3XtXtXrX1.3XrXrXaX{.rX$XeX5X%X+X%X$XrX%X.XeX%X1.rX&X%X&X&X&X.X{.eX:XeX{.rX{.%XeXtX%XW.W.yX",
"aX0XaX&XE.aXaXE.@X9XE.4X$XyXqX2XuXaX0XuXaXaXwXaXyXaXyX#X#XyXwX#X0X/.aXR. X.XeX3X X%X9X$X$X1X5X2XyXqX6XyX9X@X@X9X#X$XaX0X9X2X$X2XyXyXqX9X9X0X9X0XwXyXtXwXuX,XqXuXFXwXuX0XtX0XaX0XiXrXrXeX%XpX%XrX%X%X.X&X%XrX8X5X5X$X+X6X8X5X8X8X9X%X$XeXuX3XrX+XeXtXtXtXeXtXiXtXtXtXeX%XeXuXtX$XeX$X3XtXiXtXiX.X3XiXtXtX5XrXeXeXtXuXuXtXyX9X4X3XeX6X>X1X5XuXtX%XiXtXtX3X6XtX3XeX%X%X&X$X8X3X3X3XrX8X3X5XeXeXeX6XqXqXqXqXqXyXHX7XqXwXqXqXqXqXqX4XqX>XyX6X4XqX|.8XP.U.P.%.F 7 - 7 5 - A 5 A U U #.$.V.D.*X*X).(.).hX).lX-XNX-XhXkX_.hXcXcXCXnXjXdXjXNXNXbXVXbXbX-XnXCXhXVXvXjXNXfXxXMXMXlXAXZXMXfXzXBX[.zXCXbXzXbXbXkXZXCXzXgXkXZXBXxXZXBXjXCXkXbXMXzXlXxXlXgXMXMXgXgXgXsXlXjX].sXfXfX[.gX[._._.`.sX_._.(.(.`.`.Z.Z.Z.n.C.M.v.V.M.] ' $.' M.H &.F $.F H S F F W S A P A A Z 2 A L 2 2 2 2 < * < 2 < 1 = < < * < ; % : o O ; < j : : O . @ : ; @ @ e @ % o o $ w O o 9 # # O # # O   O   # + + u t @   : O ,   ; = 7 s.@X1X|.0X2X2X7XqX7XqX>X>XwXwX@X@X#X0XR.Q.Q.R.qX#X1X,XwX2XW.4XyX<XqXQ.,XqX<X<X4X5XXX4XGX2XXX9X2X,XE.uXwX.X,X2X2X9X4X9X9X3XqX5XqXXX,X2XyX4XqXuX2X0X2X0X0X0XwX0XyX2XuXqX9X4XyXqX5XyX8X5X0X5XeX3X5XeXtXeX2X3X0X5XtXyXuXyXFX6X6XqXyXyXqXyXyXyXiXyX6X8XyXuXtXtXtXtXtXyXyXyXyX0X5X9X4X,XeXqX5X7X5XqXqX4X5X6X6XoXyXFX5X5XeXGXpX3X3XoX3X%X@X{.$X0XuX.X3X3XeXeX&XrXrXpX%X8X.XeX%XpX%X$X.XpX%XrX%XrXiX0X3X:XrXaX3X{.&X%XrX.X.X$X0XrXaXrX",
"$X0XtX#X#X0X#X/.XX1X X9XW.#XwX0XwXaXwXrXwX#X#X#XqX9X#X@XW.,X#XQ.2XW.%X#X.X{.0X%X.X0X9X$X9XwXuXyXyX>X>XyXqX@X{.9XyX0X0XaX%X9XeX2XqXuXuXyX9XqXqXqXwXqX9X9XyX<X4X9XuXqXqXtXuXuXeX0XFXrX0XaXrXiXaX;X:X%X&XrXeXiXrXtX5X$X3X8X3X6X6X8XeX%X0XeXtX1X3X3XtX3XeXeX3XeXeXeXeX3X%X$XrXtXtX%XtX3X5XtXtX3XtX.X%X8X$X3X$X3XeX6XR.@X1X4XyXuXtXqXFXFXyX6XtXuXiX3X3X.X$XtXeX8XP.8XtXrX$X1XtXtXtXeX8X3X3XrXeXeXeX6XqXqXqXGXqXGXGX5XHXGXHXqXHXqXqX7X7X7X7X7X4X,XOX7XP.6Xs.Z F - = A L 2 2 5 C - Z ` ` ] V.V.C.(.(.)._.'._.`.hXhXjXkX_.bXVXbXNXbXbXCXjXVXVXVXbXgXcXsXNXkXjXbXbXbXJXCXlXBXMXMXzXBXzXzXBXZXgXMXBXMXMXNXBXxXCXBXlXjXxXJXbXsXbXBXzXBXfXxXMXMXgXMXxXgXzXxXfXxXfXgXgXjXgXjXlXfX[.[.[._.[.)._._._.`.`.`.H.Z.H.n.V.n.v.v.V.v.] &.M.' $.` &.J ` H F F F G U U A D A A A - A 5 2 5 1 A 2 = < 2 2 1 1 1 , < 3 < < : O : ; : i : @ .   O w w O o e e w + # $ w # : u 9 u u @ ; u # #   o + # 9 u u # # # : . O < & _ oXoX{.0X2XqX9X<X7X7X<X<X<XwXwX0XwX0X2XaX0X9X9X@X#XwXqXwXXXwXwX~.Q.<X4X>X@XqX5X<X@X X6XwXoXeXqX#XuXQ.2X9XwX0X9XyXeX9X2X@XwX0X0X X4X4XGXXXqXuX9XyX0XwX0XwX0X9XFX4XuXyXqX4X4X5X7XqX5X5XyXeX$X3X3X3X3X1X3X.X$X5X8X.X3X5X8XoX6X8X5X6XT.$X6X1XeX8X6X5XtXtXtXtXtXuXqXyXuXuX4XqXyXuX5XeX4XyX8XyXGXGXyXqX6XyX6X6XuXtXoXiX1XeXuXeX%XtXeX0X2X%X3X$X3X{.pXtXtXrX&X$X+XrX{.eX%X%XrXeX%X%X&X%XrXrX.X1.aXpXtX&X.X{.%X%XtX$X$X$XrXaX#XaXtXPX",
"0X0XrX#X$X%X$X$XiX%X@X0XwX XqX X0XuXuX#XaXaX#X#XyXFXW.yXQ.#X9X0X@X2X%X{..XE.+X.X{.aX0X#X2X6XqXqXyXqX5X,X2XuX2X0XrX0X0XtX9XuXuX@XuXuXGXyXqXqXuXyXyXuXwXuXqXGXFX4XqXuX2XyXyXFXuXpX%XaXtX%X%XrX&XrX%X%X%XpXrXrX8X3X8X8XeXeX5X+X6XFXtX%XtXtXeX$X3XtXtXeXtXtXrXyXyX8X3XrXeX%X3XeX%X0XiXtXiXiXeX XiXtXrX3X.XtXeXtXuX5X1XFXIXuXyXyXqX9XqXuX5XeXiXoXeXtXtXeXeXtXeXyXoX$XtXrX.X+X3XeXrXrX3X3X1X8X3X5XtX5XwXwXGXHXqXHXGX7XwXGXGXqXqXGXqXqXyXGX6XqX4XXX6X5Xs.U.;.- 7 - A I L A A - A #.#.#.&.&.D.Z.Z._.(.`._._.hXfXhXhX-XcXhXnXbXjXnXjXbXCXcXjXsXcXCXVXJXzXCXbXJXbXBXsXJXJXxXZXzXMXzXZXMXgXkXZXxXlXxXBXBXlXCXkXzXbXkXCXNXBX].gXCXCXgXCXgXbXMXxX[.MXMXlXzXxXlXBX[.lXsXjXfXlXkXlXfXgX_._.[.`._._.).`.`.`.Z.`.Z.C.n.V.n.n.n.v.] M.M.` &.J m.F #.H #.` U S F U A P L I A A D 5 2 2 L L 2 2 2 = 2 5 1 1 1 < < < < : ; , O . : O O O ; : w @ # # @ : w @ o r y @ # w ; : u # @ @ O # # $ w # @ 8 8 u @ # ; : i ,   6 >X@X@X2XR.$X4X~.wX<XqXqX<X>X9X9X9X#X#X#X0X@XaX0X#X%X0X1XwX#XXXqXQ.<X7X#X<X4XXX@X9XqX|.,X9Xf.@X0X$XwX0XGXiX9X1X9X5X2X$XoXyXyXeX#X2X#XiX@X9X2X@XuXyXqX0XyX0X2XuX@XqXqXyXeX9XyXyX4X5X5XuXyX|.3XyXeX3X.X5X6XeXyX5X1X1XyX6XyXyXyXyX8XOX$X3X6X5X5X8X5X8X8XtXeXtXeX0X0XuXwX@X2XuXuX5XGX5XFXyX6XyXyXyXuX6XFXyXtXGX5X1X8X.XtX+X6X3X3X3X9X3X.X.XrXiX.XrX%X0X3X+X&X.X%X{.iX%X3XrX%X0XrX.X%XrXpX%X:X&X%XeX}.}.rX$XrXiX3X0X&XrX0X9XtXrX9X",
"rX0XrX1. X%XaXaXuX%X9X9X$X,.FXuX%XrXyXDX0X{.0XE.yXuXwXqX#X,X6XQ.d.2X0X{.{.$X%X.X$X$X.X3X0XwXqXuXGXyXHX6X1XOX0XeXtX0X%X$XtX0XeXtXqXqXqXGXyXyXqXGXyX4XFXyXyX<XyXqXGXuXyX0X9XuX0XrXtXrX3X{.rX:XrXpX&X&XeX%XrXpXaX3X%XeX3XiXyXyX6XtX$X3XeXeXyX%X&XuX3XtX3X%XtXrXeXeXrXrXtX&XiX0X0XtX3XtXeX3X3X8X8XFXtXiX5XFXqX.X5X2X5XuX4XuX2XXXwX4XyXyXGXtXyX+X6XiXeXeX3XtX5X3X5X6X3X%X$X%X$XuXrX%XoX5XeX6X5XeXeXyXyX<XqXGXqXGXGXHXwX^.wXGX5XHXyX7XGX7X6XyXk.5X@Xs.6Xy.Z - 7 A A 5 L 2 A - P } #.&.M.<.V.D.D.).-X).`.-XlX-XsXjX_.hXhXcXVXnXBXbXjXjXbXbXZXjXjXxXJXkXjXCXCXbXZXsXjXzXgXBXlXBXgXNXBXzXBXBXgXzXzXZXbX].ZXxXxXBXMXMXlXBXgXNXzXBXBXxXzXzXMXlXlXxXMXlXxXMXxXgXkX[.gXkXfXgXkXfXgX].fX_._.[.`.fX).`.`.Z.`.Z.`.n.n.n.Z.V.V.V.M.v.] &.&.` &.F $.F &.#.W F U S Z P Z A L A A 2 2 2 A 2 L 2 2 2 * h > 2 p h * 2 > 1 ; < ; < % ; , O w   u w O # o @ o @ @ w : o   o O m :   # ; . #   O @ u @ + @ t # @   u . O & & d.1XOXg.$XoX#X5X4X>XwX<X~.qXyXqXwXaXE.wX%XR.aXR.wX0XQ.R.2X#XE.qXGX<XQ.4XGX4X2XqXeXyXeX9XqX3XyX0X0XuXtX X2XeX9XtX X$XiXOX0XtXwXrX#XqXuXyXaXaXwX9XeX2X9XyX0X9X9X0XwXqXuXqXyX9XqX5X5XyXyXeX0X5XeX1X1XeXyX3XeXtX+XyXuX+XoXyXyX5XeX3X8X5XFXGX3XeX2X3X3XeXFXtXrX$XrXuXuXwX9XuXuXrX6XyX5XGXyXyX+XqXGXyXyXyX5X XtXeX6XtX8X@X6X6X+XrX0X3X0X$XtX3XrX X%XrXaX&XrXrX8XrX{.rX$XrXtX.X%XrX%XrXrX{.%X%XpX%XP.%XpX%X&X3X3X$X3XiXrXFXtX9XtX0X",
"aXaXrXaX0XrX0X#X2X$XeXtX@X2X0XR.aXwXaXrX0X&XwXW.yXyXwX9X<X4XyXqX2X2X.XE.{..X%X3X%X$XrXtXtXyXFXuXyX7X8X8XqX5X5X3X0X$X%X$X3X3XeX9XqXGXuXGXGXyXqXqXyX7XqX7XGX5XyX7XwXqXyXqXuXuX0X0X3X3XrX{.rXrXrX%X:X8XrX%XrXtXrX8XrXiX8XiX8XeX6XiX3XeXtXtXuXaX XaXrXiXeX{.$XrXtX%X0X0XuXaXiXrX3X%X%XtXyX+X1XtXyXtX6XeX1XuXuXeX3XoXeXyX6X4X4X<XtXFXGXyX7XqXyXyXyXFX1X3X5XtX5X6X8XyXyXtX3XtX3X3XeXeXeXiXtXeXeXeX5XeXqXwXHXGXwXGXGXHXHXGXwXGXqXHXyX5X8X7X6X7Xg.1X1X+Xs.#.- - Z 2 L L A 2 2 - A W #.%.&.V.V.C.C.`.(.(.-X-X`.`.sXkXhXcXgXjXjXkXgXH.nXBXjXzXnXCXnXjXZXbXbXCXbXkXCXsXnXCX[.BXgXzXxXCXBXxXZXBXxXBXzXBXzX[.ZXxXgXMXxXMXzXZXzXzXzXBXzXxXxXlXMXMXxXMXMXlXgX[.lXfXjXfXkXjXgXgXlX[.gX_.fX[._.fX`.[._.`.`.`.`.J.Z.n.C.v.n.v.V.v.V.M.M.] v.' M.J &.` =.#.F S F Z D U P L D A A A 5 2 2 1 5 2 2 1 * 1 3 = = 1 ; < < i , > O : : u $ O ; . w ; @ # o o @ o @ $ @ @ # O O b @ # @ : # O . @ o w 8 9 @ @ X u @ u @ i 4   7 oX6XOX#Xf.wX4X4X7X7XQ.,XqXqXuX0X0XW.aXaX#XaX X#XaX#XaX0XwXQ.<X<X<X<XqXyX#X,X4X2X1X@XoX3X3X9X9X#XQ.@X0XtX9X0X2X#X$X1X|.$X3X#XrXwXuX0XwX0XwXuX9X0X9XuXqX$XwXrXwXuXuXuXwXqXyXyXqX5X5X9XtXtXtX$XoX$X3XeX5X1X$XoX@X6XoX5X@X8X5X+X6XeX@X8XuX5XeX%XtXtXtXiXiXtX0X0XqXyX0XwX0X9X0X@X,X@XyXGXFXGXFXIXtX2X6XyX2XyXeXeXtXyX5XtXtXeX8X0X0X%X X%X+XtX%X3XrX%X%X%X%X3XrX.X8X%X+XiXrXrX{.}.{.%X&XpXaX%X&X%X$X&X%X%X{.{.&X%XtXeXrXrXR.0XaX",
"rXaX0X0XaXrX0XaX2X2XqX0X@X9X0X XrX#X0X0X0X#XaXQ.qXwX0XXXQ.Q.,X,X9X2X#X.X.X&X&X%X.X{.rX0X3X$XyX2XGX5X6XqXyXeX0XeX9XaXtX9XeXyXFXtXqXuXGXuXGXuXGXGXqX7XqX6XGXGXuX5XrXwXtXyXuX9X0X9XeXtXtX$XrX3X8X%XrXrXpX%X%XrXaXrX8XtX6XeX$X3X1XtXrXeXtXeXtX0X#XuXtXtXtXeXrXtXrXrXrXrXrXaXaXtXtXiX3XtXeXeXuXuXeXtX0XyXOX{.oXeX0XqX6X4X9XyXGXuXuXuXqXGX6XyXqXuX8X5X8X5XtXyXtX6XeXyX3XrXg.+XoX.X3X3X$X3X3X1X8X5X8XqXqXwXqXHXGXHXHXGXqXHXHXGXHXqX7X7X7X8X8X7X6X+XOXs.} U 7 V Z 5 L 5 L L 5 A U #.#.&.A.D.G.(.Z.)._.(._._._._.hXnXsXvXdXcXbXjXnXNXnXxXZXBXjXBXnXgXCXxXkXnXBXbXZXsXZXZXsXJXBXbXgXxXxXxXZXzXgXBXBXZXMXMXKXNXgXZXzXzXxXBXNXxXzXbXlXxXzXxXxXMXgXlXxXMXzX[.zXlXgXgXxXjXxXhXlXsX[.[.fX[.[._.)._._.`.`.n.`.`.Z.Z.Z.n.v.v.C.v.v.] ' ' ' ' v.H ' H $.H F F W U A W U D A 5 5 A A 2 L 2 A 2 A 5 3 1 3 < 3 L g 1 * > < ; . ; O : @ ; 9 # w @ O @ O @ o o o @ @ o @ @ @ r @ # @ O u u # o + w 9 e + #   9   O # O 4 .   T.OXoX,Xg.yX,XwX7X<X~.7XwX@XwXwX@XR.#XQ.#XwXE.#X#XwXwX0XwXd.~.wX>XQ.XX>X@X X6X5X9X5X5XtXeXqXrX0XaX2XeXtX0XeX$X0XrXoX%X%X5X XaXyXuX2XaXuX0XuX9XwXwXqX9X#X2XwXrXyXFXyXwX9XyX5XqXeX5XeXyXyXeX1X$X$X1X9X9X9XwX9XeX6X5XuX6XeX2XyXiXiX3X3XtX$X8X3XtXtXtXtXtXrXtXuXuXuXyX0X9XyXyXuX5X@XyXtXGXtX8X2X2X@X$XeX$X9XuX5XeXeXeXyXtX5X$X%X0X0X&X$X{.aX&X8X%X%X%X$X+X%XpX{.3X&X.XrX%X$XP.pX$X%XaXrXrX&XeX&X%XtXrX3X$X0XpXIXpX%XeXDX0XtX%X",
"uX0X%XrX#X0X0X0XtXtXwX$XqXE.uXuXtXaXDXuXrXaX0XwXwX<XqX<X<X7X<X7X@X0XrX2X%XeX.X%X:X%XiXrX0X2XFX0XGXyX6XyX5XeXeXFX0XaXtX0X3XtXiX5XqXqXqXwXwXqXGXqX5XyXyX7XGXyXyXyXyX9XrXuX9XaX9XrXtXrXtXrXtX%X3XrX3X3XtXeXrX%XeXaX3X%X%X5X+X1XoXtX5X3XrX0XrXaXaXuX$X%XrXtXpXpX0XrXaXrXtXrX@XrX$X.X3X3X8XeXtXeX6XyXeXuXtXeXyXiX2XyXeX5XuXqXFXqXqX<X7XFXqX8X6XuX4X6XFXyXtXyXFXyX5X6XtXtX.X3XtXtXtXtX5XeXtXeXyXyX8X4XqXHXGXwXHXyXHXHXHXGXGXGX8X6X6X6X6XHXyX6XqX6Xd._ F #.F A V 2 L 2 L L V A U #.$.&.V.D.G.'.Z.).H.`.-X_.-X-XhXjXdXjXnXjXhXJXbXH.CXfXjXbXCXCXbXjXZXbXhXzXbXbXCXsXCXBXgXCXbXjXBXBXNXBXBXxXxXzXxXBXxXCXMXgXgXZXNXxXMXBXBXxXNXMXxXMXzXMXxXBXlXlXxXlXMX[.zXzXsXfXkXsXxXfXfX[.fX_.fXgX-X[.`._._.).`.`.n.`.`.n.Z.n.n.v.Z.V.C.] ] ' v.&.&.` $.` &.` H F F U F Q U U U D P L L h A 2 p 2 p V 2 2 2 L 1 R P L < h h i ; 1 u r O w w O u @ : ; u y e w $ w e u O @ # u # @ + ; j y # #   @ @ w 8 t u 9   u w # < 6 & ,.k.P.6X1X6X,X4X<XwX~.qXGXqXuXrX0XaXwXaXaXaX#X#XR.0X#X@X@Xd.<XqXwX,XXX<XqXoX4X2X3X5X%X$X{.aX0XtX0XtX.X0X3X3X$X$X3X$XrX3X3XE.aXyXuX#XaX0X0X9X9XtX0X0X9X9XyXuXyX9XyX0XuXyX9X6X5X5X5X5X9X5X6X$X5XtXtXtX3X X1.1XiXOXyX6X5X4X1X5X3XoX3XrXtX3XtXrX3X%XrXrXeX%XuXeXuXyXwX0X9X9XyXeX7X5XyX5XqXyXyXeXuXyXtXuX2X$XuX3X4X8XeXeXeXeX$X%XeXtX0XrX$X0X.XrXeXeXaX%X%X:XrX{.8X.XrX$X$X&X0XiXaX&X{.{.aX{.$X.X&X{.{.3XrX%X$XrX3X XtX0X$X$XwX",
"0XaXaXDX#X9X9X0X9X9X9X4XGX XqXuX0X&XiXuX0XaX#XaX1X!.<XQ.7X<X<X>XwX0X0XaXaXaXaXrX.X{.rX%X@X#XuX,XyXyXeXuX8X8XeXpX0X%XtX3X0XtXFX6XFXyXFXGXFXyXuX4XqXtXyX6XyX7X5X5XuXiXuXiXtX9XuXuXtX3X3XeXeX$XtXuXtX%XiXeXtX.XrX0X3X%X0XiXeXeX2XuX$X%XtXrXrXaX#XaXaXaXuXaX%XrXrXrX&XrXiXiX%XtX3X$X3XtXeX$X6XtXyXtXoX0X5XeXeX5Xf.|.GX9X9XXX9XyXFXFXFXIXyX7XoXyX4X2XiXqXyX5XGXyX6X7X@X0XeXeX3XeX$X$X5XeXuXeXuX5X5X5XwXGXwXwXGXHXqXGXqXGX8XGX8X7X8X8X8X7X8X6X8XP.a.D } #.D Z 2 5 L 2 p L - A } ` &.&.S.*X*X*X*XdX-X-X_._.lX:XlXlXhXbXkXnXnXjXjXxXnXBXbXjXBXxXbXCXZXjXCXCXCXNXZXsXZXZXgXZXnXgXBXbXgXgXBXBXMXxXxXNX].BXzXxXxXCXBXlXMXBXxXMXMXMXzXMX[.xX[.MXgXlXzXMXBXgXzXzXsXfXkX].kXfXlXsXfXsXfXfX_._._.)._._.`.`.`.Z.`.n.n.Z.Z.v.n.V.S.V.V.] M.] ' [ ` ` &.` H F H #.Z D Z V Z 5 Z 2 A h V L h V 2 2 2 3 = L K E L K 3 1 2 1 ; < O ; # : @ @ ; @ ; @ o @ o # # # o # # # # : # ; @ @ y r # @   o o $   o % X   o $   O <   7 OXd.>X$XQ.4X4XQ.7X<X4XqXwX0X2XQ.#X#XR.#X%X@X@XE.qXQ. X XQ.>XwX<X<X4X<XyXyXyX1X3X3X3XeX8X0X$XrX%XtXE.eXiX@XeX$X%X8X5X3XrX#XrXwXrX0XqX0XrX0X0X0X@X@X9X2XwX0XwX9X9X4XGXqX5X6X5X7XoX$X6XyXeXoX$X%X#X@X9XyXrXoXtX XeX@X2X5X9XuXiX$XeXtXtX$X3XtX3X%XrXrXuXaXiXyXrXyX9XyXuXyXqXeX6XyXGXyX8XyXGXeXuX0X0XyXaX.XtX5XeXtXeX8X8X8X9XrXeXrX0XaX%XpXaX3XrXrXaX%XrXrX%XaXrX{.rXrX3X.XrXaXeX%X%X%XrX&X&XDX8X.XrXtXrX&X%XtXrX%XFXtXrXrXiX",
"#XaXwXiX0XrXqXrXqX$XeXwX9XuX#XqXiXaXiXiXyXyXwX0XqX,X<X<X7X4X7X7XyXaX#X0XaXpX&XaX&X&XtX:XaX0XuXaXyX8X5XtXtXyXeX3XtXtXtXeXyXiXFX7XuX4XGXyXyX4XqX4XGXyX8X7X8XqX8XyX$X0X0XtXaX$XyX0XtXtXeXeXeX3XiXrXuX8XtXeXtX.XrX0XrX%XrXiXtXyX0XtX3XrXpXtXrXaXaXaXrXaXDXrXaXrXrXiXaXrXtXrX3XtXrXeX3XtXeX3XyXuXtXFXeXyXoX1X9XyX5XyXIXFXGX4X9XqXqXwXHXyX<X6X5XFXFXFXyXeXtX5XuX5X$XeXeX9XeXtX3XtX0X2XeXyXuX5XGXeXuXuXwXGXGXHXHXGXqXGXqXwX6XHX8XyXHX8X8X8X6X8X$X>.%.F -.*.S V A 2 L L A L 2 U *.} ;.&.%.V.M.n.C.(.H.(._.'.-X-XjXjXdXhXgX=XdXnXbXsXCXbXbXkXCXkXfXxXbXbXnXBXbXzXBX].nXCX].nXBXxXbXnXxXxXBXBXzXzXZXZX[.NXZXBXBXMXMXgXxXBXxXMXMXMXMXBXgXMXxXBXlXlXlXgXlX].kXlX[.gXkX].jXsXfXfXsX[._.fX_._.).`._._.`.`.n.`.`.n.C.Z.Z.v.v.v.v.[ v.' M.] &.] J ` ` H F #.} $.F U P D U L D A 2 2 1 L 2 5 2 2 5 2 * 2 2 L p 2 p 5 1 Y p r : r # u o : : O w @ w e e w $ $ $ O # # ; u O u @ ; u w # : # + o $ $ @ % w @ O O $ e f & & T.>X5XoXW.eX4XXX,X7X>XwXuXqX0X#XwX#XwXaX#X#X#XQ.wX@X#XQ.~.Q.<XQ.Q.#XW.,X9X5X X X%X1XeX%X0X$XaX#XuX$XuXrX2XiX%X3XrX3X3XtXaXyXwXaX0XrXwXuXuX9X0XwXuXuX9X9XaX#X0XiX0XuX1XyX4X5X5X6X1X5X5X5X5XeX9XqX9X9X0X0X9XeX9XyXyXXX9XuX$XtX3XeX5XiXtXtX0XrX3XeX0XDXaXeXuXuXqXuXuXuXuXuXGXyXuXuXGXyXyXyX1XyXuXuXDXuX2XFXtXtXuXeX8X4X8XtXeXeXaX0XeX%XtXrXaXrXrX%X:XrXeX&X3X3X3X%XrXrX%X.X.X%X&XrXaXaX&X+XrXrXrXrX%X.XeXtXiX{.+XaXyX%XtXtX",
"#X9X$XyX@X0X9XqXyXwXyX2X<XuXwXyXrXaXaXiX%X0X#XQ.2XQ.f.>X>X<X7X7XuXaX%XuXrXDX&X&XaX%XrX:X0XaXrXwX8X8XyXeXyXtXtXeXrXeXtX3XeXyXtX8XFX<XyXyXuX5XGXiXGX8X8X8XyXyXuXiX5XtXpXFXtXtXDX0XFXuXeXiXuXeXFX4XyXeXyXtXeX%XuXaXtX@XrXtXrXrX0XuXpX0XpXyXrXaXrXiXiX&XpXpXrXaXaXrXaXrXrX0XrXrX.X{.3X$X$X5XuX8X6XyX6XeX@X5X9XuXGXeXQ.9X9XyXyXGXFXyXGXGXyXqXqXeX,X@X5XyXtXyXyXyXoXeXFX3X.XeX$X0XtXyX5XeXuX$X5XoX3XqXwXHXGXqXqXGXqXHXqX5X6XyX7XHX8X8X8X8X6X8XR._ %.} s.=.S A A V Y 5 L A - D *.F ;.A.A.*XD.(.=X-X=XfX[.`.-X`._.hXhXjXcXnXJXcXjXjXjXZXgXgXjXnXjXCXzXsXbXBXbXbXZXsXBXCXgXCXnXnXgXJXxX].CXzXgXxXBXJXxXzXzXzXzXxXMXMXxXBXxXMXlXxX[.xX[.xXlXlXxXgXgXgXkXlXlXjXfXgXkXsXjXfX_.fXfXfX[.-X`.)._.`.-X).`.`.`.`.(.Z.Z.Z.'.n.n.v.v.[ V.] M.V.M.M.' %.` ` G F S F P *.D S P A A A 5 A 2 V 2 5 2 2 2 2 * 2 2 2 3 L 2 3 ; h , ; . r . y o r w : u : w w : w w w @ # @ # : w # s + @ u w o $ o @ X & % % o O o     o # e 4   6 XX,Xg.|.9X6X<XXX4X>X4XGXwXwX@XwX2XwX%X{. X#X X0X2X@XXXXX~.qX<XE.Q.W.<XyXyX5XrX5X3X3X.X$X$X#X#X0XaXeX{.3X%X$X{.3X3X3XtXaX#X#XaX$X0XaXuXwX$X@X,XqX9X@X$XwX&X0XuX9XuX$X9X4X7XqXyXqX6X2X@X9X2X#X@XaX0X9XqX4X,X4X,XeX@X4XqX1XFX3XeX$XrX3X%X%XaXrX0XaXDXaXaXrXwX0XqXyXqXqXyXqX5XyXyXFXGXFXFX$XyXuXDXuX9X XyXtXiXyXeXyXeX5XtX0X0X0XrXeX%XrXaX3XrXaX%X%XrX%X%XeXrXiX%XiX%X&X%XrXpX%XrXrX%XrXtX%X%X%X+X{.tXiX+XrX.XrXtXaX XrXuX",
"#XeX$X0X0XwX9X9XqX0XuXwXuX<XFXGXrXiXiXPXaX0X@XQ.yX9XQ.qX7X<X7X7XqXeXuXtXaXDX&X%X&X%XaXaXaX0XrXrX8XyXiX1X3X3XuXiX2XrXtX3XyXeXyXqXFX<XyXtXGX5XGXyXFXqXGXGXyXyXtXFX3XtXtXuX3XeXFX%XFXeXoXGXuX3XuXeX3XuXyXFX3XpXiXaXiX&XrXeXrXuXrXFXrX0XpXtXrXrXaXaXrX&X:XaXaXpX:XpXaX:X%X&XrXiXeXrXeXtX8X1XyXtXeX5X5XFXyXqX1X9XFX5X,XuX4XyXqXqXGXqX7XqX5X5XqX5XeXGX8X6X6X7XyXtX|.yXuX2X.XFX3X XtXyX1X6XyX4XtX5XGXFXwXGXqXqXqXHXqXwXGXHX7XyX7X8XGX8X7X8X6XT.%._ F.` y.#.Z V 2 2 L K 1 A = P #.H ;.&.V.I.G.*X=X(.Z.-X(._.lX-XfXhXcXcXjXdXjXxXCXnXzXnXzXCXxXZX].CXzXfXzXBXzXxXZXgXnXZXsXZXBXBXG.JXnXgXZXbXxXBXxXbXxXbXbXBXBXzXBXBXxXMXMXMXxXMX[.xXMXMXlXlXMXMXzXxXlXxXxXgXgXgXjXsXgXfX_.-XsXfX_.-X`.`.).`._.`.`.`.`.n.`.J.Z.n.Z.n.n.v.C.] C.] ' ' ` [ ` $.` $.` $.F U S W U S A - A A h A 2 L 2 A 2 A 2 1 3 A L 2 * Y 2 = ; L > O . b # r # u : O : O $ $ : $ u e O # o # w @ . w O # w O # O   #   X o e $ o O O # @ % . : & = OXoX6XXX,XXXqXW.7XwXqXqX#X#X#X#XQ.aXQ.W.Q. X#X4X2X@XXXW.W.qX4XQ.,X,XyX.X3X$X3X8X%X3X$X%X@X{.0X0XyX%X%XpXg..X{.8XuX3XrXQ.E.#XtXwX0XaX9X#X9XuX0XrXuX9XyX0X%X@X0X,XIX5X6X7X6X5XqXqX6X4X0X9X9X9XrXuXyXwX$X X@X$X#X4XyX9XeXtXiX.XrXeXtX5XrX@XaXrXtX0XiX#XpXuXuX9XyX9X0X9XyX6X8XyX7XtX6X8XGXuXtX0X0X9XtX$XpXeXuX8X5XiXtXeXuX%X0X%XrXeX8XtXrXaXpX8X%XrX:X%XrXeX%X%XeXrX+X{.eXeXuX{.&X.X&XrXrX.X{.aX:X&X%XrX{.uX3XtXFX9XeXeXtX",
" X@XFXFX@X9XuX4XwXGXqXqXtXQ.uXeXaXPXpX9XPX9XqX,X#X<XwXqXHX4X<X4X0X0XqXuXwXpX#XaX#X0XaXwX@XaXwXFX3XrXtXrX8X.XuXtX8XtXFX7X8XFXGXyXPX4XeXGXGX5XyXyXGXyX5XGX5XtX1XFX5X5XeXiXeXeXiX5XuXeX2XyXyX5XtXuXyXeXFXeX3XtXiX%XiX.XtXiXiXuXuX9XtXtXtXtX8X1X3XtXiX&XaXrXiXpX%XpX:X:XaXaXpXrXuXrXaXaX0XwXyXuXqX5XyXGX6XGXyX6XyX8X7XFXGX8XyX5XGXyX5X5XtXeXuX5X8XuXyXtXyX5XFXyX6X6X3XeX3XeXeX5X6X4XeXqXGXOXGX6XqXyXGXyXyXHXGXyX7XyXGXGX7X8XGXFXHX8X8X6XT.,.F.P.;.A.;.;.#.A - V A L V - - A W F &.A.v.Z.C.G.Z.(.-X-X`.[.-X[.-XfXjX-XjXCXgXZXbXkXnXNXCXbXzXbXfXBXZXxXxXbXxXgXzX].nXzX].nXzXxXxXbXfXxXCXjXbXJXxXcXCXCXBXxXMXBXMXBX[.MXlXMX[.BXxXlXMXzXzXgXzXxXlXMX].lXlXgXxXlXjXkXsXjX_.sXfX_.hX`._.-X`._.(._.`.`._.(.Z.`.'.J.n.n.n.V.C.C.M.v.v.V.V.V.' &.&.$.` &.F #.F U U U U F A A A A 5 V A L 5 p A 2 1 2 L > ; 2 p u ; Y   p : j y ; r : # O : # % O : w : w e $ + w w @   @ o   $ % O % $ o .   o o   % @ X @ #   : T < . k.T.yX.X0X2X@X@XwXQ.>XwX<X<X<X#XQ.Q.Q.#X0Xg.E.W.@XoXg.g.g.E.7X<X4X2X,X#XrX.XaX%X&X3X$X2X$XaX0X0XeX%XaXrXE.&XtX3X0X{.2X/.#XrXwX$XqXW.9X$X0XyX0XiXiX9XyXwXaXQ.DXwXwX#XwXuX1X,X,XwX0X,XqX0X2X@XrX@XR.5X4X0XqXqX0XrX0XuX0X$X$XeXrXeXeXrX3XrX$XrXtX{.pX$XiXFXtXeXyXyXtXtXyX0XuXuXFXyXFXiXuXiX@X0XuXrXuXuX0X3X3XtX3XiXiXeXrX%X0XrXtXrX3XrX%XrXtX%X%XrX%X%X8X8X&X+X%X&X{.}.rXrX:XrXF.3XrX+X{.P.aX0XrXrX&X%XrX$X+XeXyXyX7X6XFX",
"0X$X0X0X#X<XyX,X1XuXyXyX9X0XuXwX9XuXuXrXIXwXwXqXqX4XXX>XyXqX4XqXyXuXeXuX0XuXaXwX9XqXaXwX,XwXwXrX%X3X%X.XeXeXiX+X6X8XGX8XGXFXFX8XuX4XyXyXGXqXGXqXqXGXqXGXyXGXwXyXyXeXyXuXuXuXFX5XFXiXtXuXuXeXtXuX9X5XuX5X3XtXiXtXiX%XtXiXuXuXuXeXtXeXtXtXtXeXrXrXrX%XpXrX:XrX;XpXpXrX:XaXpXaXaX/.aXwXrXrXyXyXuXGXtXtX6XyXGXqXyX5X8XGX6XyXGX7X8XyXFXFXtX6XeXeXyX5X6X5X5X1XGX8X6XeXeX0X$XeX2X5XeXeXyXyXGX>XGX7XHXqXGXyXyXGXHXyXHXGX7XHXFXHXHX+XHXGXyX8X%.P.<.<.F.U.&.;.#.A V V K L L V A D #.H N.V.S.Y.Z.*X(.).-X_.-X:XhX-XfX-XhX_.jXcX].jXkXfXkXjXzXgXNXnXbX].ZXnXsXbXbXnXnXxXnXBX[.BXBXzXgXbXgXxXJXgXsXZXnXjXbXzXzXzXzXBXMXBXgXMXgXzXgXMXzX[.zXgXMXlXzXzXlXzX].gXlXgXkXhXjXjXdXjX).fXfX).sX).sX_.H.-X(.).`.Z.).`.n.Z.C.n.n.Z.Z.Z.v.v.] ] [ ] ' ' ` &.<.&.$.%.F F F H W F U P A A L V V 1 h A 2 - L 5 p 1 h > 2 > p ; ; j . i ; > > > r > O O , O % : e : $ $ w @ 9 @   + O y @ . $ % o % % O X . % % # 8 9 X $ @ @ % e & = y.1X1X{.@XQ.W. X<X#X<XqXwXQ.!.Q.Q.#XE.@X0XE. X#XwX5X,X1X,X4X9XXX~. XwXaX0X%XrXaXeX8X$X X2X@X@X%X{.}.{.{.{.%X}.{.%X X0XE.Q.aXQ.#X9X{.tX0XrXyX0XrXtXwXaXaXQ.Q.wXwXDXuXwXwXwX9XqXwXrXwX9XaX#X$X0X9X1XqX4X@X0X0X2X0XwXuX0X$X$X%X3X%X3X3X$XuX$X%XeX3XFX%XtXeX3X8XuXiXFXuX0X0X0X9XFXtXuXtXFXwX$XiXFX2X0X9X0X.X3XrX1XeXeX%XrXrX%X%XeX3X%XrXeXrXtX%X%XrX8XrXrXrX3X3XrXrXrXrXrXrX%XeXeXrX3X+XtXrXiXrX{.&XrXrX%XrX6XeX8XyXGX8XIX",
"uXuX1XwX6X@XqX2X@XyXuXqX9X0XyX9XFXuXiXyXFXyXwXyX4XqXwX7XqX9X7XuX9XyX0X9X0XrXQ.aXwX0XwX0X@XaX2X0X3XtX8X3XiXiXtX8X8X8XFX8X8XGXyX6XuXyXuXqXyXGXGXqXHXFXqXGXqXFXiXyXyX5XeXuX9XyXiXeXtXtXeXuXtX5XuXiXyX9XiXeX5XrXiXpXiX%XuXuXuXuXuXqXtXeXyXuXtX3X8XeXeXrXiXrX:XrXeXpXaX:XrX:XrXaXrX:X9XuXuXuXyXeXyXyXyX8X6XeX8XyX5X6X8XqX6XyX8X6XyXtX3XeX5X$XeX3X3X3XeXiXGXyXFXeX1X6X3X3XaXuX$X3XeX2X,XuXFXyXGXyXGXyX7X8X8X5XyX7XHXHX7XGXGXqX8X7X7XyX$X,.%.1.F.;.&.A.<.N.W C C V A L 3 = 3 Z F F $.&.&.C.Z.G.Z.'.(.(.`._.-X-XhX-XlXfXcXjXhXjXnXNXCXCXsXbXzXCXxXgXCXCXxXjXCXgXbX].bXBXxXzXBXbXgXZXzXgXZXbXgXnXbXbXCXNXBXMXxXxXzXBXgXBXzXzXxXBXMXgXMXlXBXzXzXMXlXlXlXgXlXxXlXfXsXsX)._.)._.).`.fX`.-X_.`._.(.(.`.H.`.J.Z.`.Z.`.Z.Z.Z.Z.Z.D.C.C.v.C.V.V.[ %.' ` H #.F ` F U W F F F A A A 2 A A L A 2 = L 1 L 1 1 > 2 > i ; O p . > . ; ; r r u ; ; < : % % $ : O $ 9 @ 9 @ # 9 o %   # % o o o o o # X $ 9 + $ $ o @ +   ; & < 7 I >X6Xg.oX2X#X,X@X4XqX~.Q.!.,.E.XXW.f.R.Q.E. Xk.XXoXoXP.W.9XqX<XwX@X9X%X%X:XaX%X%X3X@X X0X#X#XtX{.rXaX&X%XaXE.$XtX%X2XQ.wXQ.aX@X9X XtXtXtXuXrXeXuXrXwXQ.#XQ.aXQ.DXyXQ.4X4XqXyXwX0XaXwX0X#X0XeXuX9XeX6X,XwX0X$XwX%XrX9XeXrXeXeXeXrXtXeXtX3XtXeXeXiX3XuX8X6X6XeXeXtX9X2XyXuXuXyXeXtXyXuXiXyXFXiXrXuXuXrX3XiXeX3X%X%X$X+XrX0X%XrX0XrXtXrXrXtXrX8XrX8X3X3X%X%X%X3XrXrX%X&X%X.X.XrXeX8XoX8XaX%X3X}.{.$X#XtXiXyX8XqXGXGXyXGX",
" X@X|.#X<X@XGXGX4XyXuX9XwXwXyXtXtXrXrXrXtXuXuXwX<XyXqXqXqX<X<XyX9XtX%XqXuX0X#XrX#X2X0XrX#X@X@X0X+XrXtXiXFX5X3XtXeX6XFX8X8XFXFX6XFXqXqXqXqXyXGXyXGXFX6XGXqXuXFXqXuXuXiXiXeXyXuXGX5XeX5XyXeX5XyXGXFX9XuXyXtXrXtXrXrXrXtXuXtXuXuXqXyXuXtXtXrX%X5XtXtX8XpXrXrXrX%XpX:XrXpXrXaX&XrXuXrX9X0X0X5X5XqX6X6X6XqX8X7X8X6XeXGXyX8XGXyX6XuXGXeXeXtXrXuX%X3X0X$XeX8X8XyX3X.X+X%X%XtXDX$X$XyX4XOXyXGX7XFXHXGXGXGXyXGXGXGXyXGXGXGXHXHXl.IX8X8XqXP._ P.g.+XP.P.L.L.;.F - 2 V V K 2 A D U #.H &.V.] C.G.).(.-X-XhX-XfXfX-XhX[.-XfXhXjXjXjXkXkXgXbXsXCXgXBXfXbXzXbXxXbXbXbXnX[.bXnX[.sXnXbXsXCXjXsXNXbXgXkXkXbXNXnXBXMXxXgXxXMXgXBXMXMXlXzXzXgXMXxXxXxX[.lX].[.xXfX].jXsXsXjXgXjXjXkXfX_._.fXJ.Z.`.`._.`.).(.`.(.Z.n.Z.Z.Z.Z.Z.v.n.n.v.] [ [ b.M.v.' &.' #.` &.#.;.F ` U F U F S A A A A L L A 2 - 2 1 L 1 ; 2 > ; , ; : i . ; O % O r , : % : % % % % : $ O o w $ @ 9 + O # o # # % & o o o o   . $ % + $ @ # #   w @ <   . . T.GXP.|.,X#X,XQ.,X<Xd.Q.!.E.Q.Q.E.E.aXwXaXwX$X6X1X6XoXf.>X>X~.wXQ.2X#X{.iX%X.X$X$X#XR.E.f.1.@X1..X%XP.{..XR.%X@XR.R.aXQ.aXwX4X9X#XeX9X0X0X0XwXrX9XaXwXQ.wXwXwXwXwX#XqX2X2XyXQ.rXwXaXrXR.yX0X9X1X6X@X9XtX9X2X0X%X0X0XeX3X3X3X3XtXtXrX3X3XiXeXtXeX3XiXeXeXtXtXqX5XyX9XuXiX9X0X6XtXtX8XiX0X9X%X2XuXrX$X3XiX%XrXrXuXtXrXrX%XeXtXrXpXtXtX%XiXtXrXrX%X%X3X8XtXpXpXpXrXaX%X%X%X}.rXrX8X%X%X%XF.&X{.$XrX}.rXrXtXyX8XyX8X7XGX",
"0XiX0XwX4X,XuXyXqX4XGX<XyXXXyXGX0XtXaXFXtXFXFXqXwXqX4X<XwXXXXX9XeXtX$X%X0XaX#XrXaX#X%X0XW.%X%X@X3X0X3XtXFXeX+XeXFX8XFXyXyXFXFX6XGX9X2XqX9XyXGX7XqXqX9XGXuXqXuX4XuXtXiXGXtXyXtXtXeXtXtXuXyXeXuXiXuX9XtX9XtXtXrXeXtXtXiXiXuXFXFXuXtXiXtXiXyX8XtXiXpX5XtXrXpXrXaXrXpX:XaXaXrX%XrX%XaXaX$X9X9XeXuX5X5X6XyX8X6XeX6XyXtXyXGXFXtXeXtX8XeX3XaX%XeX.X%XrXtXFXeX3XeX3X$XeX9XaXrXiX#X%XiX9X5XyX9X XyXyXFXyX5X8XyXqXyX7XyX8XGXHX6X8XyXGXT.yX@.1.P.I.<.%.P.A.;.#.S Z S P V 2 A V A S W F ` [ ] V.Z.H.(.(._.-X_._._._.kXfXhXhXcXcXbXVXzXNXjXNXbXbXzXgXbXkXjXnXsXgXjXnXJX].xXxXxXgXBXBX].bXxX].ZXjXsXbXZXnXjXkXzXzXlXxXMXMX[.xXzXzXgXxXlXgXzXzXbXbXlXNXgXlXNXjXlXzXjX[.sXsXhXfX)._._._.fX(.).fX`.).).(.`.(.`.Z.`.(.`.(.Z.Z.Z.(.Z.D.Z.C.V.V.C.S.[ &.' ] ` ` F F F #.#.U W F F I A S A L A A 2 1 2 2 5 1 * > 1 * r ; u i O O O < O e : : O : O O O O $ : @ O 9 @ @ @ X # o d w o % O O o % o X o @ o o + O % o # @   u < 4 = -.OX6X X2X,XqX,XXX!.Q.<X<XQ.XX,X@X Xk.+X>X@XOXoXOX6X1XW.,X7XwXwXQ.#X@XW.uXaX@X0X1X#X9X#X@Xf.2X{..X$X{.E.rXtXeXXX@X,XwXwXQ.0XwX0X#X0XuXaXaXaXaXrXaX#XQ.Q.Q.wXwXwXwXwX0X.X#XuX#XrXaXwX9XR.uXaX0X2X9X5XyXyXtX2X0XaX9X$X3X%X3X3X3XtXtXeXeX3XeX$XuXtX3XrX1X8XeXeXeX0XeXeXuXwX3XyXuXyXeXeXuXtXDXiXtXuXuX0XtXIXrXrXaXrX%X%X%X%XrXrXrXaXrXrXrXpXrX%X%X%XrXpX3X8X:XrX%X&X&XaX:X%X.XtXrX+X.X3XiX%XuX+X%XiX3XrXoXeXtXtX8X6X6XqX",
"#X0X X#X<XqXyXqX4X7XyX5XGX>XGXuX0XiX0XPXtX9XyXyX#X2XwXqX4XXXXX4X.XaX&X%X0X$X.X#X0XaX#X%X&XwX0X0X3XtXrX3XeXiX5XyXFXeXGXqX8XGXGX8XeXqXqXqX9XGXGX6XGX7X4XFXyXqXGXuXtX5XqXtXiXuX3X1X9XuXuXtXyXeXiXFXuX9XtX0XtXtX3XrXtXrXpXuXtXFXuXuXyXyX3XtXiXtXiXtX3XrXpXpXrXrXrXaX0XaXaXaXrXaXtX%X0X9X0XuX9X5XGXeXtX8X5X6XeXtX8X6X8XyXtX8X6XeXyXeXrX8X0X%XiXiXiXtXrXiX3X$X3X3X.X$XrX%X%XuX%XaX9X{.$XiXyX5XGX5XGXyXyXqXGXqXGXyXGX7XGX6XFXqX6XyX8X<.1.{.&XF.F.<.I.A.$.#.F V 2 2 2 K L 5 - S #.#.&.' D.C.Z.D.=X_.(.).hX:X)._.hXfX-X).sXfX_.jXhXcXsXkXzXxXnX].bXxXbXCXgXxXxXxXCXH.nXnXzXgXxXbXsXbXxXsXZXsXjXNXZXNXjXBXzXNXzXkXzXMXxX[.NXzXlXzXkXkXzXkXxXkXgXzXgXlXgX]._.fXfXsXfXsX-XfX`.sX_.-XsX`.`.`.).).).`.).).`.`.Z.`.Z.Z.v.n.n.G.v.n.C.V.V.v.v.M.&.A.&.&.] ` ` ` ` #.#.F #.U F S A A D A A 5 L A 3 2 1 1 < 2 < O p O r r % O ; O o < % r O r O . < % % $ % o @ @ @ w @ # # r $ . % o o o o o . . o o o #   % + @ b # ;   & 7 @.7Xl.f.oX<XQ.d.!.Q.wX<X!.E.j.<XwXQ.g.1X1X+XP.oXT.5X|.R.XX<XwX<XwX@X@X XyX%X$XtX$X X XR..Xg.|.@XoXg.E.g.1X2X@X#X4XXXwXaX#X0X@X4X1X9XuXwXaXwX0X0XaXQ.wX!.wXwXuXrXrXaX@X X#XrX#XaXwXaXuX#X0XaX9X9XuXqX4X9X9X2XqX0XrX0XeX0XrXyXrXtXtX3XrX3XrX3XtXrX3XrX3X$X$X1X3XqXeX2X0X0XeXtXFXtXtX5X0X0XFXuXuXtXeXeX3XtXeXrXeXeX3XpXaX0X0XrXaX%XrXrXrXpXrX3X%X%XpX8XrX3X%X3XrXaXrXrX&X&X&X:X%XeX8X1XeX.XpX%X.X%X.XrXrXeX6XeXGXyXqX8X",
"rX0X2X0XqXyXqX4X7XyXqXyXGX6XGXeXrXpX0XiX9X#X X2X#X,XuXuXwXXX1X9X.X0X0XrXtX%X%X.X X%X#X@X#X0X0X9X@XeXtXrX6XtX5X8X8X6X8XqXyXtXGXGXqXyXqXuX4XGXGXqXFX7XqXyXqXqXFXFXuX5XyXuXFXGX5XyX9XtXyXyXyXyXGXuXyXeXyX0XtXeX3XrXrXrXtXiXyXuXuXGXtXuX8XtXuXeXtXeX3XrXtXrXrXrXrX:X:X%XaXaX%X{.aX%X9XrX2XtX5X@XyX$XtX5X3X6XeXtXeX1XFXuX8X8XtXtXiXFXrXrXeX$XrXrXaX%X3XtXrXtXtXiX3XrXrXaX0XiXaXaXaXE.|.tXtXyXuX1XeXeXyX8XtX6XGX6XyX7XGXGXFXHX6XtXg._ }.<.}.%.+XU.A.` ;.=.A C - 3 2 L A 2 - S &.#.&.] G.V.G.H.=X(.(.-X-X-X-X_.hXjXcXfXcXnXkXNXbXnXkXbXsXnXbXsXgXnXbXzXjXnXsXxX].].gXxXgXjX].gXsXbXzXsXnXsXnXjXkXnXjXCXzXzXkXgXlXzXMX[.zXlXlXlXkXgXkXgXlXzXlXkXlXkXgX].fXgXkXgXfXfX).-Xn._._.)._._.`.`._.).(.`.`._.(.Z.(.(.`.Z.n.Z.Z.Z.n.V.Z.C.H.C.C.V.] V.[ ` ` ` ' ` ` #.#.H #.U S Z A A A A L A 2 2 = 2 2 i > 2 * ; g O r : : O : O . % O j & e % o : % O : % @ @ + # w w @   o o o o o     o .     #   o   # $ X o w # O < & = D T.g.OX4XyXQ.f.!.<X~.!.d.u.,.>X4X,.d.,XoXf.f.oXg.0X,XQ.d.!.j.u.~.~.Q.#X0X$X.X9X#XW.W.g.R.R.R. X2Xg.oXoXW.oX@X<X,XQ.wXwX#XaX@X,XwXyXaXQ.Q.aXuXwXE.Q.wXQ.wXwXuXwXaXwX$X#XaXaXaXwXQ.aX0XaXaXwX6X@XeX2X2X5X0X3XtXaXtX0X3X%XrXrX3X3X3X$XtX5XrXeXeXeXtXrXtXrX3X3X3XyXtXeXaX9XuXeXtXtXtX3X0X0XrXyXyXrXrXtXpXuXtX3XpXaX%XaXrXeXrXrXrXrXrXtX8XrXrXrX3X:XtX%XrX3X%X%XaX;XeXeX.X.XrX%X3XDXtX+XFX+X0XtXpXuX8XrXiX5X.X5XFXGXGX8X",
"wXQ.2X9XyXqX5X4X7XFX7XHX5X6XGX6XiXrXpXaXtX0X2X@XyX,XwXqX$X,X9X2X$XrXaX%X&X{.$X.X1. X@XaX@X0X@X9X3X5XiXiX8XtX6X6XyXyXIXyXGXqX8X8XuX9XqXGX4XqXHXuXIXqXGXGXqXuXqXqXyX5XtXyXyXeX3XFXuXGXuXtXyXeXiXyX9X9XuXeXtXtXrXtXrXrXyXiXyXuXuXDXiXFXyXiXeX$XtXiXeX3X+XrXtX%X3XrXrX%XrXpXuXrXtX.XtX0X@XtXyXeXFX2XtXrX8X5XeXtXtXtXeX9X8XyXFXiX5XrXtXrXrX%X%X.X0XiXrXiX3X3XeXrX+X3XrX0XrXiXaX%X9XaXFXDX0XeXFXeXuX5XFXtXtX6XFXyXFXyXGX8XiXT.IX.X} <.F.P.%.%.I.V.<.#.;.W C - A V V 2 L S D U #.` &.] V.V.(.(.=X(.).hX'.-X-X_.(._.jX-XsXjXzXnXNXjXcXNXsXzXdXgXjXbXxXxXxXnXnXxXnXxXxXsX].nXzXbXgXzXbXxXZX_.BXzXbXBXhXCXgXkXzXkXgXzXMX_.NXjXkXfXzXgXzXkXkXbXjXgXgXzX[.].fX_.sX_._.sX_.kX_.fX_._._.).).=X_.).).(.).-X`.J.`.(.Z.Z.Z.`.Z.C.C.V.n.v.V.V.V.v.[ V.] &.] ] ' _ $.#.H H #.#.F S U F A A S A A 2 2 2 ; 2 1 i . * p   % . : ; % .   O % j   : : o e o . % $ ; 9 @ 9 @ # O # O o o % % O o o X o .   o 9 % $ 9 #   w 9 . , . & & X.7X>X>X7Xk.f.f.d.j.u.j.j.u.Q.!.@.@.XX,XR.OX@Xg.3X X X!.^.qX!.<X!.,.@X9XaX X$X{. XeXoXg.2X{.,.oXW.4X9X X<X<XXXE.@XQ.#XwXwXXX@X3XeXrX#XaXaXuXaX/.R.^.!.wXGXuXQ.wXaX0XaXaX{.aXrX:XaXwXrX9XiX5X,XuXyX5XqX9X5X9X@XrXeX3X3XeXeX3XeXeX%XFXeX3X3XtXiXuXeX3X3X5XeX3XrXtXrX0X%XrXeXtX3XrXiXrX0XuXuXtXrX0XuXtX%XrX%XiXiXaXaXpXaXrXrXrXrXrXrX3XrXaX8X%X3XpX8X8XrXrX$X&X%X;X%X%X}.iXrX3X3X+X$XiX3XrX3X.X%X$X+X3XeX3XyXyX>X6XtX",
"#XaX0XwX0XE.uX4X>X,XqXuX6X6X5XqXaXpX0XpX0X@XqX4X XW.qXuX@XR. X2X0XtXaX&XuX%XE.eXeX2X3X.XyXoX2X$X5X.XtXyXuXFXeXFXFXGX6X5XFXGX6XGXyX4XqXyX4XGXT.GXGXqXqXqXyXyXyXGXOXFXFXGXeXuX1XFX$XyXFXtXyXFXFXFXeXuXuXeXtXuXtXrXuXiXuXiXtXiXyXiXeX0X0X2XFXtXtXtX+XtX5XrXeX8X%XiX%XpX0XpX0X0X0X0X XtX+XFXuX5XtX+X.XrXtXtXrX3XrXtX5XiXrX%XrX5X3XtX:XiX%XaXpXiXrX0XeXrX%X%XtXtX.XrX#X&XrXaXE.aXaX%X&XuXrX3XrX6XeXiX8XuXuXuX0X9XFXyXGX8XyXtX<.;.P.<.A.+X<.I.<.A.#.` ` F - - S 3 L 2 L 5 G F $.G &.&.V.C.Z.=X=X-X-XhXfXhXvXhXkX-XkXhXjXVXsXcXbXjXjXkXsXBX_.bXxXnXkXsXdXxXnXnX].CXxXbXnX].ZXzXxXbXfXsXCXsXjXzXkXnXsXBXbXkXkXjXbXkXcXfXNXfXlXjXNXfXkXgXkXkXcXsXfXfX[._.NX_.fX_._._.fX-X)._._._.`.).Z._.fX`._.).`.).(.Z.(.(.).`.Z.Z.n.n.Z.C.Z.C.v.Z.C.Z.] Y.&.v.' &.] ' $.$.$._ #.$.H G W #.U S P D 5 2 A h * 2 1 < > . n O : O < : : o O : e . f o . f % : ; o @ @ @ w @ # @ # # @ ; # # % o $ $ # o X o   . o X o o w #     . < & . { <Xs.k.d.Q.Q.Q.!.p.!.!.p.!.d.>.:.d.W.@XQ. X XE. X,X@XQ.~.!.~.^.!.XXW.#X.XR.yXQ.,.d.@Xf.|.W.1.Q.4XwX/.GXwXXX~.Q.qX,Xf.4XXXyX#X#XaXaXuX#XaXyXQ.Q.aX!.wXwXuXuXwXwXuXaXrXaXaXaXaXwXaX0XiX%XeX9X$X2X5XoX5X5X1X5XeX2X0X%XtXuX0XrX0X3XrXiX3X3X3XeXtXrX%X3X3X3XeX3X.X3X5X$XtXrXtX0XyXaXuXFXtXrXrXuXuXtXtXtXrXaXaXuXrXaXaXaXrXaXrXaXaXrXrXeXrXpXrXaXpXtX%X3X3X%X:XeX&X&XaX%X.XiX%X3XeX$X8XDXeXrX+X3XtX%X.X3X{.eXeXyX5X>XGX",
"aXwXwXaXwX2XqXXXqX4X5XqX1X>X5X9X@XpXrXtXaX2X%XXXyXqX2XwXwXwX2XE.#X{.aXaX.X%X0X1. X{.5X|.1X X@X2XiX0XiX5XyXyXqXyXyXGXyX5XGXIXFXHXGXuXGXGXqXGX>XqX<X7XyXyXqXGXGXGX+XqXyXiXyXyX1XFXeX5X5XFXGXyXyXyXqXuXtXyXuXiXrXrXtXpXtXtXyXuXqXiX0XrXtXrXtX0XrXtXeXiXiX%XeXeXtXFXtX0X$XuXiXrX%X$XeXtX3XrX6X+XeX1XtXtX%X3X5X3X5X3X5XiX3X1XtX5X3XtX0XDXaX0XrXtXrXrXrXpXtXtXrX%X@XiXiX%XaXrXaXaXrXaXFXPXeXtXiXtXeXtX0XeX0X9X%X9XuXyX8XtX6XT.D <.<.F.8XP.}.V.<.U.` H C F A C V 3 K K A D U S ;.#.N.] S.D.Z.(.(.(.=X_.-X_._.-XcXhXcX`.VXnXsXCXjXbXjXsXsXjX).jXjXxXcXxXzXxXxXbXdXgXdXdXBX].xXxXxXgXzXjXCXsXgXjXjXNXfXbXjXzXjXgXkXcXNXsXBXjXjXkXVXkXbXjXkXjXgX].-XlXlXlXzX_.kX[._.`.-XNX`.)._._.).fX).`.).H.(.(.(._.(.`.Z.(.Z.Z.'.Z.(.n.(.H.Z.(.D.Z.n.'.] Z.[ ] ] V.&.] A.%.` H #.%.#.F W F F F S P A 2 1 L 1 > 2 > 2 O j . : O : O ; o o : r . f % # f O : @ # @ O @ 8 @ @ ; 8 # + $ # # o X @ %   o X o o o o . o o $ 8 u @ ; < < = 6 T.d.a.W.,.j.:.!.!.!.!.p.!.p.:.d.!.Q.#XW.#X@XQ.0X.X,X<X7X^.wX<X<XXX X X0X#X@X/.,.f.|.|.{.2XXXXX,XQ.d.wX#XXX#XQ.4X6XQ.6X@XyX#X2XwX#XwX#XwXrX!.Q.wX/.!.wXwXuXQ.aXrXaXaXaXaXQ.aXaXaX#XrX0X9X$X,X6X1X6XyXeX1X$XeX%XeX.XrXeXrXeXeX%XrXtX$X3XrXrX3X3XeXeXeXyXtX3X$XtXiX3XtXeXrXuXrXaXyXuXrXaXwX0XrXrXrXaX0XrXaXpXaX0XrXuXrX%XrXaXaXrXrXrXrXrX%X%X:X:X%X8XrX8XpXtX%XaXrX&X&XpXtX8XtX+X%XyX8XtX6X.X3X8XeXFXeXeX6X5XyXqXGX",
"0X@X@X#XwXGX4Xf.yX9X2X0X6X5XeXtXaXtXtXtXrXqX2X9XyXuXQ.wXwX@XqX$XrXaXaXrX0X.XR.$X2X{.2Xg.@X2XXX6XyXeXGXqXFX5XyX6XP.6X6X6X7XGXGX6X7XyXqXGXqXGXHXGXGXHXGXHXqXuXuXFX7XeXyXGXFXFXyXFXyX9XoXFXtXtXyXyXyXuXuXiXFXiXrXrXuXiXiXiXuXFXuXFXtX9XyXiXtXtX0X3XtXtXFX3XeXtXpXiX3X0XeXeXyXrX0X%XtX3X3X1X3X$XiXiXiXuX$X1XyXtXrX5X+XeX8XeXDXiXrXtXyXDXaX&X#XaXrXtXtXrX%XeXtX0X.XpXrX&XaXuXaXaX#X#X3XtXP.3XtXtXtXIXeXtXpXuXtXtXFXeXyXtXtX%.%.F.<.<.F.;.P.%.` #.G H - F P V L 2 E L A A S S %.$.V.] D.C.D.Z.(.(.-X=X-XhX-XhXhX-XbX).kXbXhXZXcXkXjXgXsXxXsXkXxXnXxXzXxXgXnXnXnXxXxXxXbXxXfXzXCXsXzXbXbXfXfXjXzXbXsXhXhXcXhXjXcXkXbXfXVXkXhXjXNXjXcXhXsXfXcXkXMXhXfX_.lX`.fX-X-X_._.fXsX_._.fXsX[.`._.).`._.sX-X-X).H.Z.`.`.Z.`.(.(.Z.Z.n.v.C.C.C.[ V.2.C.[ v.v.V.] ] &.` ' $.$.` H $.#.F F U U A 2 - 2 L p 2 3 < , * l . ; : > O % % O : e O : : O w : : O O ; @ @ ; @ @ w : O @ : @ o # X o o # X . o o % o o o . % @ # # # . . . & k.t.s.d.a.:.a.~.p.!.!.!.>.>.>.d.Q.!.#XW.#XaXE.@X@X,X!.k.d.j.!.Q.W.6X{..X/.{.g.1.$XR.$Xg.,XXXQ.XX#XE.Q.Q.Q.Q.Q.XX<X@X#X#X9XW.aXwXaXwX@XaXuX!.Q.&X!.wXwXwXwXwXaXaXaXaXQ.&XaXQ.#X#X%X9X0X9X4XyXyX5X5XeX5X1XoX0X2XtX%XtX.X0X3XeX3XtXrX%XtXrXtX.X$XtXiXeX5X%X%X3X8X8XeXpXyX0XuXrXrXuXrXyXrXtXrXwXwXpXaXrX0XaXpXrXrXiX:XaX&XeXaX:XpXrXpXaX:XrXaXaX3X:X&X3XaX3XrX%X:XrX3X+X%XrX%XeX+X1X$X8X1X8X+X3X$X$XeX5XeX6X5XyX5X8X",
"uXwXwX#XwXyX9XR.2X,X1X0X1X3X0XeX&XaX0X0X9XyX2XyXqXuXwXqXuX@XqXFXuX&XuXaX.X%XaX1.qX@X1Xf.@X4XoX<X4XeXuXeXFX5XuX6X7X8XqXyXGXFXGX8XyXGX5XyXqXqX7XqXGX<X>X5XyXqXqXGX8XiXGX8XuXFXGXtX5XuX5XGX8XtXIXFXuXFXuXuXiXiXtXtXrXtXiXiXuXuX9XuXuXtXyXFXtXuXtX0XeX$XtXrXtXtX1XeX%X@XtX#X0X0X9XyX3X$XrXeXtX3X3X$XeXtX5XrXtXiXtXrXiXFXyXuXFXtXyXiXrXiXrXrXrXrX%X%XDXuX3XrXiXiX.X%X X%XDXuXrXDXiXaXiXPX3XtXeX8X3XpX0XrXtXtXtXeX5X+XeX+X%X_ &X}.;XU.;.P.;.&.F G U ! S S - 3 P 2 L K P - D U ;.#.M.V.V.Z.-X*X=X-XhXhX-XfX-XSX(._.jXvX).bXcXkXnXjXjXnXsXnXjXbXhXCXdXxXnX].nXbXnXxX).gXxXzXgXbXBX].sXxXbXjXkXhXnXbXfXjXkXNXfXNXcXkXNXhXVXkXjXjXNXhXkXkXjXcXbXjXfX_.hXlX[._.kXfX-XkX(.-XfX`.).-X_.`.Z.(.fX`.(.).).`.`.`.`.'._.Z.n.`.Z.H.Z.).Z.Z.(.(.n.Z.2.Z.V.C.V.M.] &.M.] &.&.$.` ` &.#.#.F W U S - 3 2 A p 2 < < < O j O u , : r : < < % , o O % % < : : 9 ; w ; @ 8 @ w u w @ O : o @ @   # + o o   X   % o o % o O s   u w g & 7 7 t.a.k.w.d.u.Q.Q.!.!.!.!.( !.p.!.@XE.XXE.#X#X1.&X X1XXX>X~.~.!.<XQ.9X{.{.E.#X%X$X.Xg.2XR. XR.W.Q.Q.Q.Q.wXQ.Q.Q. X4X9X$XwXuX#XwXuXwXaXwXwXwX#X!./.Q.wXwXwXuXwXwX:XwXaX:XQ.&X#XaX0XaXaX#XaX3XuXeX1X1X5X3X6X$XtX3XrXeXtXP.eX3XeXeXtXtXtXFXeXuX3XeXtXiXrX8X%X8XiXtXrXtXtXeXaXDXrXrXrXuXyXuXuXuXrXpXuXtXrXrXaXtXrXrXrX%XaX%XpXaXrXpXuXpXrXrXrX8XrXrX3X+XrXrXrXrX%XrXpX%X&X}.%X$X3X%XeX1XtX8XyX3XtX8X$X$X%X5XyXtXGX5XGX",
"uXuXwX#X5X@XyXXXQ.@X0X0X0X0X0XrX$XeX0X$XyX9X1XqX>X4X7X4XqX<XQ.qX0XE.aXR.9X0X.X>.@X@X Xf.Q.W.<X5X5XGX5X5XyXyXFXyX7X6X6XyXyX7XqX7XGXGX6XGXGX7XqXGXFXqXqXFXFXFXGXFXyXFXFX6X5XFXtXtX5XGXGXFXyXGXIXiXyXuXyXeXtXiXtXrXiXiXPXiXIXFXuXFX9XtXuXDX3X3XtXuXFXeXiXtXtXFX8XiXPX2X9X5XtX1X|.$XrX$X5XtXeXeX3X5X{.1X6XeXtX8X3X6X6X8XeXtXuX5X%X3XDXiXuXrXtXtXrX%X3XeX$X%X0XeX X3XaX%XyX$X%XFXiX{.pXIXrXrXiXeXiXFXrXpXyXpXtXrX0X3XFXpX;.%.P.P.F.L.U.L.D F Z Z H W W W V A E V E L A - F U $.` &.V.v.Z.(.=XZ.).-X(.fX'.hXcX-XhXhXcX_.cXcXdXnXkXcXcXhXzXxXsXdXbXgXnXCXxXxXxXxXnXdXnXzXbXgXxXbXxXsXBXjXjXlXsXbXkXkXbXjXcXhXjXcXjXcXjXkXkXjXhXcXdXvXkXhXjXcXkXhX_.hXkX_._.[._.`.hX(._.-X).hXsXfX_.sX_.-X`.).-XsX(.).(.(.Z.(.`.'.`.Z.`.v.(.Z.n.Z.Z.C.Z.C.C.n.2.] V.v.V.D.A.&.' $.;.&.$.$.` W W U A 2 2 2 L L 3 ; 1 < * > ; u > ; r u O : ; : ; O r r % : : $ : w @ # ; @ 8 u w @ + ; @ $ @   @ % @ $ o .   & o o % . o 8 X # @ % , = & | a.l.d.d.!.!.!.!.p.>.!.o.u.:.d.Q.1.E.1. X{./.{. X@X|.XX!.!.k.XXa.g.,.1.#X1.{..X1.E.#X#XW.R.R.j.E.Q.Q.Q.~.#X,X,XXX@X X#XQ./.Q.aXaXwXwXwXwX#X!./.Q.wXwXwX0X#X0X0XaXaX:XaXW.R.wXwXtX3X.XeX6XeX6XOX6X$X6X8X3XtX0X3X$XrXg.eXeX3X3X3X$X$XrX{.rX3XrXeXrX2XtX3X+X3X+X6XrX8XeX8XuXuXuXuXuXaXrXuXuXpXrXrXrXrXrXaXpXaXrXaXaXrX:XrX&XrXpXrXrXrXrX:X:X:XrX&X{.3X:XrX8X&X&X&X&X}.$X3XtX3XtXtXP.tX3X1XR.3X3X5X5X5X1X8XyXGX5XyX",
"wXyXwX@X1XE.uX2X#X0X0X0XrX0X:XtX%X0XeX0XuXyX9X4X4XqXyX4XqXqX<XqX%X XR.E.FX X1.6X1X@Xf.W.oXQ.6X7XyXuX5XyX5XqXyXqX7XyXyX7X7XyXGXqXuXyX<XGXGXyXHXFXGXyXHXyXqXHXqXyXFXyXyXyXqXyXyXGXuXyXtXGXiXGXGXtXuXuXeX9XuXtXtXtXpXtXuXrXyXtXyXuXuXuXuXuX5X3XeXuXeXeXtXtXeXFX6X5X3X X0XuXFXtXeXtXiXeX3XtX8XiXtXDX5XuXtXFXFXtXtXtXuXFXtXeXeXtXiXFXIXpXtX%XeXtX0X%X3XtXeX3X0XrX%XiXtXpXDXtX3XpXrX.XtXFXrX8XiXrXtXiXaXaX0X0XeXtX3X8X6X;X%.F.I.I.I.}.I.%.` Z #.F S S C W E V 2 * L L - I ;.;.;.A.A.D.D.D.(.=XZ.-X-X(.jX`.vX-XkXcXcXhX-XjXbXjXfXkXnXcXfXsXjX).bXgXfXnXnXnXsXxXjXjXjXxXCXzXxXbXzXCX].nXjXzXbXjXZXkXbXbXcXNXbXcXVXVXCXcXkXnXcXcXNXhXcXVXnXcX-XhX-X_.jXMXhX_.[.[._.jX_._.[.Z._.`.sX_.-X`.-X`.-XfXjX`.=X`.`.).n.(.-X`.=X(.J.'.Z.G.Z.n.n.Z.Z.C.n.V.V.C.V.V.C.M.M.' &.A.;.$.&.#.H F F S S L 2 1 p ; ; 1 < * ; ; i w . i > . ; o : e : d < ; : < % : u ; @ w ; ; w : @ ; : # @ +   + $ + 9 % X   o . o O X o w u O :   x = & x @.a.d.Q.d.!.!.!.!.p.p.d.d.E.f.Q.R.@X.XrX%X'.{.$X2XXXQ.k.k.k.~.d.{. X{.&X.X$X{.E.&XR.R.E.E.E.E.Q.<X^.Q.Q.Q.<X4X@X$X2X5XwXaXrXwXwXaXwX!.!.#X!.!.Q.Q.wXwXwX#XaXaXaXQ.aXQ.E.W.#X,X3X$XrXuX5XeX6X6XyX6X6X%X5XeXrX%X%XtX{.$X%XeXrXtXiX3XrX3XiXtXtXiXuXtXiXtXrX8X8X8X8XeX8X3XpXuXpXuXaXuXaXuXiXrXuXrXaX:XuXrXrXaXrXpXrXrX&XaXaXpXpXaX:XeX:X%X%XrXrXrX8XrX8XrXrXaXrXpXrX:XaX3XtX+XtX8X+XFXeX6X$XiX8XeXoXiXeXeX6XqX6XyX",
"E.#XwX@X,XW.wX0X X0X0XaXaXaXaXrX.X+X&X3XuX4XtX<X<XHXqX>X,X<X4X2X#XE.aX#X X X@X@XqXXXf.Q.<X<X>X<X6X5X5X5XyX5XqX5X6XyXyX6X7XGXGXyXGXyX7X5XyX7X7XGXHX7XGXHXqXGXFXFXFXyXyXGXyXGXyXGXFX8XiXqXGXFXuXGXuXuXyXtXiXiXrXpXtXrXiX9XuXuXuXuXiXuXyX9XtXtXeXeXtXFXiXuXIXFXtXuX3XFXFXuX3X5X5X$X3XeXrXiX8X3X%X+X$XeX8XyXuXeXeX5X6XtXGXFXFXeX1XR.yX%XuXeXtXeX$X.XtXuX3X3X5X3XP.$X.X@XuXtX3XrXeX1XtXIX3XrXuXpXuXDXaXrXiXiXFXiX3XtX$X{.P.F.P.I.D.L.%.Z F Z F C S S V Q P S L 2 E L - C } W #.A.V.A.V.V.Z.Z.V.(.-XH.hX(.cX(.-X-XhXcX-XhXnXcXjXjXNXcXdXfXcXsXBXjXsXxXxXnXgXzXnXgXnXxXBXgXgXbXgXCX].bX].jXjXsXnXsXgXfXcXhXcX-XjXjXbXjX-XhXfXfXjXfX-XhXhXkXfXNXkX-XfX[._._.kX:X-X`.-X`.zX`._.).fX`.sX).fX`.).`.).n._.`.`._.n.).=X`.-X`.`.(.Z.`.H.Z.Z.H.Z.n.D.Z.C.D.V.] ] M.A.M.&.M.&.&.$.#._ F F P U L 2 < 2 = * 2 * < > : i i O p r ; > ; ; > : r O ; : : ; w u ; @ u 8 @ ; 8 O @ : # + o   o @ + % % . X o X # % # O 8 @ + @   , & & 7 { a.+.~.:.!.>.d.!.>.>.j.f.a.,.>.g.{.{.aX'./.2.1.1.R.Q.d.!.Q.k.g.OX.X1.1.aX%XE.#X{.R.1.E.E.d.~.Q.wX^.E.Q.Q.,X0X@X.X3X2XaXwXwX#XaXwXwX#X!.!./.!.Q.wXwXQ.0XaXrXaXrX&XaXQ.E.Q.~.,X@X.X3XtX1X8X3X6XuX1X5X$XrXeXtX3XrXtX$X$XeXtXtXiXtX$X%XeXrX3X3XeX8X$X$XeXtXrXpXeX8XrX3X8XrXuXwXDXuXaXrXuXuXiXrXuXrXuXpXaXuXaXrXpXrXaXR.aXaXpXpXaXrXaXeXaX:XrXiXpXaX3X&X%XaX%XaXrXpXpX%X8X3X+XeXoX6X6X6X+X5XuX.X.XP.FXyXuXeXyX1XuX",
"wXQ.qXwX@XQ.#X,X#XyX9X9XtXpXrXpX%X3X$X5XuX2XGXwX<XuX<X7XqX>X,Xf.aXW.Q.uXyX0Xf. X,Xf.W.XX>XOXd.6X4XoX5X6XGX5XGXFX6XyX7X>X7XyXyXHXyX9X6X>X7XHXGXGXqX<XqXGXGXyXqXqXuXGXtXFX8XFXyXGXFX6XIXeXFXFXyX5XyXyXeXtXiXtXrX3XrX0XDXtXDXuXtXuXyXrXtX0XiX5XeXtXtXtX1X$XiX8XeXiXqXuX2X9X$X2XeX3X$X3XrX1X$X{.3X6X|.3X5XeXyX5X8XyXtXuXeX8XyXuXIXuXiX0XrX.X+X$X3XrX%X%X3XtXiXyX$XiXuXrXiXtX3XtXpX%XiXPXeXiXrX0X0XiXpXiXiXrXpXtX%XrX{.1.F.%.;.}.P.F.=.#.C G S C W W E S 3 2 E K E p A 5 F #.;.A.V.Y.Z.C.=X(.(.-XcX-X-X-XvXcXhXhXhXCXhXhXcX-XJXjXkXcXlXCXbXsXkXCXdXjXxXnXxXdXnX].xXxXnXgXxXBX].BX].ZXfXzXjX).nXsXNXBXNXsXNXfXNXvXcXcXcXcXfXhXNXcXjXjXhXcX-XNXfX_.[.hXlX-XcX_.lX-XVX`.fX(.kX_.sX).fX(.).(.-XsXhXH.).n.(.-XZ.Z.Z.n.(.'.n.(.Z.'.n.Z.(.Z.n.v.Z.V.n.S.Z.C.S.V.A.&.&.M.$.' $.$.` F U U D A V 2 p ; ; , ; , i > i j ; i > > j , O O * : . O O O o O 8 ; O u @ O @ @ @ @ : @ @ @ # + + # % O X   .   # w O 8 w   @   <   & 5 & O.w.+.j.u.!.>.d.!.>.>.XX|.d.,.@.g.g.1..X1.{./.1.f.R.Q.:.f.XXXXR.R.P..X,.aX{.R./.1.#X>.E.Q.1.wXQ.Q.wXd.Q.#X<XwX1X XeX0X#XuXaXaXwXwX#XwXwX!.>.!.wXwXwXwXrX0XaX#X0XR.aXwXQ.XX<X4XyX3XyX0X.XtXtX3XtXoXtX$XtX5XtX3X%XtXpXrXuXiXeXeXtX3XtXtX3XtXtX3XtXtXeXiXrX$XtXpXrXuX8XeXaXaXaXaXpXwXaXaXaXwXrXrXiXrXaX%XpXrXrXaX:X&X{.pXpXrXrXaXpX%X:XrX8XaXaX%XrXeX+X8XrX&X{.&X%XrX{.eX8X$X%XP.>X+X3X.X1X3XP.eX@X5XP.8XFXFX3XuX",
"Q.@XwXwXwXwX^.^.uXwXuXwXrXaXrXpX8X.X%X%X5X$X,XwX1XGXXXGX>XqXk.,.GX>.E.wXQ.0X#X#X|.4Xg.P.k.f.>XOX@X1X$XuXwXiX@X9X9X#XIXqXqX7XyX<XyXyXyX4XqXGXGXGXyX7XFXqXGXuXqX9XtXuXtX9XiXGX9XFXiXqXDXyXtX0X1X$X2XFXeXtX0XrXiXrXpXpXrXrXpXuXDXpXrXuXDXrXrX2X8XiXeXtXtXtXFX5X0XrXeX5X5XtX3XuXeXP.FX3X8X6XyX6X6X5XtX9XrXrXFXyXuX0X9XPXFXyXIXGX2XqX5XFXyXOXiXyX3X$XuXrXtXiXrXrX.X9XtXaXiXaXrXpXrX:XiXiX&X0XrXDXtXrXiXiX:XiX2XiXeX+X%.P.+X&.<.I.P.&.#.F S S C P W Q S K P 2 E L p 1 A U S N.S.M.S.J.b.Z.C.n.Z.Z.(.=XvXdXjX-XvXcX(.hXfX-XCX(.bXcXhXcX-XZX=XVX).nX].bXjXBX].fXBX].bXlXgXlXxXMXlXzXlXBXxXbXCXjXCXsXkXbXkXkXzXjXzXbXCXbX).bXjXnXbXjXjXcXkXNX-XkXfXNX_.VXkX).hXlXkX=X).cX-X_._.-X-X-X).-XZ.hX-X`._._.).).fX-XgX(.sX`.-X).-X).-XH.H.).=X(.(.C.Z.H.Z.n.] V.S.S.S.V.V.N.&.&.$.H $.H W W D L p A p 2 ; * ; > i > > K p . > 1 2 , , < ; O O . g   ; l : O r > o O w @ # @ ; @ @ @ # # O $ @ @   # O   @ o % : t # + # @ $ % n   ^ o.j.+.u.d.!.>.:.:.d.d.f.f.,.,.,.g.{.+X{.%XP.1./.E.E./././.Q./././.E.1. X1.E.g.W.,.Q.Q.E.Q.E.!.Q.Q.E.^.wXQ.wX2X,X4X5X2X5X9X@X4X9XQ.Q.<XE.!.!.wXwXwX/.DX!./.&XuXQ.#XQ.!.wX!.^.uXQ.uXuXaXaXaXaX2XtXrX8X.XeXrX}.:XrX%XaXpXrX%XeXrX3XFXiXeXeXtXIXiXiX8XuXtX+XtXrX8X8X$XrXiX%X%XiX9XaXuXaXrXaXrXuXuXaX:XaXDXaXuXrX/.:XaXaXrXaXrXaXuXaX&X:XaXaX:XaXrXrXpXpXpX3X%XrX3XrX3X$X3XiX$X.X3X@X3X1X.X2XtXuXyX5X X3XtX5XtX8X",
"wXQ.!.!.Q.^.wXFXQ.wXwXaXaXwXrXaX3X%XaX%XeX$X4X2X X9X,X<X>X>X>X>X4X>.qX<X>.@XyXf.{.oX|.oXOXoXOXP.1X5XoX5X2XiX0XFXyX4XqX<XqX<XqX7XyXyXFXHXyXGXGXFXGXyXGXyXuXiXiXFXiXiXuXyXFXFX9XFXiXrXFXaXaX0X2X1XeXiX3X%XaXrXpXaXrXiXpXpXiXDXDXpXpXpXiXrXrXrXeXFXuXiXiXiXvX3XrXiX8XyXyXeX$XeXtX8XeX8X5X8XyX8XqX5XtXtX9X0X9XaXyXrXtXuXwX@X5XyXeXGXFXGXyX6X6XqXiXuXaXrXtXtX0XrX&XuXuX0XtXaXaXrXrXrXDXDXrXiXuXDXuXuXDXiXiXiXtXIXtX}.F.F.F.F.D.}.I.` Z S W W A W P U V V 5 p L h , L * L U ;.S.M.G.=XH.=X-X=X-X-X=X).dXdX(.vX-XsXhXnX-X-XbX-X-XlXcXjXjXcXcXcX-XhXCXjXgXbXgXjXbXgXBXBXMXgXxXBXzXkXgXNXhXzXbXgXjXsXjXbXcX].bXVXjXjXjXjXjXbXjXjXbXkXdXjXNXfXfXlX_.lX-XNXkX-X_.fXcXkX-X-X'.-X-X_.(.fX).-X(.jX_.).fXfX_.`.(.`.`.J.`.H.-X-XZ.Z.).H.Z.Z.H.(.H.n.n.Z.Z.C.V.C.M.C.M.$.M.M.M.B.` ` #.G F S A A 2 5 2 1 < < ; * s p > ; p i L > < 1 1 , < ; ; O r . e T j O O   O : O O ; w @ # O @ o # @ @ @ $ # o w # + o X # 9 t e b # e o , & x j.a.k.d.d.!.:.d.p.E.f.f.a.>.,.,.d.g.P.P.{.1./.@.>./.E.E././.Q.aXE.Q.g.f.W. Xf.E.d.f.d.>.E.!.<X<XE.,.Q.wX<X<X4X2X4X5X4X5X4X,X>X<X#XQ.!.:.d.!./.wXwXwXwX#XwXaXDXwXQ././.Q.!.Q.aXR.aXuXQ.&X&XaXrXtX3X3X%XrX%X{.%XrXrX%XrXiXiXtXeX3XiXuXeXyXtXuXeXtX6XtXeX%XtX8X3XtX%XeXpXiXpXtXuXuXuXrXuXuXrXpXrXaXuXpXuXaXpXpX:XpXaX:X:X:XrXrXaXaXaXuXaXaXiXaXaXrX3X%X3XpX3XpX8XrX%XrX3XeX$X+XeX$X9XyXqX9X<X9X@X2X2XtXiXtXpX8X",
"<XQ.<XwXwX^.!.!.^.uXwXQ.uXaXDXuX%XtXeX0XeX1X9X,X#XqXqX<X<XQ.>X>Xg.>X6X@.#X XE.9Xg.f.oX.Xg.oXOXOXOXyX3X$X9XuX@XuXyXyX@X2XyX7XGXGXqX@XGXyXqXGXqXqXGXyX6X8XyXtXeX9XrX0XuXtXFXFXuXFXiXrXiX%X$XeX9X5X1XrX X{.&XaXpXrX:XrXrXrXuXrXuXrXuX:XiXtXtXrXtXpX8X8XtXtXiX8X8XFX6XtXFXyXtXeXtXtX3XeXiXtXFXGXGXyXeX.XR.$XrX@XrXyX0XtX9X9X5XuXyXuXyX6X,X>XFXuX2X%XaXuXrXrXaXtX{.rXrXaXiXrXrXrXpXaXpXpXaXrX9X0XrX0XaXrXiXuXeXFXU._ <.&XF.<.}.F.&.#.G S W S C P S V P A K L p h ; T * A #.=.B.V.H.Y.Z.(.-XZ.-X-XhX=XvXhXG.cX).=X:XVX-XhXcXSXkXvXcX-XNXhXnXjXhXsXZXnXdXsXbXCXxXkXBXxXZXgXgXBXxXkXgXzXjXzX].fXxXnXbXbXjX_.CXNXsXnXbXjXjXcXjXcXCXCXbXnXVX).NXAXkXjX-XfX-XhX-X_.(.`.=XkX`.hX-X-X-XNX-X).`.hXfX).-XsX-X).fX).)._.-X(.(.).`.H.-X(.`.C.H.(.(.`.H.G.G.G.*X*XC.D.S.V.M.&.&.] &.` #.F F S S A A 2 h 1 2 > O . > p ; * h p Y < ; , 1 , < ; ; . >   : n r O : ; : O @ @ : w @   @ @ @ # # o o @ o # $   $ o # #   9 + 3.  %   o   4 h.o.k.d.d.a.:.d.E.!.d.d.>.:.@.1.d.1.1.1.1.%./.>.>./.>.>./.aXE./.1.aXf.@.g.g.,.:.>.d.E.!.!.E.qX!.@.<XwX~.@X<XoXXXoX4X3X6X,X<X6X#X<XQ./.!.!.!./.wXwXaXwXaXwXwXQ./.Q././.!.!.Q.wXR.aXrX:X&XaXaXeXrX3X3X1XrX3X%X8XrXrX%XaXtXpXrXrXrXiXeXeXyX2XtXeXeXtXtXeX3XeXeXrXeXrXpXrX%XrXtXpXrXaXaXuXaXwXpX:XuX:XuXuXaXrXaX:XpX:XaXrXrXrX:XaXaX:XuXaXaX:XaX%XaX%X0X%XtX%X%X3XeX$XrX%X{.$X$XeX X@X1X@XoX@X9X2X3X5X$X3X$XrX3X",
"f.d.!.~.Q.Q.!.wXQ.Q.wXQ.wXaXuXwX.XeX5XtX0X#X9X#X,X,X>Xd.>X>XqX7X<X>XQ.@.<XXXE.4XR.g.f.g.s.|.oXoX.XiXuX0XiXuX$XrX9XyX@X0XyXyXqXGXFX2XFXFXFXFXyXyXFXFX6XyXiXFXiXpXrXrXiXDXtXtXrX0XiXrXpXaXaXeX3X3X3X3X%X%XaXpXuXpXrXpXpXDXDX:XDXiXiX9XvXiXuXrXtX8X8XyXiXpXDX8XtXpXtXGXtX+X5XtXtXiX3X5X6X$X8X8XFXFX2X0XrXuXuXwX9XiX0XuXFXIXyXiXqX4XGXFXFXGXPXeX$XiXaXuXaXaXtXDXaXiX0X0XDXiXpXrXtX:XDXDXpXuXiXuXDXiXDXiXiXuX8XiX}.P.1.D.1.D.<.A.A.Z =.U S U P U S P E P L L 2 p 2 E A U ;.$.M.S.C.J.H.(.-X*X-XdX-XZ.dX-XhXvXnXnX`.hX-XhX=X(.hXhXhXfXdXJXfXdXbXjXdXJXZX].bXbXsXzXBXjXlX].fXBXzXNXzXgXzXCXnXkXsXsXdXbXkXsXBXkXsXCXnXjXjXnXjXjXJXcXdXkXSX_.kXMXfXkXkXkXjXlX(.hXbXhXfXdX(.hX-X-X-X-X(.hX`.-X-X_.-X).-XfX-X).(.sX_.`.(.-X`.(._.Z.H.G.G.Z.C.(.Z.C.C.n.Z.S.v.A.S.S.V.M.&.M.&.$.$.` U S P U P L 2 2 > < ; * ; > ; p h ; h > , 1 l g i i < : r . O e O # w d u O O : w u ; # # : o # @ # o : @ + O   % o o % 9 o + 4.9   % < . T w.a.Q.u.d.d.:.E.!.d.d.d.@.:.@.E.1XP. X1.{.R.E./.Q.Q.E.aXQ.E.E.#X>./.6X1.d.XXa.d.Q.f.!.!.!.d.f.Q.^.qXE.Q.wX#X,XXXoX4XqX2X,X4X4X,X<X~.p.wXQ.Q.wXwX/.wXaXwXDX&XaX#XwXwXQ.wXQ.Q.aXQ.aXwXDXQ.aXuX&XrXtX3X+XtXrXrXpXrX:XrX0XrXeX0XuXrXtXeXtXtX5XiXrX3XtXrX8XrXeXeXtXrXrXiXrX.X%XrXrXtX#XrXpXuX:XuXuXuXaXrXDXaXrXaX:X:XaX:XaX&XaXaX:XaX:XpX:XaX:XaXiXpXrXvXpXpX%XrXpXrX0XpX0X%XrXtXoX1XyX9X,X<X4X4XR.XX5X2XtXeXtX8X",
"~.<X<XwX!.!.,.!.wXwXuXyXDXrX0XrXg.#X.XeXwXXX0X@X,X<XqXwXqX7Xk.,.qXQ.XX,.g.oXoXf. X@Xg.g.g.g.$X|.P.tXrX%XiXtX0XtX$XeX%X$X6XyXoX4XyX#XeXqX9XuXeX0XyXGX+X5XeXtXiXDXiXpXDXiXeX8XeX8XvXaX0XaX8XrX+X%XoX&X%X.X.X&X%X%XaXrXuXiXDXrXDXDXpXaXvXFXpXtXuXpXyXFXFXuXFX8X8XtXiXtXFXyXFXrX.XP.8XtXiXFXGX1X6X6X.X2X$X2X5XuXtX2XiXiXuXFX9XuXeX5XFX1XyXuXyX@X%X0XuXpXrXrXDXiX%XiXuXuXDXuXpXaXpXrXpXrXaXpXrXrXiXrXrXrXiXiX8XtX1.<.F.}.%.2.;XL.&.G S C S V S P S P U K A 2 L 1 p L 2 P #.$.M.D.n.C.).(.(.Z.S.=X=X=XvX=X;XG.dXJX=XnXVXVXVXhXcXcX=X).-XvXvXcX(.bXnXhXJXsXbXnX].CXnXgXZXxXxXBXxXBXbXxXzXbXzXzXnXxXnXNXNXhXbXjXjXbXjXjXjXnX=X_.jXdXcXJXzXfX_.fXfXgXhXlXkXSX-XhXfXsXcXCX-X-X_.'.-XcX-XfX).-X-X].-X_.)._.fXsX).fX=X)._.kX(.).-XG.=XsX-X).Z._.(.(.Z.Z.(.(.Z.G.I.V.M.&.] &.&.$.$.#.#.S U U L A 2 1 1 > > O i b i i i * i ; . * , O O ; . # > O : u O . O ; y r r u u w @ O   O @ O O # + $ : @ $   + o X % c @ X b 9 # $ &   4 ^ w.j.@.d.d.:.Q.Q.u.,.d.@.:.@.g.oX,.{.,.P.1.>.>././.1./.R.R./.d.d._ ,.E.P.+.d.a.Q.a.!.~.<X~.4Xd.d.<X#X,XQ.XX9X@X@XwX9X#X X#XwX#XwX#X>.wX!.wXwX#X/.wX#X#XrXQ.Q.Q.aX!./.!.Q.Q.Q.wXaXwXrXaXaXaX%XtXrX8X+XrX$XrXiXaXaXrXpXpXrXrXtXeXtX0XtXuX9XiXiXtXtXtXrXFXiXiX0XrXaX3XrXpXiX%XaXuX&XuXaXaXuXuXpXaXaXaXiXpXDXaXrXaXrXrXrX:X:XrX:XaXpXpX:XpXpX:XpXiX3XiXrXpX%XpXrX.X%X%X+X$X%X$X2XeXuX9X@X,X2X4XqX9X9X.X5XiXiXpX",
",X<X,X^.d.Q.!.!.E.^.GXwXwXwXaXwXg.|.E.2X1X#X,X<X<X<X,X|.Q.7X>X6Xk.k.f.d.>XW.,.|.f.#Xg.g.oXg.oXP.1.%XeXrXtX%X%X%X#X9X9X#X@XuXoXqXuX9XyXyX4XeXuXuXtXFXiXDXiXrXpXiXpXpXtXrX$X3XiXtXiX%X%X:XaX3X.X3X3X$XrX%X.X$XaXrXaXaX:XaXpXaXDXDXpXaXuXtXtX8XtXiXtXiXtXyXiX8XtXtXtX6XeX8XtXiXtXtXyXtX$X6X6XU.6X8XtX3X{.3XtXuXiXuXFXuXyX2X2X9XyXeXFX4X#X0XuXeXtX0XDXpXpXaXDXrX#XpXpXiXiXiXiXrXiXpXiXpXpXiXDXuXDXaXiXtX:XpX6X$X1.}.{.&.<.D.I.&.%.G F C W S S P Q E E K K * K p p 1 = D =.$.M.D.C.H.(.(.;X=X-XvXdXdXnXdXhXnXmXnXdXjXvXhXvXdXH.vXvXnX-XcXnXjXhXcXCXjXjXsXbXCXsXbXbXjXZX[.[.lXfXgXfXsXbXbXZXCXVXsXxXzXcXjXnXbXbXnXbXcXjXJXjXnXJXbXdXdXfXzX_.MXkXcX-X_.-XlX-XlXdX_.hXsX-XhXvX[.-X-XhX-X-XfXfXfXsX).).`.(._.).-X).`.Z.).Z.`.).).=X=XH.=XH.).`.Z.(.(.D.*XV.C.S.S.S.V.V.M.$.#.` H U C A A 5 5 V 1 1 1 2 ; > p ; * > > Y < < ; p ; ; i ; ; : o % w ;   # o > : u r u ; : u # # # # @ @ o % @ o $ o % # # o 9 @   8   @ o   o & o.w.j.>.d.Q.,.!.!.>.:.u.@.>.+.a.OX1.$Xg.g.,./.Q.wXE.,.>.>.@./.>.1.,.g.f.g.| >Xk.k.k.Q.,.E.d.u.Q.7X!.d.Q.<XwX2XQ.#XwX#XW. XQ./.!.wX!./.wX!.wX#XwX#X#X/.wXrXwXwXaXwX!.Q.Q.^.Q.aXwX/.uXaXaX&XQ.rXeX3X3XeXrX.XpXrXpXpXrXpXiXiX0XtXrXtXrXtXuX9XtXtXrX3X8X8XtXpXrX3XrXrXrXtXpXpXrX:XaXaXaXaXaXaXaXpXpXuX:XpXaXrXpXiX0XrXrXaXrXpXDXaX:XDX:X:XpX:XpX:XpX8XrXaXrXrXrXaX$XtX$X%X3X#X.XeX2X2X@XW. X@X9X4X9XqXeXyXiX3X X",
"Q.<X>X<Xd.Q.E.Q.!.E.qXQ.E.0XE.@Xf.|.W.,X#X<XXX>X,XXX>Xk.k.k.d.k.>Xd.d.>X@Xd.,.$X1.E.1.g.$Xg.f. XR.%XrXiXpX0X0X$XaXrX0X$X2XtXeXuX0XuXuXuXeXeXiXuXtXtXDXiXiXrX%XrXiXpXrX%X+X+XtX8XpX%XaXaX&X;X.XrX3X.XrX%X&X.XrXrXaXuXuXrXDXrXDXrXpXrXrXaXtX8X3XiXiXvXyX8XFXFXFXuXFX8XFXFXtXtX+X.X5X8X1X6XGXyXFXGXyXeX9XuX1X X6XiXuXtXtXaXtXeXyX0XGXIX0X$X0X&XpXDXrX%XpX%XDXpXrXpXrXuXiXDXDXpXDXrXDX:XpXiXDXrXuXaXpXaX8XtXpX+X1.P.F.V.F.<.+X_ F #.W V U S C S W P E A 2 2 L i < 2 - U ;.N.M.D.G.sX-XG.-XG.=X=XG.dXhX-X*X-X(.=X=XG.-X-XcXjX-XcXhXhXhXvXcXnXhXhXnXnXdXjXhXnXsXjXbXbXkXfXgXBXBXCXzXkXjXgXjXjXbXgXbXgXjX-XCXjXcXnXVXbXjXnXdXdXcXCXsXNXfXzX_.lXkXkXsXcXkXhX-XhX_.).hXsXfX-XhX_.hXfXfX'.-XfX-XhXfX)._.-XH.sX-XfXdXsX).sX(.sX-X-X-X-XG.-X`.(.(.Z.).=XZ.(.V.D.S.V.V.&.` J $.#.F ` #.Z S A 2 5 h 1 i h > = ; > . . > r Y ; ; O i # # i O O ; o O ; @ o @ O o O 9 e u : @ @ @ @ # # @ o o @ # # $ . % # o 9 o + @ o X : o   : & q.w.u.@.>.>.!.:.!.>.,.>.{ @.@.%.,.a.g.1.1.@.Q.R.d.) d.E.E.f.>.E.>.a.uXa._ g.+.a.k.k.!.>.!.E.f.Q.f.XXQ.XXW.0XwXR.$XqXXX#XwX,X!.wX!./.!.wXwXwXwX#X#X#XwXaXwXaX/./.^./.E.Q.Q./.Q.wX&XrXaXwXaX&XeX%X3X%X3XpX&XrXrXpXtXrXtXpXrXeXuXrXuXtXeXtX9XuXiXFXtXuXpXtXiXrX%XpXrXtXrX0XrXpXDXaXrXaXuX:XaX:XuXuXDXuXaXaXaXaXrX@X%X&X&XrX:XrX:X:XDX:X:X:X:X:X:XiXpXpXpXrXrXeX&X%XrX&X%X&X.X+X$XoX2X9X,XoX@X4X,X@X@X6X.XtX3X8X",
"E.<X<X<Xp.!.j.~.Q.!.Q.W.!.0X>.E.XX,X,X,XQ.9XXXQ.XXf.Q.d.>X1XoX>X>X>XP.d.XX1.d.@Xg.E.g.,. Xs.,.$X.X.X#XtX.X&XaX&XrXiX%X3X3X$X5X2X#XuXyXiXFXyXtX%X8X%X3X%XpXpXrXpXpXpX;X%X3X%XpX:X:X}.:X:X}.%X}.%X8X.XtXaX.X&XaXrXaXrXuXaXuXaXuX#XPXiXiXrXiX8X%XtXtXtX5X8XiXpXiX8XIX6X8XtX6XFX6X1XFXFX7X8XiXeXGX+X$XtXyXtXyXPXIXyXyXqXuX9XFXtXuX2XuXiXtXiX9XR.iX%XDXrXiX:XPXiXtXrXDXuXpXtXpXrXpX:XpXaXaXpXrXaXiXaXiXpXrX8XiXP.P.P.P.<.I.<.I.#.H S W - S E P P U V P 2 3 p K h ; L 7 U #.&.M.C.G.=X).G.-X*XmXG.C.=XG.-XmXG.cXcXvXdXvXcXnX-XNXbXhXjX=XCXvXnXG.nXjXJXdXCXcXCXmXxXzXbXBXbXjXgXjXNXzXjXgXxXnXjXgXfXnXnXJXH.CXjXcXcXjXfXdXbXkXhXjXZXG.bXMXkX_.fXfXsX`.gXkX_.gXcXhX(.jXcXcX(.hX(.hX).jXhXbXjX-XfXjXhXhXfX_.fX_.(.sXsX-XdXG.dX(.G.H.dX(.-X`.(.).Z.Z.D.n.G.Z.D.C.V.V.S.V.A.M.$.H #.$.A U U A A L 2 2 1 1 > > > O > p ; i < ; O i ; O i . # @ o % w w : o O : w r y u @ #   : O # # o # o O @ o 9 # +   o e o # y   w X   . o < x j.:.u.j.d.Q.>.f.>.,.@.) >.:.d.,.g.>.s.{.g.R.>.>.@.!.E.>.d.W.E.,.f.s.@.d.k.@.f.f.:.d.:.4X!.XXyXd.Q.E.@XE.@X0XE.,X9XQ.XX4XQ.Q.!.!./.wXwX#XQ.wX!./.&XwXQ./.wX/.E.Q.E.Q.wXQ.E.Q.aXQ.wXaX&XaXaX.XtXtX.X+XiX%XrX%X:X%XrXtX0X%XpXtX3XtXeX3XuXuXIX%XeX+XeXrX$XtXeX%XiXrX%XrXpXrXrXDXaXaX&XaXuXaXaX:XrXrXaXaXaXaXaXpXaXrXrXrXiXrX&XpX:X:X:X:XDX:XaX8XrX+X:XpX%X8XpX{.rXrX%XrX.XtXiX.X2XeXoXf. X<X5X4X4X4XeXoXtX1XtX",
"E.E.#XE.~.<X!.!.Q.!.wXQ.,X@X@.,.<X!.Q.1.<X!.k.XXf.g.g.a.,.f.OXd.s.g.,.a.g.,.g..Xg.1.f.:.|.1.d.g.{.%X{..XrX{.aX9XDX#X0XDX0XaXiXQ.2X0XeX9XtXeXiXaX:XpXiX&XpXpXrXrXpXpX;X&XrX8XpXaXaX&X:XrX&X&X{.8XeX%XrXrX{.$XtXaXaXaXrXuXaX#XiXrXrXaX0XrXiXtXtXiX8X8X8XFXGX+X8XyXyX5XyXGX7X8XFXT.GX5X6XqXIX6X6XyXyXyX8X8X5X6X8XeXFXuX3XFX5XiXFXtXPXtXuX3XPXiXiXrXDXpX0XiXFXtX3XiXDXeXpXrXDXrXrXrXDX:X:XpXaXiXpXrXiXrXDXiXrX1.F.+X}.+XP.L.&.F #.W C P V P ~ P P P V K 2 2 2 > 3 L 2 } $.A.S.C.sX=XG.).(.Z.=X=XY.cXG.dXdX=XmX-XvXsXG.H.G.).).=XsXjXn.cX=XdXjXcXdXVX=XcXnXnXdXxXnXdXbXzXzXbXxXkXbXgXjXzXsXNXCX].bXbXCXdXnXhXVXhXxXjX-XbXkXhXNXjXdXkXfXAX[.kXgXkXkXsXCXsXgXjXbXsX).bXhX:X-XvX).-X_.).Z.fXfX`.(._.).`.H.-XdX_.(.(.).).sXhX=X=X=X=X(.*X'.(.).(.'.D.Z.D.Z.D.S.D.D.D.S.V.$.$.H F F Z A U A 5 L 2 5 , 1 < > p b * > ; r > * # : ; w u O ;   w :   @ O #   $ e e e $ % O @ y O # o @ : O + @ w % @ # X % +   # O   w   # O   o l k.a.a.:.d.!.o.d.!.,.) :.:.a.>.:.,.,.,.,.R.>.@.>.E.>.:.:.E.@.,.+.1.a.@.d.-.{ d.:.4XW.f.XX,.f.@X@.W.Q.@XW.wXaXQ.aXQ./.Q.wX!.!./.d.!.wXQ.wXwXaX#X#X#X/.wXuX/.R.wX!.E.Q.wXQ.E.Q.#XrXaXrX&XrXuXaX0XaX0X8XiXaXpX%XrXrX&XpX3XrXtXtXeXtXiX3X2XuXtXrX3X3XrXaX3X0X%XrXuXrX:XpXiXuXrXaXaXuXaX:XpXaXrXpXpXaXaXaXaXaXaXaXaXuXuXaX:XpX:XDX:XDX:X:X:X:XlX:X%XrXrXiXrXrXrX+X%X%X+X%X1.&XrX.Xg.3X2X X1X,X2X4X,X@X5XyXtX4X X",
"Q.!.Q.!.Q.Q.Q.!.E.!.Q.d.Q.E.E.Q.E.!.d.:.Q.d.XX6XXX1Xf.g.1X,XP.oXT.d.,.g.g.,.>.g.P.1.E.1.|.g.g.d.{..X{..XuXaXuXpXDX@X0XuXaXyX9X#XuX9X2XuXrX.XiXiXpXpXiX:XpXpX:XpX:X:X%X}.+X}.%XF.&X}.:X;X&X&X8XpX&X%X%X&X{.aX0XaX&XQ.aXaXaXwXuXrXpX0XpXiXDXpXrXpXiXIXiXIX8XFXFX8XIX8XFXGXGXGXGXGXFXyXqX+XHX8XGXPX8X+XoX5XFXFXtX1XtXiXtXFX8X8XtXeXFX,XtX0XPXpXrX%XDXpXpXDXvXiXrXiXiXiXPXrXDXDXpX:X:X:XpXpX:XDXpXrXpXaXrXiX0XF.F.<.P.}.A.<.;.C *.A C U P W P Q E P L V 2 2 2 p p p - U #.N.Y.J.Y.sXG.).(.*XhXvXsXvXsXmXdXjXjXdXjX-XnXbXjXVXcXnXnXjX(.JXvXcXdXcXcXsXvXJXnXbXdXnXnXxX].sXBXnXbXlXzXjXnXBXnXzXbXNXxXnXjXjXZXhXnXbXCXcXgXnXbXsXVXcXjXfXkXzX].gXkXbXkXsXsXsXjXsXhXjXhXhX_._.fXnX-XhXjXVX).hXhX-XjXgXfX-X-X_.-X-X-X).-X-X).dX=XdX-XdXdXdX(.(.(.`.`.(.Z.Z.D.D.V.V.M.V.] ` &.&.` F U G P U A 2 A , 1 = = . * > p . u ; p u ; @ : ; ; w # . : y u @ w y : # @ $ : w w : $ : $ # # # @ # o # $ w o o #   o o % : y $ b 8 w w : & 4 h.a.:.:.:.,.d.j.@.:.:.k.:.,.a.,.+.:.s.,.d.@.,.,.@.:.wX,.@.6 :.>.{ d.@.,.f.,.Q.d.E.f.>.>.oX#X4X1.W.#XE.#XaXwXE.!.aX!.Q.wX^.!.!.!./.wX!.wX#XwXwX#XwX#XwXwX!.#X!.E.E.#XQ.!.!.Q.wXwXwXwXaXaXrXaX9X$XrX%XrX8XpX&XrXiXrXDXrX3XrXrXrXtXFXtX0XFXiXiXtXtXiXiXpXpXrXrXrXaXaXrXpXrXaXrXpXDXpXpXiXpXuXrXrXrXrXDXaXuXaXrX&XaXaX:XpX:X:X:X:X:X:X&X:X:XaXrX;X;X%XeX;XrX8XpX:X%X3XrXrX%X%XeX$XyX$XW.1XXX,X X<X4X4X,X2X5X0X",
"!.E.E.Q.Q.d.d.j.!.wXwXQ.!.d.Q.!.,.d.:.u.W.:.g.>Xg.OXOXg.s.E.OXg.,.,.s.,.,.f.,.,.R.g.d.f.g.d.OXd.g. X#XR.%X/.$X0XuX0X0XuX@XFXW. X9XeX1XiX%X.XiXpX&X&X&X&XpXpXpXvX:X;XaX%X%X%XaX{.:XaXpX&X&XF.%XrX{.rX0X{.&X$X#XaXaXaXaX#XaXuXuXuXDX0XpXiXpX$X{.0XpXIXyXGX8XFXGX8XIXOXFXqXtXGXGXmX7XGXIXFXFXyXFXIX8XGXPXIXuXtXtXtXtXFXiXFXiXuXuXiXtXiXPXiXuX$XtXiXiXtXpXiXpXiXrXtXtXuXPXaXiXpXpXaXDXpXDXDX:XDXpXpXpX:XuXvX{.1.}.<.I.P.<.A.U.F K.2 C P V S P P P V K 2 2 p 2 p p 2 A } F ` N.C.H.G.(._.(.-XsXdXY.jXvXjXvXnXnXvXbXhXbXhX-XnXjXhXhXdX(.CXhXKXH.cXnX-XjXcXnXdXsXnXvXCXCXjXbXsXbXbXjXsXnXzXzXgXjXJXxXbXdXbXJXsXcXjXnXhXgXnXjXsXjXNXkXfXfXfXfX_.fXjXhXsXhXfXhX_.dXdXjXkXhXhXhXvX-X-X-XvXdXcXsXhXhX_.sXsX).`.H.).-X-XsXhX=XdX-X-XG.(.=XG.(.(.`.H.=X).Z.D.(.D.S.F.A.A.V.&.&.$._ ` #.D F U A 2 5 5 1 5 , & ; 1 Y ; p s b s ; # w O : s ; @ @ y @   9 u @   # # o @ : : O O @ @ @ $ O @ # o w $ o $ o   o . # # @ o #   # # %   & q.h.o.>.>.:.d.>.) a.+.>.a.d.:.+.+.+.|.,.,.>.@.,.f.E.:.) >.W.,.>.d.{ g.Q.>.<X:.>.@.,.E.g.f.E.#XE.E.wX/.aXwX#XE.Q.Q.!.Q.!.!.Q.!.!.!.!.wX!.#XQ.E.R.Q.wX#XwX#XQ.E.Q.E.Q.Q.d.E.<X@X#XrXrX0X0X9X%XtX3XuX%XaXpXpX%XrXpXrXiXiXpXtX3XtXeXiXeX0XIXtXiXrXaX0XrXpXrXeXrX:XaXaX:XuXuX:XaXaXaXaX:XaXaXaX:XpXrXpXDX:XaX&XDXuXaXuXDXDXDXpXDXDXlX:X&X:XaX/.pX:X8XaX%X%X8X:XrX&X%X:X+XeX{.{.3X$X$XoXR.4X>XqXXX4X9XqXGXyX5X9X",
"W.Q.Q.wX<Xd.f.!.:.!.!.Q.!.E.<XQ.>.!.d.f.W.>.g.1X$X6XyX$Xf.3XeX.XOXoXoXg.g..X1.,.P.g.,.d.,.d.,X|.f.oX1XR.#X,.{.#X0XrXaXwX0XFXE.#X1XuX0XIXeXeXPXaX&X%X:X;XpXpXrX:X%X&X&X&X}.%XrX'.%X&XpX'.&X{.;XrX{.rXrX&X$X$X X%XwXaX#XE.aXaXQ.aXtX&XtXiXuXrXrXiXiXtX8XGXyXGXGXGXGX1XFX8XyXGXT.HX6X7XGXHX7X8XHXGX6XyXGX8X8X5XtXtXtXiXeX5XuXtXtXiXFXyX5X3XiXIXiXiXrXrXeXpXpXIXtXiXiXuXDXpXDXpX:XpXDX:XpXpXaXrXrX:XpXrXtXiX1.F.+Xs.}.A.;.A.L.A K.- V P S P P K P P K 2 3 K 2 i i 2 2 *.#.N.Y.C.v.n.G.-X=XdX=X=XG.dXsX=X).dX=X-XdXsXhXjXbXsXnXhXCXjXdXjXdXJXH.cXnXhXjXjXbXsXcXcXnXnXjXsXBXkXnXbXjXbXjXBXjXbXfXfXhXbXjXbXCXhXnXhXxXbXfXnXkXgXsXbXjXjXfXzXkXgXlXlXkXfXVXjXgXjXzXsXdXbXjXcXjXhXfXcXjX-XhXcXfXjXfX).fX-XjXdX-XfXsX(.(.dXG.=XdXdXG.).=X(.).-X(.'.*X(.V.Z.S.V.V.V.V.&.&.] $.$.H W #.P S S A A L L L L L 1 O u p . > O s ; # ; @ @ : b s s 9 y w + y y w 9 O @ 9 w d e t e @ : w w @ @ @ @ u $ O $ % X o o : % w r @ 8 9 # :   4 w.k.u.d.d.>.>.@.o.d.| { a.a.{ +.,.@.g.@.a.,.>.d.d.@.>.,.~.:.d.@.{ :.T.-.d.E.) >.d.d.d.d.W.E.W.!.E.Q.E.#XW.E.wXQ.Q.wX^.!.!.!.!.!.!.wX!.wX/.E.E.Q.E.wX!.#XwXd.d.^.E.Q.Q.!.!.4XQ.@XwXyX&XaXrX3XtXrXtX%XrXiXiX&XaXaXrX%XrXaXeXeXtX3XtX0X3XFX0XiXtXrXtXtXiXiXpXaXrXaXaXrXpXrXrXrX:XpXpXiXrXaXrXuXrXpXrXDXuXaXaXaXwXaXaX:X:X:X:XpX:XDX:X&X:X:X:XrX:XrX8X:X:X:X%XrX%XpXrX{.%X{.3XeX.Xg. XW.4X#XyXqX<XW.XXyXqX2XqX",
"E.#X!.0Xd.>.d.f.Q.Q.d.d.:.E.Q.Q.:.j.:.d.d.@.k.yXP.|.g.g.oX$XP.+X+XP.g.P.k.1.,.%.g.1.g.|.+.f.>XXXf.g.|.f.6XW.@X X#XqX X#XqXuX,XwXW.6XoXuX%X&XpX%XaXpXpX;XpXpX:X&X:X&X&X{.1.&X&X1.&X&X&X{.'.{.%X8X&X%X%X&X&XaXaX#XQ.Q.uXaXuXrXQ.:XiX0XiXiXuXpXrX%XIXtXtXtXFXGXGXIXyXGXGXGXHXIXFXIXGXHXHXHXHXIXGXGX8XGXyX8X8XGXiXuXuXIXFXpXFXpXtXPXiXFXiXFX8X6X+XrXDXPXvXuXFXIX3XiXFXtXiXiXDX:X:XDXDXpXpXDXpXDXpXpXpXrX:XpX<.P.%X<.I.<.L.L.W - Q C 3 V V V V V P L V V p L 3 p 2 2 = U U $.S.S.H.).Z.(.(.-X).hX).).nXhXhXjX).jXcXnXdXhXjX`.CX).jXbXNXdXcXkXcXhXhXhXnXbXbX).CXjXcXhXsX].nXbXlXjXsXJXnXBX).bXCXBXbXsXjXjXjXsXjXsXsXgXhXkXzXlXfXxXlXkXgXbX].fXjXgXjX_.jXsXsXgXcXhXfXfX-XhX-X-X_.hXhX-X).sXH._.fX_.fXH.=X_.-XsXsXsX-XdX-XhXmXhX(.*X-XH.(.).(.Z.(.'.C.D.*XD.D.S.F.A.A.V.&.&.H H W G D P A 5 - , = < < = * < g . > . ; ; # @ u ; @ u : :   @ + X # @ # @ o   # o e O % o @ O @ @ @ @ % o $ $ o $ $ o + o % o o O + @ 8 # o & & ..a.u.a.@.>.>.u.:.d.h.d.u.{ ) :.+.) @.@.k.E.>.P.W.g.a.d.k.a.+.!.d.d.+.d.:.>.d.!.:.d.>.d.>X,.E.d.E.!.d.Q.!./.Q./.d.d.!.d.!.!.!.^.wX!.!.wX!.E.Q.Q.E.wXQ.<X^.d.p.Q.E.~.Q.Q.E.<X>X5XqX$XE.aXrXtXtXiX5X+XtXpXrXpXpXiXiXpXrXrXeXrXiXeXtXtXtXiX3XrX0XaXrXrXrXpXrXaXrXaXrXaXaX:XrX:XaXrX:XpXpXaX:XrXaXpXaXpXaXaXaXaXuXaX:X:X:XlXDX:X&XDX:X&X&X:X:X&X:XrX:XaXrXrX&XrX{.:X{.{.}.{.&X3X1XR..X XeXXX,XXX<X<X9XGX9X<X9X",
"wXqX,XwXd.:.!.Q.!.j.d.d.d.~.~.<X>.d.:.,.,.+.P.5Xg.s.+X{.{.{.{.1Xg.P.P.1X1X|.oXg.d.,.f.>X,.d.d.d.k.d.k.f.XX|.XXW.wXyXXXW.wXwXwXyXXXeX5X5X$XeXiXpX{.aX:X&XpX:X;X}.:X&X$X&XP..X{.{.:X&X&X&X/.&X&X%X%X&X&X{./.aXwX%X&XaXwXE.wXR.aXaXeX0XpXrXtXrXiXpX8X1XeX1X8X6X8X7X6XGX7X8XT.HXHXHXHXmXHXGXGXGX8XHX8XGXIXFXyX5X8X8X8XGXtXtXiXiXeXIXtXIXtXGXtXIXiXtXiXIXIXiXFXIXU.eXiXiXiXtXpXDXpX:XSX:X:XpXrXDXpX:XrX:XrXpX1.+X}.F.+X<.P.L.G A A A V ~ Q ~ P P Q 7.2 K K E 3 p > p - U ;.A.S.C.v.C.H.(.(.-X*XdXhXhX=XsXjXvX=XkXhXjXjXjXhXsXJXfXfXVXdXsXVXsXcXjXsXbXbXnXnXsXJXdXnXbXCXsXgXfXgXjXsXBXsXkXjXbXbXbXbXzXbXnXkXkXnXzXkXfXkXgXNXfXzXkXlXlXgXBXgXlXjXgXbXsXhXgXfXdXbXjXjXhX:XjXhXhXhX-X-XjX-XhX-X[.jXsXjX).-X_.(.).(.).(.H.H.(.(.=X(.=X-X*XZ.`.'.Z.(.(.C.(.D.F.S.A.V.M.&.&.N.;.H F F S P U E I L A 2 L 5 5 , i j ; y ; s s 8 ; u @ 8 @ # w # u s 8 9 @ + w $ o $ @ d e y y @ @ @ # @ w : # $ w @ $ $ o $ o % O O + 9 w w # 9 :   ..h.k.j.@.p.:.d.u.a.Q.k.o.+.+.Q.>.@.d.k.k.>.g.W.@.:.k.,.>.@.@.a.:.d.>.f.f.:.!.d.d.d.:.!.k.~.~.Q.~.>XQ.~.Q.!.Q.!.!.!.!.!.!.!.!.^.^.wX!.wXQ.Q.<XQ.Q.~.<X~.~.!.!.!.!.!.!.!.:.>XqX,X5X{.rXuXrXrXtXiX$X$XiXrX%X8XrX:X%X8XaX0XrXeXtXtXtXtXuXGXeXrXrXrXrXaXrXrXrXaXrXrX:XpXrXrXrXrXrXrX:XpXuXrXiXuX:XuX:XuXrX:XuXuXuXaXuXDX:XDX:XSX:XlX:X&X:X&X:X;XrXrX:X&XrX;X&XrX}.rX&X%XaX&X%X{.$X XOXXXyX4XE.>X9X4X<X9XqXyXyX",
"wX#X#XQ.:.@.d.k.f.k.d.!.j.d.:.E.:.d.d.d.f.g.P.6Xg.P.rX8XF.}.$X%Xg.P.OX|.P..XoX1.R.,.W.OXa.d.,.a.k.k.oX@XW.XXXXXX0XwX2X,X<X4X@X4X|.2X1Xf..XeXpXrX%X:X:X&XpX;X&X'.aX&X}.&X.X3XP.{.%X&X'.&X/.aX%XaX%X&X.X&X&XR.aXaXrXwXwX/.wXQ.wXaXtXiXtXtXpXaXiXiXyXuXIX8XFXGXyXHXHXFXGXFXHXIXIXGXHXIXGXIXGXGXGXIXGXiXtXFXIXIXFXiXGXGXpXFXFXPXtXPXGXIXtX8XpXGXiX3XiXrXiXiXiXIX8XIXFXIXPXpXDXDXDXpXSXDX:XDX:XDXpXpX:XrXiXaX1.{.P.}.I.%.A.;.S S V V V P P K P V E Q V K p Y p n > 2 2 D #.N.S.G.(.sX_.).=XjX-X-XcXnX-XjXbXnXhXZXjXbXhXbXNXsXgXNXkXzX`.fXkXhXjXcX=XZXsXdXjX].jXsXnXnXkXsXbXbXzXbXjXbXjXzXxXjXjXbXgXdXjXlXhXzXbXbXNXjXkXjXzXfXjXkXsXgX).lXfXsXsX_.jXsXsXsX`.).sX(.-X_.lX-X_.-XhX-X-XhXsXsXhX_.sX(.sX_._.).(.(.=XsX=X).).-XG.=X*X=XG.G.(.(.(.H.D.D.V.F.D.C.A.A.A.M.&.M.;.$.F H W F F I 5 A - 5 = 5 1 1 < ; 1 O s ; : @ u O @ u u u ; w # u 9 # # # + @ @   O # e o e e : w : @ @ u 9 # $ r w $ + @ w o . o : # w + 8 # % %   x a.:.d.>.d.:.>.:.u.u.>.{ u.@.a.{ @.+.g.,._ { ,.,.g.a.@.,.k.>X:.d.d.d.d.j.!.:.u.<Xd.{ !.<XQ.<Xz.j.!.p.:.u./.!./.d.!.p.p.p.p.p.!.wXwX^.wX^.Q.#X!.<XQ.wXwX!.d.!.j.!.!.!.!.>.>X<X|.4X XiXDX0X3XtXtX3X3XrXrXaX:XrXeX{.rXaXtXtX3XeXuXrXeXtXtXuXrXrXrXrX0XrXrXrXrXaXaXrXpXpXrX:X:XaXrXaXrXpXrXpXDXaXuXpXDX:XrXDXDXrXrXpXDXpXDX[.DX:X:X:X:X:X:X:X:XrX:XrX+X:X%X}.8X&XrX%X%X&X{.aXP.{.{. XXX9XqXW.Q.XX,X4XqXqXqX#X",
"R.d.Q.Q.R.>.Q.!.:.k.u.!.!.d.>.!.>.:.+.@.a.g.s.OX.X<..X+X%X{.1.$XoXP..XP.g.+X.X.XeXg.OXf.a.f.:.k.f.d.d.Q.f.<XXX#X X{.2XwX,XqXW.XXoXk.{.{.tXtX%X%X}.%X}.&X:X&X&X1.:X&X{.%XrXpX1.1.&X{.E.&X'.%X{.{.%X&X1.{.aXaXQ.Q.Q.&XE./.aX/.aX#X/.aXaXiXDX%XiXFX5X8XyXyXGXFX5XyX8X6XHXIXGXGXFXUXHXFXGXHXIXGXGXHXGX5X+X6XuXFXFXiXiXvXFXFX5XiX8XIXtXtXFXIXPXP.8XPXPXpXFXIX8XtX8XtXiXFXvXrX:XDXpXDXDXuXDXDX:XpX:XaXpX:XrX}.<.}.F.+XF.<.L.L.F A V V V A P V P V P P V K 3 Y K E ; p 2 I =.N.S.S.V.n.(.C.H.vXdX).sX=XjXjXdXdX(.nXdXVXbXsXkXjXsXsXsXNXcXcXhXhXnXbX].VXnXxXnXdXnXnXcXjXjXsXnXkXbXxXnXbXkXnXjXgXkXkXbXjXNXjXfXbXkXgXkXjXlXNXxXzX].bX_.lX].sXgX`.gX].hX].].dXsX_.sXsXhX-XjXhX-X-X-X=X).fX-X`.hX-XkX).hX=XhXsX-X).).(.).=X).=XH.G.=X=XG.(.Z.Z.'.Z.G.G.Z.D.D.S.S.A.A.M.M.;.' #.F H #.F A Z - A A L < 1 1 1 ; < i ; n : u ; s # ; 8 s u # @ w y 8 # 8 9 @ w @   @   e # : : O w w O O w :   + e w @ o o $ # # % r # s   O # e : & x h.{ k.d.@.:.u.+.>.u.@.^ a.o.h.@.{ { d.a.d.:.P.d.1.a.a.+.>.d.,.a.d.,.W.,.:.~.d.p.:.j.j.d.d.j.k.j.7Xj.j.~.!.!.>.p.d.!.!.!.!.p.!.^.wX!.!./.!.!.1.<Xd.wXwXd.) !.~.~.!.!.!.>.Q.Q.>X5X#X@XrX9X$XtX3X8XrX&X%X;X%XpXtX&XiXeX3XrXeXrXuX0X3XtXeXiXrXrXrXrXrXiXiXrXrXaXaXrXpXDXpX:XpXpXpX:X:XiX:XpX:XaX:XrX:XaXaXaXuXrXaXDX:X:XpX&XDX:X&XlX/.:X/.:XrX;X;XrX%X:X+X&X3X&X{.}.{.&X1.$X3X X X$X X|.,XQ.4XQ.Q.qXyX4X<XqX",
"E.E.E.E.!.:.W.>X>.o.u.~.d.u.~.d.a.u.{ ,.a.1X+.1.1X1X1.1.eX%X1.1.g.W.g.{.1.g.P.+Xg.,.,.s.>Xg.u.d.d.OXa.XXs.@X6Xd.oX5Xg.OX X3X{.$XoX%X1.g.F.1.%XP.aXrX1.;X;XF.&X1.:X&X&X&XpX}.+X1.+XP.}.{.1.+X&X{.1.&X/.{..X0X0X@XE.!.XX1.Q.#X#X/.&X&XiXiXPXyXtX%XGX$X6X4XyXGXwXGX7XyXqX5X7XqXoXGXqXGXGXFXHXGX7XGXFXGXGXtXtX8XuXiXiXFXtXeXFXuXqX5XFXIXtX6X$X8XPXFXFXeXiX8XiXPX%XpXiXFXpXrXvXpXDXpXDXpX:XpXpX:XpX:X:XpX;XF.1.}.<.*X<.&.F.I.U F P V P L P V U U P A K K K p K i L 3 A U #.$.A.I.(.=X;X-X=XdXdX-XY.sXdXjXjXdXjXjXsXsXsXhXcXsX).sX-XVXjXkX_.kXsXfXgXfXgXzXjXNXnXbXcXcXkX].bXjXzXsXNXxXNX].bXjXBXjXxXBXkXhXkXjXzXlXkXlXgXbXgXxXsXxXdXfX).sXsX].G.].].sXH._.).`.)._.)._.-XsX-X-X).sX).dXdX).sX].sXsXsX=X-X-X(.-XD.-X(.-X(.=X*X=X=X(.(.(.'.Z.D.Z.Z.V.V.S.D.&.&.M.;.M.A.&.` $.#.Z F P U D S V 2 i p 2 h > p p p u > # O b ; O # w # r O O y $ $ @ 9 8 s u s X 8 u 8 w s : w r : ; r w # . # e u + + X   + # 9 9 # 8 # t # :   & 4 0.+.@.{ >.p.z :.p.:.:.o.o.@.>.@.) 4 +.j.d.,.,.,.d.|.,.@.,.,.:.f.,.:.d.,.d.>XQ.u.o.k.~.^.p.i.^.j.^.!.p.!.d.!.p.>.>.p.!.!.!.>.wX!.wXwX!.!.!.!./.!.!.wXwX( ( p.!.!.>.!.!.>.>X|.>X6X2X9X5X%X5XiX8XtXtX;XrX:XtXiXtXrX3X%XiXtX%XtXiXuXtXuXpXtX%XaXaXrXrXrXrXuX:XaXDXpXDXpXDXpXrXaXrXpXpXpXpXrX:XrXyXpXtXrXrXrXrXrXiXaXpX:XDX:X:XlX:XpX&XpX&X:X3X:X+XrX:XpX%X%X8X{.}.{.3XrX1..X{. X@X XE.@X2XW.E.#X<X4X<XqXqX4X",
"R.!.Q.XXXX:.d.d.@.:.!.f.a.u.u.d.a.j.+.d.d.s.@.g.P..XP.1.{.$X%Xg.,.E.1.E.1.{.g.1X+X|.{.k.,Xk.k.d.a.f.,.k.k.oX6XP.P.$X{.$X.X3X{..X.X3X,.1.E. X8X&X{.;X&XpX:XF.}.'.&X&X:X&X:X{.+X1.6X}.{.+X}.aX&X&X{.&XE.E. X@X#X!.Q.E.@XQ.wXQ.Q.R.%X%XiX0XiXrXFXuXFX,X4X4XqXGXGXFXqXFXuXGXFXFXyXGXGX7X6XGXGXiXGXFXGXIXPXFXuXtXFXFXtXiXuXyXFXFXFXFXGXFX8XyXPXIXtX%XiXiXiXrXvXPX8XtXuXFXDXiXPXDXPXDXPXvXDXpXpX:XpX:XpXpXaXF.F.8XA.F.F.<.I.T.U U U L E L P V L W L L E K s K Y s L 2 V D *.;.I.S.S.D.-XdXG.G.=XvXvXvXmXxXjXmXjXmXdXdXhXvXjXdXjXnX_.H.-XsX].nXjXzXkXkXzXgXfXjXzXjXdXsXBXgXbXsXfX[.bXzXzXsXkX].bXxXbXkXjXkXjXkXbXlXkXsXfXkXsXgX).gX].sX).].sX].).).).).`.sX-X).-XfX-X-X-X-X_.-X(.sX=XsXdXsXdXdXdXsXdX).hX-X=X-X=X-X'.=X=X-X(.(.*X(.Z.G.(.H.Z.(.G.D.D.G.*XI.I.S.A.A.&.$.H W ` G F F D A L A 2 h 2 > i > s ; p p Y ; ; Y u O ; ; O u : o w @ + # 8 X q q q X 8 u @ w #   < ; > j j O o u w y w $ e 9 8 +   + 8 + 8 # u # e % f T w.k.s.u.d.:.>.!.!.d.( o.{ u.q.^ ) u.Q.d.+.a.k.k.,.a.,.d.d.,.d.,.,.,.d.g.d.k.k.k.:.u.p.^.j.j.!.p.!.!.>.!.p.!.p.!.!.!.!.p.!.>.wX!.!.!.!.!.!.!./.wX!.wX!.>.p.!.!.!.!.!.!.>.<X<XW.XX,XuXFXrX+XtXrXrXpX%XrXrXtXpXtXiXtX0XtXiXaXrXrXrXrXrXrXaX%XrXpXpXrXrX8XrX:XaXuXaX:XaXpX:XrXrXpXDXpXpXpXpXrXrXtXpXiXtXtXrXuX:XpX:X:X:XpX:X:X:X:X:X&XpX%X:X:XrX&X8X}.aX&X%XrX.X%X{.$X%XP.%X@X.X XR.E.R.XXXXQ.Q.~.4XqXqX<Xj.",
",X#XQ.<X>X:.:.:.o.d.~.d.d.k.o.d.+.u.{ +.a.,.@..X1.g.|.8Xg.g.3X1.R. X1.d.,.{.1.g.P.,.s.OXOXd.d.:.@.,.,.f.1Xg.OXP.d.+XOX3X{..X{..X3XiXR.P.rXeX8XrX,.'.%X:X{.1.{.F.'.&X:X&XrX{.%X{.+X}.{.+X&X%X{.&X{./././.W.#XW.,.E.!.<XE.E.R.E.E./.&XpXaXtXtXFXeX6XW.<X4X<X<X>X,X8XGX8XyXtXyXyXeXFXFXFXFXtXIXPXFXtXyX8XGXFXDXtXeXiXtXFXtXuXFXuXuXGXPXyXyXIXyX5XeXIXDXpXrXuXIXpXpXtXiXiXtXDXpXDXpXDXpXDX:XrXpXpXpXrXpX&X1.1.+XF.P.&.A.I.L.W S A 2 K 2 K P V *.L V K p s K 6.p p 3 L F =.A.P.D.*X(.G.=XG.).=X=X-XcX).dXjXdXdXhXhXsX-XjXjXjXdXhXsXjXcXhXhXxX].gXsXgXbXgXjXkXbXcXhXbXkXkXzXfXgXgXxXkXBXkXbXgXCXbXCXjXgXNXhXlXkXjXgX_.sXgXsXdX).sXG.=X).].`.).J.).).sXC.`.(.(._.=X(.=X-X).sX-X).sXsX-XsX=XsX=XsX=XsX=X-X).=X(.(.*XG.=X=X=XD.G.=XD.Z.(.(.G.Z.D.D.Z.C.S.V.M.&.V.;.M.;.&.#.#.` S W U S A S L 2 L p p p i > ; 3 s b ; # . s O : O ; u : O : o @ 9 u # q X 8 8 # 8   y e : : O O p u O . ; : u 9 @ 9 + o X + % 9 + 8 # u   % O 4 l { T.+.@.!.{ ^ ) o.:.) o.( @.@.) ) :.!.j.@.:.,.d.@.f.a.d.d.@.Q.f.XXd.d.f.>Xd.a.d.h.!.j.z.wXHX!.!.^.!.!.!.p.!.>.!.!.!.!.>.!.!.!.wXwX!.!.!.!././.wX!.wX!.>.^.p.!.p.!.!.!.d.XX<XQ.,X<X6X2X@X5XrX%X%XrX&XrXaX.XpXrX%XrXiXiXrX%XaXrX0XrXtXpXrXaXpXpXrXaX8XpXrXaXaXDX:X:X:XpXDX:XrXrXrXpXpXpXpXpXpXpXpXDXiXDXtXpXrXuXpXpX:XDXkX:XpX:X:X}.pX&X}.;X%X&XrX{.:X%X{.3X+X%X+X{.{. XrX{. X X XoX#XXXXX@XQ.Q.<XwXqX<X!.",
"Q.Q.E.Q.Q.d.d.f.+.d.Q.u.j.!.o.a.u.@.j.k.>X>X,.P.1.,.s.$X1.1.+X@.Q.E.f.,.P.oXP.g.1.-.,.g.P.a.,.a.@.,.d.k.>Xd.g.k.P.g.g.oX{.%X#X X{.rXE.{.rX%XP.{.{.P.8X8X}.&X;X&X&X&X%X%XrX&X%X1.%X%X}.+X%X%X{.%X&X/.{.1.#X@XQ.E.Q.Q.<XE.d.Q.#X#X#X0XDXtXFXFXGX<X,Xk.>X>X>X7XGXFXyXFXyXyXFXyXFXGXFXyXGXFX8X7XqX6XIXIXGXyX9XuXiXFXiXtXIXtXyXFX4X5XFXIX+X6XyX8XiXIXIXFX6XiXuXiX8XFXFXIXDXiXDXiXDXDXPXpXvX:XrXpXtXvX%XrX&X%.<.P.F.I.F.P.U.A.-.Q A V 3 p 2 P A U Q h K K s K 6.K p 2 2 D *.$.&.I.*XD.D.=XdXmXmXdXG.jX=XhXcXcXsXjXcXdXjXjX-XsX).`._.jXdX].hXjX_.gX].sXxX].gXjXgXkXgXCX`.gXlXgXjXlXxXjXbXsXfXfXbXfXxXfXgXAXsXjXkXgXgXsX].gX].dX).sXG.).H.H.Z.G.J.H.(.dX`.=X).(.=X-X-X-X=X(.sX-X(.-XdX).sX).).-X=X].sX=XdX=X-X(.-X-X).-X(.=XZ.G.(.Z.C.(.Z.V.V.C.S.S.V.V.A.M.V.;.&.&.;.N.$.$.H F F F S P A 5 2 2 2 2 i 2 > s ; s Y s s > s ; w # O : u o : O w 9 8 8 u 8 8 8 8 s # j o   > O . : O u : # 9 y y e 9 @ + 9 + o 9 8 # # 8 # % . : & { k.+.{ ~.:.>.6 ^ u.:.d.o.@.( ( { ) ) @.:.@.+.:.a.k.d.,.a.:.f.+.d.f.|.a.d.k.d.j.u.Q.j.!.p.j.o.!.!.d.>.!.d.!.p.>.p.>.!.!.wX!.>.wXwX!.!./.>./.!.#X#XwX/.>.!.p.p.!.!.d.d.!.XXXX2X4XyX XE.#XtX$X+X+XpX%X:X%X%XiXtX%XrXiXrXrXaXaXpXrXrXrXpXtXrX:XpXaXaXrXrXpX:X:X:X:XpXpX:X:X:XaX:X:X:XpXpXDXrXrXiXrXiXpXuX0XDXiXpXDXDX:XpX:X:XDXpXpX:X:X%XrX:X%X+XpX3XpX8X}.tX&X{..X+X.X$X.X1.@X@X X@X2X@XW.Q.Q.<XwX<X^.<X<X",
"XXQ.W.d.d.d.a.a.:.d.j.j.u.:.:.u.j.{ ~.a.@.l.-.f.k.OXg.s.s.OX6X%.f.d.{.,.>X.XP.s.P.1X|.,.P.XXW.d.,.f.,.d.d.g.g.P.1Xg.,.{.1XtX%X{.{.1XP.{.tX.X1..XF.1.}.{.P.+X}.{.&X#XaX&XrX%X&X/.}.%X}.{.&X.XF.$X#X1.R.1. X X XE.<X!.E.!.Q.@X#X2X.XrXrX2X5X6XXXf.Q.k.,X7X7X<XQ.W.1XuX3X3X8X5XuXyX8XT.6XGXGXGXIXFXGXFXGX8XeXPXiX1XpXtXFXiX8XPXtXtXPXPXGXGXuXyXFXIXtXFX8XIXFXFX8XFXrXtXvXuXFXtXpXpXPXrXiX8XpXiXiXvX3XrX}.<.P.I.F.<.%.<.<.%.;.*.L 2 K E p V V A y.E p p s p E p b p 2 U L.L.A.I.*XC.G.dX=X*X=XsX(.-XG.=XdXdXZ.=X-X(._.dX-XdXdXcXjXfX).H.dXsX].jXgXkXbXsXsXkXjXnXfXbX`.xXxXxXxXxXzXbXjXgXxXkXbXjXbXbXgXCX[.gXlXfXgX].).sX).sXJ.=XH.).H.H.Z.(.H.G.G.(.D.(.G.S.G.(.(.=X_.(.-X).(.-X-X(.).).=X-X).=X).H.(.G.-X(.=X(.Z.G.Z.D.C.Z.G.n.v.C.Z.V.M.V.Z.S.C.A.M.&.&.&.' ' #.` $.#.H F F F S A L A A 2 > > > ; s ; ; s p ; s > s @ u O u u : # t : @ + 8 + a s 8 8 X #   d t j u ; O r ; b y O o o @ @   X X o X X e + + # 9 : O   & & 9.k.t.+.p.>.>.) o.( @.o.) ) ^ z ( u.O.:.@.@.,.+.a.,.d.,.a.d.,.f.f.d.k.d.,.k.>XQ.d.~.j.u.p.j.u.!.!.!.!.!.p.!.!.p.p.>.!.!.!.!.>.wX!.!.!././.!.Q.wXwXwX!.p.p.p.p.!.!.!.!.^.Q.d.Q.W.uXQ.Q.%X.X{.$X%XDX%XaXaXtXpX%X:XrXrX&XrXaXpXpXpXaXaXrXrXpXrXpXpXrXrX;XaX:X:X:X:X:X:X:X:X:XpX:X:XpXpX:X:X:XpXDXvXvXFXDXpXiXpXpXpXDX:XpX:X:X:X&X&X;X&X&XpXrX;X&XrX&XpXeX&X}.%X3XeX{.1.{.$X X$X@XE. X#XXX XQ. X4XqX7XQ.!.Q.",
"k.W.W.d.:.d.:.,.:.d.d.j.o.| j.j.a.^ 7Xk.a.>X-.@.s.OXOXg.g.k.OXk.|.d.XX,.g.1.P.>X,.|.d.%.k.g.d.,.k.d.,.,.d.OXg.g.P.P.g.|.1X3XoX{.|. Xg.g.oX{.1..XE.1.%X%X.X;X{.P.aXR.%XR.&X&X&X&XF..X&X1.1..XE.$X#X/.{.,. XW.E.d.Q.d.E.d.#XXXW. X@XwX,X.X4X,Xf.j.k.Q.Q.Q.~.<X4X7X3XFXtX5XGX8XyX8XIXPXPXFXHXmXIXFX6XFXPXPXuX5XrXiXFXiXtXFXGXIXGXGXGXFXpXtXeX}.8X8X8XPXFXvXvXIXpXuXtXpXIXtXiXpXpXiXDX:XpXrXpXvXiXuXiX8XF.-.P.+X<.` F.A.L.;.L.*.U A K E K 2 2 3 y.L K Y K p Y b K 2 L L *.$.&.V.S.Z.-XmXdX=X-XsX).sXcXjXvXcX=XhXjXjXdXhXhXjX_.-X-X=XjXfXhX_.).sXsXjXkX].sXjXsXgXsXjX].zXzXzXlXgXzXzXsXfXbXjXjXjXbXxXgXNXfXlXlXsX[._.).).G.].H.H.J.H.H.H.H.H.G.J.G.G.(.*XG.G.*X=XY.=X=XZ.*X`.D.(.(.(.H.'.(.=XH.).H.H._.'.=X(.(.Z.(.D.(.(.'.=X*XD.D.D.D.S.C.S.S.V.M.M.A.M.N.A.A.&.&.$.#.$.H F W U Z V P A L 2 2 p i p 3 K K p p s Y ; ; ; s u s s : # w 9 w $ 9 + u 8 8 u 8 w + c o o : u : b : r O ; y w 9 e w u u $ o % b e 9 @ 9 + O . < . | t.w.d.j.>.) o.u.o.o.@.^ >.o.) ) >.o.>.o.| d.>.:.+.d.d.,.d.d.>Xk.,.W.Q.g.f.k.Q.!.^.j.d.j.!.u.!.!.!.!.!.!.!.>.p.!.!.!.!.p.wX!.!.!.!.!.!.>.!.Q.!.!.!.d.p.!.p.p.p.!.!.!.!.Q.f.4Xf.0XE. XE. XR.{.{.0XaXaXrXpXrX&XrXrXrX}.rXaXpXuXrX:XaXaXaXrX:XaXrXpX:X:X:X&X:X:X:XlX:X:X:X:X:X:X:XlXpX:X:X;XpXiXiXpXpXtXuXuXpXpXDXDXpXpX:XcX:X:X:XpX&X;X&X&X%X{.rX+X+X%X{.%X.X{.+X$X{.{.{.{.E.E. X X|.W.@X2XXX<XwXwX7X>XQ.",
":.,.d.d.a.f.j.Q.:.j.u.u.>.o.!.j.+.| j.:.+.k.@.:.@.,.k.s.d.s.s.f.f.d.f.,.s.|.T.qXP.g.g.|.5XoXW.W.d.a.d.,.g.g.g.d.,.g.OXoX.Xg.g..X{.P..Xg.P.{.g.+XF.1.%X+X.X+XP.{.1XW.#X/.&X{.&XaX{.&X{.{.{.$X|.$X&XR.R.E.XXE.Q.!.<XE.W.d.Q.XXW.R.W.E.d.d.XX!.,.u.f.>X>XQ.<X~.f.f.6XtXtX1XtXtXtX8X8X8XGXtXtX8XGXPXPXGXyXtXeX+X$XtXtXFXIXGXFXmXGXGXFXtX8X6XIXtXPXFXiXIXiXeXpXFXiXtXIXvXIXpXiXiXpXDXPXvXiXpXrXeXtX8XDX8X<.<.1.I.<.%.<.<.A.;.y.U I 2 1 E L K p 2 Y 3 Y K K Y Y K L ; P U U W &.A.(.;X=X-X-XdX=X(.G.dXsXdX=XdXH.=XdXdXdXG.G.=XH.(.(.-XG.sXdX).sXsX).sXfX].xXbXxXsXxXzX].gXgXgXgX].xXxXgXgXnXjXjXbXxXhXgXlXgXfXfX`._.(.`.).G.Y.C.H.B.H.H.C.S.v.S.C.Y.G.D.G.S.S.Y.Y.D.*X*XD.(.Z.(.Z.G.(.`.(.G.(.H.Y.sXG.(.V.Z.Z.V.V.D.(.V.V.Z.Z.C.n.S.Z.V.V.M.V.A.M.A.A.M.M.&.M.&.$.` H ` $.H #.W #.S Z A 3 A 2 2 2 ; 1 . p s ; ; > 5.# u : u u ; s w @ O 9 u w s @ w X 8 8 # # + y j n O j u r # w   # r @ o : @ $ w + + % m e w w $ # % $ : & ..w.w.h.j.o.B ) u.( ( >.z ^ >.^ { >.@.j.:.@.d.:.j.d.j.k.:.k.k.@.@.j.7XQ.,.d.k.k.:.d.u.!.!.!.d.i.p.!.!.!.p.d.>.>.!.!.!.!.!.!.!.!.!.!.!.!.d.!.!.Q.wX!.!.>.p.!.p.p.!.p.!.!.!.<XwX,X,Xd.#X/.#X{.g.1.&XaXaX&XrXrX:XpXaXiXrXpXaXrXrXrXrXrX:XpX:XaXaXaXrX:XrXpX:X:X:X:X:XDX:XlX:X:X:X:X:XpX:XpXvXDXPXPXiXDXiXPXDXPXDXDXpX:XpX&X&X&X:X:X:X;X:X&X&X%X}.pXaX}.+X&X.X}.{..X$X}.g..X{.E.E.@X@XW.W.oX<X,X<XwX4XwXwX<X",
"d.d.k.f.:.d.u.!.u.!.u.>.:.p.u.o.o.d.u.+.@.+.@.OXd.l.P.a.k.7Xk.a.>Xk.k.P.>X4X1.P.>Xg.1.,.g.g. Xg.f.,.|.a.a.-.|.P.,.g.P.{..Xg.g. X,.1.$X{.g.OX{.OX Xg.{.g.{.}.g.{.,XE.W./.{.E.'.&X{.'.{.1.P.+Xg.|.1.1.,.,.E.1.W.d.<X:.E.d. Xd.f.<X4XQ.a.d.Q.d.+.a.j.,X!.!.~.Q.!.XX+X3X3XP.8XuXtXyXiXFXtX8XiXGXFX8XtXGXFXtXiXiXFXtX8XFXPXFXPXFXIXFX8XFXtXT.GX+XFXPXeXeXrX5XiXIXtXiXpXpXIXiXvXFXpXPXDXiXpXeXpXtXDXFXtX3XP.oX<.1.<.%.<.&.L.<.;.D P A L E L K 3 L 2 > 7.2 ; s Y Y Y h 2 L } $.L.I.G.G.*XdX=X=XsXvXjXdXdXdX-XhX(.-XG.=X=X=XhXhXG.sX(.=XH.).G.C.(.sX(.sXsX`.jXfXzX].bXgXgXxXgX[.gX].zXzXzXsXxXxXzXBXjXjXgXfXgX_._.H.`.`.G.G.H.G.C.C.B.S.V.M.H.M.H.V.H.C.M.G.D.D.Y.G.D.Y.=XD.*XS.(.D.D.*XD.D.G.G.C.G.G.H.G.V.'.(.V.Z.D.D.Z.C.S.D.2.v.D.V.V.M.V.A.V.] ' &.A.$.' &.$.&.&.$.#.$.F F S W S A A 2 L 2 3 2 ; 3 p s ; p s . p > i u ; ;   : w u O @ @ + 9 8 a w u 8 @ # 8 9 @ y O Y : O   n r % w # @ w # X @ + # # t X + w $ # O <   & l a.t.h.>.( ( >.u.{ ^ ( ) ^ o.^ o.a.o.j.>.o.| +.>.d.d.a.k.:.!.f.>X!.R.j.Q.Q.Q.W.j.!.d.d.^.!.!.j.!.!.p.!.>.!.>.p.!.p.!.>.!.!.>.!.!.!./.!.d.wX!.^.wX!.>.p.p.!.p.p.!.p.!.!.E.<X,.2XQ.,.4XE./.#X#XE.R.rXaX/.pX&X&XpXaXpX&XrXaX:XrXrXpXrXrXrXaXrXrX:X:X:X:X:X:X:XDX:X:XlX&X:X:X:X:X:X:X:X:XpXDXDXiXPXtXiXrXFXaXDXiXpX:X:XDX:X&X:X:X&X:X&XpX:XrXrXF.rX3X$X%XrX.X.X.X{. Xg.1.R.0X#X.X#XR.W.#XoX!.<XqXHX^.Q.~.>X",
"d.:.d.k.d.d.a.f.u.k.>.j.o.>.p.p.u.j.>.+.@.u.:.,.a.Q.T.u.a.a.>Xk.@.k.d.g.k.,.oXs.g.,.|.g.-.,.g.f.d.a.g.Q.XX,.|.|.1.P..Xs.g.1.E.W.1.P.,XOXf.g.OXOX1.1.g.{.P.P.|.1XOXd.k.1..XE.&X1.{.&X2.{..X#X$X$XE.,.W.d.E.W.d.f.W.f.Q.,.W.@X,.f.d.!.j.k.~.u.u.d.j.>Xj.f.k.~.!.1.oX5XP.{.+X{.{.+X$X3X6X5XIXGXiXGXiX8XyXtXiX3XtXtX.XrXrX$XtXtXGXPXGXiXIX+XFXiXIX8XFXyXFXFXpXFXiXiXDXtXtXpXrXpXiXDXDXpXiXPXrXtXeXuX$XP.} %.s.<.U.<.%.;.;.s.y.} *.- V 2 L 2 p L p 2 Y R > p 1 p Y L 2 L U $.N.D.D.C.D.G.*XsX=XcXdXdX=XvX=XmXG.dX=X-X=X(.*XZ.*X=XG.(.=XY.G.G.G.=X=X).sXsXsXsXxXdXxXsXxX].xXgXxX[.gX[.xXgXxXdXgXnXxXsXkX].sXsX).)._.G.H.Z.n.S.M.v.C.C.v.M.V.S.M.S.S.V.V.S.S.C.S.S.S.G.I.D.S.D.S.D.I.S.D.A.C.D.V.D.D.S.D.D.D.D.D.S.S.D.V.M.V.] S.V.] V.S.&.A.M.M.&.N.S.N.&.M.' N.' $.N.W $.H H F W S A Z V A L 2 * 3 > p > ; > ; ; s ; i i   Y   b u w y   8 # + a 8 s # w # 8   b   y r y > @ e j d r w # u w r @ o 9 %   y w + 9 b @ O % . % x t.l.h.u.o.>.( ( @.( u.o.) ^ ^ u.j.o.k.^ ( { @.a.!.d.| j.a.u.E.:.:.!.Q.d.XX~.E.u.!.>.j.!.p.p.!.!.!.!.p.p.p.p.p.p.wX!.p.!.>.!.p.!.p.!.!.!.Q.E.^.wX!.p.p.p.j.p.p.j.~.<Xj.@XE.Q.Q.wXd.E.E././.W.aX1.uXaXaXpX;X:XpX%X:XaX:XpX&XrXaXrXrXiXrX:XrXpXrX:XpX:X:X:XpX:X[.:XlX:X:X:X:XDX:X:X:XDXDXrXDXDXDXiXuXiXiXpXDXDX:X:XDX:X:XpX:X:X{.:X:X&X:X%X1.:X%X+X$X3XtX.X.XrX1.|..X X$X{.{.tX2XW. X@X#X<XqXHX>X<X!.~.Q.",
"Q.,.a.d.k.k.j.j.j.j.p.j.:.p.p.j.p.h.u.a.o.+.@.a.k.-.a.d.>Xa.k.l.a.6Xd.g.s.s.g.a.g.,.OX{.f.E.|.R.f.k.OX6X,Xk.P.R.g.f.oXk.g.%.,.R.g.k.OX{.|.g.OXP.|.s.g..XoX|.g.1.g.k.oX|.1.1.&X%X&X/././.1.g.,.|.f.E.#XE. XQ.d.f.<XQ.Q.Q.6XqXE.W.d.!.k.~.>X!.d.j.j.~.k.!.Q.Q.a.>.5XtX.X X3X1XoX5X3XtXeXeXyXyXFXPXtXGXPXFXuXtXeX8XiXFXuXiXtXFXyX8XtX6XyX@XeX3XtXtXvXtXiXtXpXFXtXpXIX8XpXiXpXpXpXiXiX0XtXIXeXtX6XtXFXP.<.,.g.L.;.%.%.` <.<.#.} *.L L 2 L 3 2 K s 2 T 7.K Y L h Y Y L E *.$.&.N.I.*XG.*X*X-XG.dX).dX=X-XG.dXG.dXY.*X=XG.*XG.=X=XD.H.D.G.G.H.G.G.).Y.G.dXdXjXzXjXzXxXxXxXxXgX].gXgX].gXdXxXxXxXnXsX].lX_.fXjX_.).H.C.C.C.M.S.M.M.M.B.m.M.M.V.M.V.M.M.S.S.S.D.S.S.V.S.S.S.S.V.C.M.S.S.V.V.S.I.A.A.N.S.A.V.V.S.A.V.V.V.V.V.F.M.V.M.&.N.M.` $.` &.$.$.&.$.` $.H ;.` ` H $.$.#.W F =.U S A 2 2 2 2 1 > 2 ; * ; ; ; > s ; ; s ; 4.# b s w @ # s 9 s y + 9 X u 8 9 @ m   w w r : : u r w e # # w o 9 w w % % o y b w u w # : % % & M h.z.j.q.) ^ ( ^ z z o.^ ^ p.>.>.+.@.!.) >.p.>.u.j.!.d.!.u.o.d.d.p.d.:.:.,.d.,.:.E.:.p.!.>.!.!.!.( !.!.!.!.p.!.!.!.p.!.!.!.>.!.wX!.!.!.!.Q.!.^.^.!.!.8.j.j.p.j.!.!.!.d.!.E.@X<X#X1.R.Q.E.E.aXyXE.#XE.aX:XrX:XpX;XrX:X:XiX%XrX:XaXtXpXrXrXaXaX:X:X:XpX:X:XDX&X:X:X:X&XlX:XDX:XDXDX:X:XDXiXDXDXDXDXiXFXFXiXiXpXrXpXDXpX:XpX:XDX:XpX:X&X:X:X{.rX:X$X&X%X%X%X3X.X0X+X$X.X1X$XE.W.#XW.@X#XwX<X7X<X<XqX7X>X!.",
"a.:.:.a.f.j.u.j.d.:.u.j.p.i.o.d.p.+.u.d.+.d.a.>Xk.+.-.a.k.+.l.l.a.,XT.k.s.a.s.OXk.s.P.g.,.,.1.g.d.,.d.g.s.f.g.T.T.g.P.XXs.,.f.|.OXOXOX|.oXoX6Xg.OXg.g.|.|.|.g.g.P.s.a.d.{.1.&X{.1.F.{.F.%.{.g.|.,.Q.f.,.d.d.d.f.!.R.,XXXW.W.W.Q.j.!.u.u.j.d.j.k.j.~.!.Q.~.>Xf.d.|..X{.g..XP.g.oX@X@XP.1XyXIXIXFXyX7XIXtXtXiXrXyXDXFXiXPXyXPXFXyXIXeXiXiXPXFXtXeXIXpXpX8XtXFXmXiXvX8XpXiXpXpXpXtXrXpXuXtX6XtX$XOXtX%.s.,.U.+X-.<.<._ <.-.} -.-.R U L 2 3 p K p K 2 R 2 2 i p p K 2 A P W L.Y.Y.;XmX=XmXmX=XdXdXvX=X=XG.=X*X;XY.G.=XG.G.S.*XD.C.C.C.C.S.V.C.G.H.H.H.(.sXsXgXsXjXgXxXxXxXxX].xXMXxXxXsXxXdXgXxXsX].hX_._.-X(.G.Z.V.C.V.M.S.M.M.M.$.] M.M.M.C.V.V.M.V.B.M.S.S.S.V.S.S.S.S.S.A.M.M.S.m.&.N.S.&.B.N.A.I.V.A.I.D.A.A.I.A.&.&.&.A.&.&.A.;.&.A.N.N.&.N.N.M.=.B.$.N.$.m.$.H H W H S W F S P A A A 2 2 2 2 * ; p p ; u s ; u s s b # b 8 w @ s t 9 u u 8 w X 9 u # @ a # 8 e w : : w O o O : O y @ : $ @ # @ $ w b u u o O w % % & T z.x.9.>.z ^ ( o.( ^ w.^ ^ >.q.>.u.u.!.) o.@.( u.@.p.>.:.:.>.u.:.>.p.>.<XQ.Q.!.>.!.!.Q.!.p.!.>.!.>.!.!.!.!.p.p.p.p.p.p.!.!.p.p.!.!.!.>.!.^.^.^.Q.!.!.!.j.j.p.i.j.j.!.f.wX!.<X#X#XE.aXQ.E.#XaX0X#X#X#XpX&XpX:X:X:X:X:X%XrX&X%XrX&XrXtXpXrX:XaX:X:XpX:X:X:XlX:X:X:XDX:XDX:XDX:X:XpXDXDXDX:XiXpXpXFXtXFXiXDXrXpXiXpXDXpXpX:XpXpX:XaX:X&XpX8X{.rXeXeXrXeX%X$X3X1.tX$XoX{.$X%X XR.@X@X9XQ.#X7XqX<X7X7X7X~.~.",
">.a.d.k.j.d.>.u.p.o.p.j.>.p.( p.u.o.u.o.{ l.a.a.:.,.,.u.,.o.a.k.,.g.>Xg.k.,.g.>X+Xa.a.,.g.1.f.d.d.g.OXOXk.5XoX|.W.g.|.P.g.g.$XoXg.oXOXs.P.>X+X,.,.-.,.s.g.g.1.,.k.f.W.P.oXg.3XF.{.+X+X{.1.E.oX%.,.,X,.,.d.f.E.Q.4XW.Q.Q.k.XXXXa.d.j.j.!.~.j.z.d.d.d.k.k.Q.f.d.f.|.{.+X{.$X.Xg.$X6X8X,X5X8XGXGXqXGX8X8X6XeXFXiXtXtXFXyXtX1XyX8X5X8XrXIXiXtXtX8XtXIXFXGXtXiXFXFXFXIXpXiXvXiXiXrXpXaXiXiXtXtXFXGXeXeX} ,.s.T.P.-.;.;._ #.F U } *.R U P V p L K p K 3 R L 5 L h p L 7.R P *.L.Y.I.D.*XD.H.=XG.Y.G.Y.D.Y.-XD.D.=X(.D.I.S.S.C.D.S.S.D.S.S.C.V.M.C.C.C.H.Y.=X).sXdXgXsX[.].xX[.`.gXxX`.xXsXxXdXsXxXdX].hX_.).(.H.H.G.S.M.S.M.M.$.&.M.$.' &.$.' N.M.&.] ' v.' ] ] M.v.] M.M.M.M.M.M.M.M.&.&.M.$.$.I.N.$.&.' $.M.&.&.&.N.&.` &.$.;.$.$.;.$.$.#.$.$.W $.` $.&.A.&.N.$.N.&.#.$.W #.H *.U U S A A L 2 3 2 > p p p ; u p > . n s u ; # u ; 8 w 4.a 8 u 9 e t 8 9 s X 8 y 9 w w e w w r w O % @   : w y @ @ e w $ : y r @ $ : % o < & M j.w.x ( 4 ( o.( o.o.o.^ ^ o.o.o.u.u.p.p.>.o.o.i.>.!.:.j.p.o.>.>.>.( ) >.>.d.k.:.>.p.d.!.>.p.( wX!.!.p.p.!.!.!.!.!.^.!.!.!.!.p.!.!.!.p.!.wX^.^.Q.!.!.!.j.p.u.p.j.j.Q.Q.#X1.E.E.R.E.Q./.1.#XW.R.E.&XrXrX&X:X:XaX:XpX:X%XpX%X%XpX&XpXtXrXuXuXaXrXpXpX:X:X:X:X:X:XlX:X:XlX:XDX:X:XDXDX:XDXpXDXiXDXiXiXFXiXiXrXpXpXpXpXpXDX:XpX:X:X:XpXpX:X&X{.rXeXrXrXtXaX.X%Xg..X+XoX.X X X%X0X0X2X4XXXQ.<X7X<X7X~.~.j.^.",
":.,.u.f.j.f.o.:.d.p.j.>.( p.o.i.u.o.!.+.| :.a.a.@.,.a.d.:.a.d.>XOXs.oXg.g.a.g.d.d.s.k.g.R.,.g.1.oXQ.XXk.,.T.g.s.,.,.g.P.g.P.XXg.f.|.P.f.P.g.T.d.d.,.d.P.OX,XOX,.s.g.k.P.g.<.$XP.{.+X}.|.g.1.OX,.>. X:.d.g.d.d.d.Q.f.W.Q.XX5X4Xd.j.p.j.!.~.j.k.j.i.d.>X>XOXk.s.1.,.,.g.1.g.1.,.g.OXOXf.OX,XyXFXFXPXFXGXFXFXIXiXuXtXFXuXtXuXuXuXFXtXiXFXtXeXiXiXIXtXFXtXtXGXpXtXtXvXpX8X8X8XrX%X8XrX$X5X2XuX>X4XyX>X,.-.P.L.s.-.<.;.;.%.D ;.U *.X.2 V V E 7.K s p 3 R L A L 1 2 p p L P #.;.A.S.*XmXY.=XmX=X=X=XdXI.Y.=XD.I.=XY.Z.D.S.A.D.S.V.V.V.M.N.V.V.V.V.V.C.H.Y.).).).dXgXgXxX].xXgX].xXxX].dXgXgX].sXdXdX=XsX).=X).G.G.C.M.V.M.&.M.' m.M.$.$.&.&.' M.] ] ' M.C.v.M.v.C.v.b.v.] b.] b.M.[ ' M.' $.' ' S.$.=.$.$.$.N.$.$.$.;.&.#.N.$.$.H #.$.;.$.W #.N.=.;.H $.$.m.` H ' &.#.! #.H H S F S A A - V A 2 3 2 2 > p Y > ; > ; ; 5.u ; # @ s 8 @   y 8 # 8 # 8 8 w # u   w u 8 u # o # # ; w @ + %   ; 9 y O o : w # 9 w b # y r % . %   f 9.e...p.^ ( ( / ( ( ( ) ( u.O.( @.>.>.@.( >.( p.^ p.>.o.( ) ( :.>.:.>.!.:.E.~.^.!.!.!.!.p.!.( !.p.p.p.p.p.p.p.p.!.!.p.!.^.!.!.p.!.!.!.!.^.^.wX!.!.p.!.i.p.p.p.d.!.~.>Xd.,.Q.E.Q./.W./.>.&X X XW.E.aX&XpX:XrX:XpXpX%X;XiX:XrXDX3XiXpXtXrXuXrXpXpXrX:XpX:XaX:X:XlX:X:X:X:X:X:XDXDXDXaXDXpXDXDXDXDXpXDXDXDXDXDXDXDXDXDXDXeXvX8XiXrXtXrX%X&X+XrXrXrXrXtX3X3XrX1X{. XeXoX|.#X0X0X@X@X|.<X4X<X7XQ.7XQ.^.p.!.",
"+.a.a.d.u.a.+.a.>.o.p.u.o.i.p.p.j.( q.u.~.~.d.:.a.a.a.,.@.k.k.>Xf.g.g.k.,.k.s.k.-.d.k.g.d.-.g.g.yXP.d.d.,.d.g.oX|.T.OX6Xf.|.OX>X|.g.k.OX>Xd.g.OXoX|.g.d.,.,.+.@.OXg.,.g.1..XP.g.+X<.{.P.<.,.1.+Xf.<Xa.f.W.d.!.f.Q.W.<XXXk.Q.1.{ j.p.p.h.j.p.!.j.k.j.7X>XXXQ.f.f..XR. X XoXW.|.2X1XOX1.d.OX6XyXqX8XGX8XtX5X8XrX0X%X3XrX0XPXuXeXuXFXtX3X8XeXtXeX8X8XFXtX8XmXtXtXtXGXiXpXpXpXpXpXiXFXtXtX3XyXW.7X6XXXU.#.P.a.%.-.%.F -.%.D -.7 } } - S V E E K 2 K P r.L I L E L L A E *.=.$.$.&.] S.M.S.Y.S.S.S.S.D.C.S.V.S.S.M.v.] M.] M.M.M.M.V.' &.M.S.A.B.B.V.B.J.H.).H.sX].sXxX`.[.].].].xX].sXsXsXsXsXgXgX).sX=X=XG.G.S.M.M.&.m.' m.` $.&.$.' &.$.] M.M.&.M.' ] [ ] ' v.[ b.J.v.v.v.v.V.' ' ' G H H ` ` Z H #.$.#.;.H #.H $.;.W $.#.=.$.#.F #.#.H #.#.H ;.H N.$.$.$.$.m.N.$.$.$.$.W W W F F U V 2 5 5 2 2 = ; p R i ; > . s Y s @ u s s @ u 9 b 9 9 w 9 s s t 8 b @ b y s s w y w O t b y : r @ y : u O # . o # O O m . b $   % f o B k w.i.j.^ ( ( ( q.( q.^ q.j.u.u.q.>.o.) o.p.o.>.( o.>.( >.>.( >.) ( >.:.:.:.,.!.:.d.!.p.p.!.( !.p.p.p.!.!.p.!.p.!.!.^.^.^.p.!.p.p.p.!.^.^.!.^.!.!.p.!.i.p.i.p.u.j.f.!.@XE. XE.aXE.Q.Q./..X#X%XR./.#XaXiX;X;X&X:XrX%XpXrXrXrXiXqXvXtXiXrXiXtXrXpXrX:XpX:XaX:X:X:XaX:XDX:XDXDX:XDXlX:XpX:X:X:XpX:X:XpXDXpXpXDX:X:XiXpXpXuXDXpXiXrXrXrXrX%X%XpXrXrX3XrX3X$XtX5X$XR.tX X{.eX%X0X,X2XW.4XyX<X7X!.<X~.^.!.!.",
",.d.h.f.+.d.u.!.o.o.p.p.p.p.p.p.o.p.h.k.w.+.>.k.d.d.,.{ +.XXXXW.+..Xg.s.s.k.d.P.a.d.:.-.P.,X1Xf.g.d.s.k.P.d.P.f.|.g.g.g.g.g.g.k.P.l.d.g.W.,.d.g.a.d.d.a.-.d.W.f.oXg.|.1.1.OXP.P.6Xs.|.P.g.-.,.g.g.OXd.:.a.a.E.f.Q.:.E.E.W.6Xf.a.f.o.p.~.7Xj.z.u.j.a.Q.f.k.OXW.W.R.R.1.R.d.,.1. X,.|.XXOXOXP.qXPXGXyXtXuX3XuXyXtXiXuXuXyXIX5X4XyXtXtXtXiXtX+XeXtX8XFXtXtXFXFXFXpX8XrX8X;XrX:X3XrXrXeX4X1X6X,X9XQ.+X8X{ T.-.*.;.} -.%.%.} } U } y.S U V K E K K E L R 2 S L L L p 2 L *.y.;.A.A.] S.b.S.Y.S.D.Y.D.G.S.V.S.S.V.M.' V.S.[ ' [ J H J ' $.$.M.M.M.M.C.B.J.J.H.J.).).gXxXxXxXgX].xXsX].xX].].gXsXgXsX).sX).G.H.C.C.M.M.&.m.H $.` ' $.H H ` ` $.' &.M.] ] v.[ n.C.H.C.H.G.C.H.C.S.S.b.v.M.[ ' ' ` ' C J W #.H #.F #.F F =.Z F F $.*.#.F S W $.#.! G $.#.;.! $.$.` $.$.! H W H H S W S S U A V A A 5 2 3 p 3 ; * p E ; u ; j ; s 8 s w @ 8 @ # X # # 8 8 X   t X X # + + @ $ # # o O #   O # w ; u > : u #   @ w j   b #   : f % f % e.q.q.z ^ ^ ^ ( / o.( p.u.+.p.d.p.@.>.( p.>.>.>.( ^ >.o.( ^ p.( >.o.) >.:.!.!.!.^.^.( ( p.( !.!.!.!.!.p.>.p.p.p.p.p.^.!.p.!.!.p.p.!.^.^.!.!.!.p.p.!.i.p.p.p.u.k.d.!.@XE.E.1.%XE.E./.E.R.Q.aX/./.aXrXDX:X;X:X:X8XpXiX:X8X3XpXeXiXtXFXtXiXtXrXiX:X:XDX:X:X:X:X:X:X:X:X:XDXDX:XDX:XDX:X:XDX:XpXpX:XDXDXDXDXDXpXiXDXiXpXiXiXiXtX8X3XpXiXaXrXtXpXtX3XrX3X&XeXoX$X|.5X#X%XuX0X1X9X4X|.wXqX<X4X>X<XQ.^.!.!.",
"a.>.o.a.{ u.o.>.p.o.>.q.q.p.>.p.u.j.o.u.o.k.a.j.a.{ :.,.>Xk.k.k.@.OXg.@.1Xd.@.+.s.,X>Xg.k.g.T.d.g.XXOXf.k.g.>Xs.g.OXs.g.OX5Xg.-.k.P.g.d.g.a.f.,.-.,.1.a.d.W.k.,.g.%.6X,.P.1.L.,.s.P.<.<.OX1.P.<.,.k.k.d.f.R.>X!.>Xa.,Xk.,.a.@.d.!.{ >.p.^.u.k.a.d.+.k.f.g.OXf.g.f.g.d.OXg.,.d.R.f.oX|.f.W.d.<XFXFXGXIXGX0XDX3X2XFXrXuXtX5X X9XGXyXiXeXiXiX%XFXIX8XIXiXpXIXGXiXtXpXFXvXiXpXpX3XtXiXeXoXuX4X4X7XQ.f.$XD U.-.s.T.-.U.%.} } 6 *.*.*.A P V K 6.K 3 K R Q A L A L L A L L Q W S $.N.' N.' N.S.M.B.S.] &.C.&.v.[ J [ G J [ J v.M.S.V.M.M.M.' ' ' b.M.B.J.B.B.J.J.Y.J.].gX[.].gX].xXgX].xXsX].dXdX].sX=X).Y.G.S.S.M.' $.$.&.$.$.H #.$.H ` ' ' M.[ &.b.' V.H.V.H.G.dXdXsXjX=XsX-X=X=XD.Y.G.D.S.&.m.Y.G J G F Z F Z U S S W A W U S S U W F H S W #.F $.G $.H $.;.J H ' ' $.$.W #.H W S S C - 2 A 2 - 2 2 > < i O ; s * b # Y 8 s O @ @ @ u 8 9 s s u @   + @ m # X 8 9 w @ @ O @ u 9 o @ :   @ % r #   : w O O y u @ Y O o : o   f B e.i.^ ( ( ) ^ q.^ z ( u.o.( :.p.o.o.p.o.d.o.( u.o.u.u.>.>.o.d.^ ( >.o.>.o.o.!.d.!.!.!.!.!.p.p.p.!.p.p.p.>.p.p.^.^.!.!.!.p.!.p.!.p.!.!.^.!.!.j.j.j.p.i.q.u.( q.!.Q.Q.,.d.R.R.qXE./.E././.R.R.1.W.%X#X:X;X:XpXvX&XaX}.pXiXrXtXtXiXrXiXrXiXtXpXDXpXaXDXDX:X:X:X:X:X:XDX:X:X:X:X:XDXlXDXDXDXpXDX:XpXDXDXpXpXDX:XpXiXpXpXIXiXiXtXpX8XtXeX%X%XpXpXiX3X3X2X$X.XOX.X9X XeXuX2X0X$X9XW.oXqXqX7XwX~.!.!.<X!.!.",
"j.o. .:.o.o.u.u.i.o.p. .o.i.i.o.p.O.u.^ j.+.a.d.+.a.f.>X+.OX,X@.oX,.g.@.f.,.g.@.k.g.T.g.a.OXg.6Xa.d.k.f.oXg.P.g.s.|.oXOXoXk.s.OXk.k.d.:.d.,.d.a.k.s.>.a.,.f.d.a.s.%.1.1.g.P.|.g.g.P.-.g.+Xg.g.>.>.d.,.:.f.{ !.d.a.f.d.a.a.,.{ k.!.) { l.T.a.g.+.k.,.OXOXOXf.|.{.1.E.E.E.1.a.OX,Xk.Q.d.j.E.>.!.uXuXuXuXuX3XiXFX%XeXeXIXtXeXyXuX4XiXFX0X0XtXeXtXiX8XtXiXvXFXtXtXFXFXmX8X8XpXtXrXiXyXqX<XqXqX~.<X4X,X>XD oX} s.l.%.-.} -.} } } I } P Q W ~ E P P V E Q L L P K K E L P R =.#.#.L.$.=.m.N.m.$.M.M.$.[ ] J ' b.v.C.C.H.G.=XG.Y.=XG.S.H.Y.Y.G.J.c.b.b.b.M.C.G.C.Y.G.=XsXgXsXgX].xX].].gX].gX).].].).).=XG.D.S.M.M.$.$.$.#.H W ! ` F ` ` [ [ [ ' M.Z.C.sXdXH.sX=XdXdXG.fX].].].sX-X-XG.=XY.S.S.S.N.M.J F H H F W W W Z U S U S U S S U W A S S #.F F H A.A.` H ` ' &.$.` H J F H H F Z V - C 7 2 A L 2 2 . Y ; p . p p # u y + ; b   u s # @ # s @ m 8 s # b s # 8 s 0 #   w # 8 u + 9 y # e t     w O # u # w j u ; u 8 X v   % X q.i.8.>.( z ( ( z O.^ +.o.:.( o.^ ^ u.>.( ^ o.( u.u.o.o.q.o.o.i.o.h.>.u.o.j.>Xj.a.d.>.>.>.8.p.p.q.u.^.q.p.j.p.p.!.p.p.!.p.!.!.p.!.!.!.!.!.p.( p.p.p.( ( >.>.p.p.^.~.>.,.#X X@XE.#X1.R.R.XX@XR..XR.aXaX:X:X:X:X:X:X:XrXrX:XiXDXiX:XDX%XpX:XrXpXpXpX:XDXpXpX:X;X;X:X:XDX:XDX:XDX:XpXpXDXDXpXrXpXpXDXDXpXiXDXpXpXpXrXpXiXpXrX%X8XrX8XpX8X:XpX:XrXaXrX%XR.#X X0X%X{.rX%X%X0X1X2XR.,XGX<X>X7X~.~.^.!.!.!.",
"+.o.u.i.u.w.u.p.p.{ p.u.j.i.u.q.i.o.u.+.j.+.w.j.a.j.-.d.a.f.a.g.XX,.s.,.f.f.OXk.OXd.g.,.P.oXd.W.a.d.f.g.k.g.Q.g.{.OXOXg.g.P.s.g.P.d.s.+.d.d.k.d.s.d.d.s.,.,.,.@.,.>.@.,.%.,.s.,.P.s.@.g.P.a.,.1.g.k.:.:.Q.:.W.,.d.d.:.+.a.k.:.k.k.{ +.j.k.g.k.,.g.,.s.d.g.1.{.E.,.g.E. Xf.d.Q.k.d.k.d.<X!.@.u.qXwX0XqXuX3XtXiXtXFX8XiXiXGXyX5XwX@XuXFXFXeX X3XiXiXFXIXIXIXGXGXmX8XGX8XyXuXrX0X0X9XwX7X7X^.qXqXqXOXd.D ,.+.,.@.} -.X.-.} X.t.U *.=.Q S V *.r.r.P P L P P E L L E L I R -.*.H K.$.N.K.N.N.m.$.;.' J ] v.B.G.Y.=X=XdXdXdXsXdXdXdX=XdX=XY.Y.G.G.H.B.b.M.M.C.M.Y.S.G.dXjXsXsX].gX].gX].].gX].].sX).).=XG.D.S.M.N.N.=.=.=.$.#.#.#.H #.' ' v.n.C.J.H.H.=XdXdXdXdXdXsXH.gXgXgXsXsXsX=X=XY.G.G.Y.S.V.V.A.$.#.F C Z Z U S Q S U S W U S U S F W F #.W H H $.&.` ' &.&.' ` ` ' ` ` ` W W W F S P L A 2 1 = ; Y i 1 . 6.y ; n > Y p # u u b ; w @ b j   u @ 8 # t 8 X X 8 8 8 8 b 8 # w # @ u   o u @ @ r @   +   @ u O @ w # X 9 @ f f ( x !.>.( ( ) ^ ( o.z q.o.^ ^ u.q./ ( o.+.u.+.o.o.{ q.o.o.o.w.p. .i.w.o.^ u.j.j.j.k.p.>.!.!.p.!.i.j.^.w.p.p.p.p.!.p.!.!.p.p.p.p.!.!.!.!.p.p.p.p.p.p.( p.( ( p.!.!.wX<Xd.,.g.@XE.Q.E.R.W.R.f.1. X%XtXaX:X:X:X:X:X:X:X&XrXrXpX:XpX:XpX:XiXrXpXpX:XpX:XpXlXpXpX:X:X:X:X:X:X:XDXDXpXpXpXpXpXiXaXiXuXiXDXpXpXpX:X:XpXpXpXpXrXrX8XaX8X+X:X&X:XrX:XpXrXrX%X#XrX#XaX#X9X0X0XeX+X3X@XoXW.>XQ.XXwX^.~.^.!.^.!.",
"o.( p.u./ +.h.u.u. .p. .p.O.o.p.u.u.o.o.a.u.u.,.:.{ k.@.k.g.>Xl.d.,.f.d.k.f.,.g.g.,.d.a.a.,.,.T.d.d.a.d.d.k.f.g.1X.X+X|.k.P.P.>Xk.k.d.,.d.d.d.,.a.a.g.s.a.a.f.s.g.s.,.P.P.P.+Xs.,.,.@.d.g.,.+.>.d.f.:.>.d.@.,.{ @.a.l.,.+.a.@.l.a.:.a.a.f.l.l.>.P.g.OXOXOXg.OX.X1.,.d.Q.d.,.XXQ.d.k.u.Q.d.u.j.<XFXFXuXFX2X0X3X$XiX1X8XyXFXyXGXqX6XyX9XyXFXyX3X5XtXFXFXmXvXGX8X8XGXiXGXGXiXpXrXeXeX4XyX7X~.qX~.<X<X,.D ,.s.,.-.-.s.a.t.I U } U =.U W W P W Q Q P P P R E E R P L L L R *.=.W ;.$.$.! $.=.W H ` F G &.Y.Y.;XmXdXY.dXmXmXmXvXvXmXdX=XdXmXdXY.Y.Y.H.v.J.J.v.n.Y.G.=XdXdXgXdX].].[.xX].].xX].[.fX).).=XG.S.V.&.m.&.#.W =.W W #.` #.` ' [ ] M.C.H.).G.=XsXsXdX=XdX).G.dXsX=XG.=XG.Y.Y.D.S.S.S.I.B.M.N.N.;.=.F S S U S #.P U F *.W S P P P W F W H W ` $.&.$.&.M.&.&.` &.%.' #.$.#.#.W Q U S L A A i = > Y Y h . h > i Y @ Y b . s s b ; p @ 6.m # s 8 8 u m s 8 8 q a w s m u 8 y 9 w w # @ y @ : t o w u w y j u y y s 9 a t 9 f .. .!.( ) p.o.o.q.q.^ o...( o.i.o.( ^ { q.o.i.u.p.i.u.o.o.o.p.O.w.j.i.u.( O.h.d.k.~.!.!.!.!.^.^.j.j.j.>.q.p.p.!.!.!.p.!.p.p.p.p.p.p.p.>.p.p.( >.p.8.( p.p.p.!.p.p.!.Q.!.E.d.Q.E.#X1.E.XXR.d.1.@X#XrXaX:X:X:X:X:X:X:X:XpXpXrXaXpXiXpXrXiXrXrXpXpXDXpX:X:X-X:X:X:X:X:X:X:XDX:XpX:X:XpXDX:XDXaXiXpXtXuXrXrX:XaXrXrX:XaX8XiXrXrX8X8XrX:X&X;X:X%XpXrXaX#X#XaX#X#X#XtX X%XtX.X0XE.@XXX>X<X<X<X~.~.^.!.^.!.",
"u.{ O.w.o.i.z.i.w.p.j.( o.o.o.j.u.u.+.o.u.a.u.+.a.a.T.k.k.6XOXk.,.a.f.g.OXf.-.OXf.s.a.,.a.g.,.g.d.l.a.g.d.>XP.|.k.,.g.P.s.,.s.g.6Xk.d.,.s.s.s.a.f.,.s.d.T.g.k.g.{.1.,.@.s.@..Xs.%.g.s.s.k.,.>.@.+.a.,.d.k.>.a.,.,.d.f.,.a.k.@.+.u.d.k.s.d.d.-.@.,.a.P.g.|.1.g.g./.>.,.E.,.,.>X>Xk.Q.d.f.:.!.!.Q.qXwXqXyXyXPXFXeXeXyXFXyXyXyXGXHXGXGXyXGXFXyXuXiX8XyXGXGXFXGXGXGXtXGX8XtXtXeX0XeXyX<XqXqXwX7XXXQ.9X%.6 ,.,.} l.s.} } } A R } I r.V S Q E P V K C Q L Q E L E L K 5 L U =.s.F =.$.=.=.$.=.=.W =.$.$.S.;XY.mXmXmX=XdXY.dXY.dXY.Y.D.L.Y.Y.;XY.Y.Y.G.B.C.v.J b.C.S.G.sXsXfXgXgX[.].gX[.].gX].-X-X).(.(.S.S.S.$.&.M.$.F $.W #.#.#.#.' &.v.V.C.G.sXdXdXsX].Y.H.H.=XJ.B.M.' ' [ $.J ' ] &.$.$.N.S.N.N.&.;.K.N.=.W W U C U S U P Q D A S U S P U F S H ;.$.&.&.$.N.M.M.&.&.$.$.$.` H W W U S A A 5 L L 1 1 * ; . n ; > y i : j s w n @ s u s # u s O s # @ 8 8 X 8 # 8 u 8 9 u + + u @ # 9 9 d t + $ e # @ # # @ O . w @ # # 9 9 o $ 9.z.p.( ^ !.( 4 ) ^ x / ^ ( O.o.^ ^ i.o.:.^  .| o.o.u.o. .^ o.^ w.j.u.O.o.+.u.u.u.j.d.p.!.p.p.!.i.i.^.p.p.!.!.!.p.p.p.!.!.p.!.!.p.p.( p.p.p.( p.!.p.p.!.>.( !.!.!.wXu.Q.<XQ.R.W.Q.,.d.oX|.f.W.@XR.aXaX:XDX:X:X:X:X:XDX:XaXaXaXpXpXrX:XpXrX:XpXpXiXiXpX:X:XpX:XpXvXpXDX:XDX:XiX:XpXpXDXDXuXaXuXuXpXpXiXpXpXpXpXrXrX:X;XpX%X:X%X:XrX%X&X&X:XaXrX:X%X&XaX#X%X#X0X$X X$X3X3X9X1. XQ.4XqXwX!.!.!.!.!.^.^.",
"u.( u.i.q.u.a.p.o.i.~.w.i.u.u.i.j.o.o.u.k.o.:.+.:.a.:.:.7Xs.k.>XOXOX|.a.>Xa.,.>Xa.d.s.,.,.d.a.,.a.d.d.k.g.>XOXOXoXd.XX6X|.g.s.g.7XT.a.-.,.l.k.>XP.a.d.s.T.,.s.a.<.,.P.g.oX@.g._ 1.g.a.,.,.@.@.{ { >.>.,.a.@.+.+.s.a.a.+.u.k.+.a.+.l.k.f.l.a.,.,.-.,.|.OXXXg.|.oX1.,.E.@Xg.a.>X>Xd.d.a.~.>.u.o.j.FXGXGXqXyXPXyX6X8XGXFXyXGXGXGXGXGXIXGXGXyX,X6XyXGXFXGXFXIXFXGXtX8XGX7X5X8X3X0X0XqX,X7X<X4X>XqX>XqXs.D ,.@.} P.@.} U A D *.r.I D Q W P P P P P V R V Q E P E K K L L R y.y.W #.! S H P $.W F #.$.N.L.Y.N.S.Y.Y.Y.Y.C.m.b.' ' ' $.' ] N.A.S.Y.=XY.J.Y.B.b.S.J.J.H.).sXsXfXfXgX].[.[.fXfXfX[.-X).(.G.C.V.V.m.M.N.=.H H #.W $.$.$.&.&.M.M.H.G.Y.sXY.J.C.J.n.v.b.[ J $.J H J H G W ! Z J G H &.S.A.&.&.;.;.=.#.U W A U S P U U P A S W P S W W W #.;.&.N.N.&.N.M.A.N.&.&.&.$.#.H H U F S L L L L 5 * h p ; ; p y p p ; > p Y ; 5.; s s ; ; # s @ u 8 8 8 8 # 8 w 8 a 8 # + + 8 w @ @ o # 9 0 o o w @ y w w u r o s u v 8 s u e o M  .q.o.) ( o.w.q.O.^ q.O.^  .w.u.q.u.o.p.o.u.p.q.u.o.o.o.( q.( u.j.o.o.p.q.o.>.>.i.p.p.!.p.p.p.!.p.p.q.( >.!.!.p.p.p.p.^.^.!.!.!.p.8.( ( ( ( p.p.( ( ( p.p.!.p.!.p.~.Q.Q.!.Q.Q.E./.f. Xf.E.Q.#XE.0XaX&X&X&X&X:X[.:XpX:XaXrXrXpXiXrXrXiX:X8XpXrXpX:XpXpX:X:X:XpX:X:X:X:XaXaXDXaXiXuXrXiXaXpXuXrXtXrXpX8XpX3XrX&X3X%XrXDX:XrX8XrX:XaX:X:XaX:XaXaXaX%X0X$X#X3X%X.X%X$X.XeX3Xf. Xd.Q.>X~.Q.!.!.!.^.wX^.",
"q...a.u.| q.w.j.h.u.j.u.h.h.+.u.k.u.o.+.a.o.j.+.{ d.{ d.g.k.k.OXQ.Q.k.:.k.+.,.OX} a.f.a.+.+.-.a.s.g.f.T.k.oX~.OXP.g.OXT.a.g.g.s.>XP.g.d.a.g.k.P.,.a.s.+.+.a.s.a.g.g.,.1.-.%.g.,.s.g.s.k.d.:.>.d.,.d.:.a.d.>.+.:.u.a.a.a.+.-.+.,.+.a.a.d.d.s.,.s.,.s.P.g.P.g.g.1XE./.W.@Xk.g.>XXX~.k.k.z.j.j.d.~.GXqXqXuXyXGX7XeX5XuXHXyXIXGXIXHXIXIXGXGXFXHXyXGXGXFXtXtXGXmXGXGXGX8X8X5XtXrX0X9X4X5XqX<X7X,XGXf.5Xg._ a._ X.l.U t.X.X.X.X.U P P r.P W A P P P V P P Q E L E L L P L R =.;.#.$.=.W W Q =.*.W =.K.U.Y.Y.I.N.S.S.M.c.J J G J S G H F H F G J M.I.Y.Y.Y.C.b.v.n.V.n.).)._.fXfXxX].gXgXgXfXfX-X_.(.`.(.S.V.N.] $.;.$.$.#.H H #.' $.&.C.S.G.Y.Y.Y.G.J.C.n.S.b.b.b.[ J W W P S W C S S C H S G F #.#.#.=.N.=.$.W =.=.U y.P U S W U P S P W W W #.=.$.$.$.A.N.A.S.M.M.&.&.&.&.$.$.H H W U F S L A A 2 < 2 j > ; . . . ; u s b 5.  j b s u O b u Y @ @ b u u 8 8 8 8 X s 8 8 u s w + 9 s t #   w e @ @ w u 9 $ O y # w 9 a # 8 9 c 4 T q.i.j...^ h.u.O.w.O.u.p.u.q.p.p.p.o.o.o.( ( o.z 6 ^ o.u.p.p.>.u.u.>.p.u.p.o.u.p.!.p.p.p.p.!.!.^.!.^.!.!.!.p.!.p.!.^.!.!.p.p.p.p.p.p.p.p.p.p.p.p.p.p.p.p.p.p.!.!.>.Q.Q.Q.,.E.Q.E.E.W.W.k. XR.R./.aXpX:X&X:X:X:X:XDX:X:XiXpXpXpXiX:X8XpX:XrXpXrXpX:XpX:X:X:X:X:X:X:X:X:XpXaX:XaXDXDXrXDX%XDXDXaXpX0XtXeXiXrXpX%XrXpXiXvXrX%X:XpXpX;X:X:X:X:X&XaXaX@X%X%X X3XE.%X0X$X%XrX@X.X.X:.k.<X<X^.~.^.^.^.^.!.",
"o.q.h.q.q.u.u.^.j.i.j.o.o.u.w.O.i.a.o.o.o.:.k.+.a.j.Q.k.k.Q.>Xa.u.l.O.+.j.,.d.k.,.d.s.d.g.d.d.s.k.k.k.g.k.k.OXP.l.f.>XP.s.g.k.g.k.k.g.T.s.d.,.a.-.a.-.%.@.k.P.g.s.1.s.P.g.P.P.g.@.@.:.a.,.+.@.a.@.@.@.o.:.:.:.a.l.a.+.f.f.a.+.,.+.a.+.g.d.s.-.,.g.P.|.g.oXg.g.oXR.R.E.E.d.f.OX~.j.d.j.+.u.k.h.!.GXGXGXGXqXyXoXyXGXGXGXyXGXHXHXHXHXGXyXyXHX6X5XGXyXtXHXqXHXtXyXGX8XyX6X8XeX0X%X%X5X5XqX7XXX4X4X:.6Xa._ @.D ,.+.I -.X.*.*.I P *.r.S P W V P P V V K Q r.E L E Y L L 2 U *.=.*.N.=.S W ! *.W U y.;.K.L.L.N.b.[ [ G J J J H H H H S Z F S Z F G ! B.S.Y.H.H.B.J.J.C.G.).].sXfXgXgXxXgXgX-XlX-X_.(.(.G.C.M.M.' $.m.$.$.H H H ' %.] A.V.S.S.H.C.C.J.b.b.b.b.[ [ [ ' J ! Q Q W W P W W S =.W G S G G S #.$.$.;.#.;.*.F y.H P A *.*.U P H W H W H N.N.M.M.S.S.S.S.M.A.M.M.&.&.&.$.' #.#.U P A A 2 5 5 1 p > ; > n p Y u > s u p ; ; p ; ; O u u s # ; b 8 u 9 s 8 8 # q # + w 8 @ # w w y @ o w e $ O $ $ $ % # j o w w b 8 8 9 o o z  .^ | w.o.h.{ ..z.o.^ o.w.u.o.( ) /  .^ 9./ o.o.o.z / q.o.o.u.^ o.q.( >.>.o.!.!.p.p.p.p.p.p.p.p.p.p.:.>.p.p.!.p.!.p.^.p.p.p.p.p.p.( ( p.p.p.8.8.p.( ( p.( p.p.!.( u.d.!.E.E.E.d.W.XXQ.Q.@XR.E./.aX:X&X:X:X:X:X:X:X:XrXpXrXpXrX:XaXaXpX%XrXpXrXpXpXpXpX:X:X:XrXpXpXaX:XDX:XpXaXpXDXiXiXyXiXPXrXuXrXpX8XrX%X8X&XtXpXrX%X:X}.:X:X%X&X&X&X&X:X{.&XaX$X.X.X{.$XP.aX#X$XtX$X@XQ.2Xd.~.<XqX^.^.^.wX^.!.^.",
"( o.j.O.u.j.w.h.w.u.k.o.{ u.j.u.o.u.| a.:.u.h.o.+.+.,.u.l.>Xd.k.>X<X@.a.a.w.d.l.+.a.a.a.t.@.-.k.d.s.k.d.g.g.OX,XP.k.,XOXs.d.g.T.d.s.d.k.,.,.-.a.,.,.+.d.s.P.d.-.g.<.P.s.g.g.s.,.s.d.g.d.,.u.u.d.a.d.,.a.u.+.+.a.a.a.+.k.a.@.a.k.a.a.a.k.s.d.@.{ s.s.g.k.6XXXP.|.#X#Xd.d.d.d.k.f.k.j.k.j.k.u.:.~.GXGXFXuXyXFX7XyX6XGXGXGXIXGXIXGXPXIXHX5XyXqXyXtXtXGXtX8X8XyX8XtXGX8X8X6XtXeX0X0XqX>X>X7Xf.qX,XW.yXg.@.6 } a.} *.t.U P } U R U A 3 C P V S L V S V r.7.K V L R P E 2 U Q W #.=.W H W =.=.#.W y.L.;.&.H ` G G ' M.&.$.$.' ! H W F D U Z S =.#.G J J S.Y.Y.M.J.J.b.J.).sX_.sXgXgXxX[.gX[.fX-X-X_.(.Z.M.M.' ' &.N.B.N.$.H ' &.&.M.S.S.V.S.C.C.C.J.b.C.J.n.J.G.H.J.c.S S W S P S W P S *.*.F W W G F F #.U #.F #.W V =.U F S W U W #.#.` F $.$.A.A.Y.A.S.S.A.A.M.S.S.M.&.&.$.$.#.#.W S S U P L 5 1 3 ; i > , . ; r . ; p   ; 5.; u # u m ; w @ # @ s # # 9 a 8 @ 8 s # 8 # # 8 @ 9 @ # 9 w $ @ w w o + @ #   b o @ 8 b 8 # b + B l q.w.| w.{ a.w.o.o.w.^  .( q.q.p.z q.i.( p.^ ..( ( o.o.u.o.( d.( o.p.o.p.p.p.^.^.j.p.p.!.p.p.p.p.p.u.p.p.!.( !.p.p.p.!.p.p.^.^.^.p.p.p.8.8.p.8.8.p.p.( ( ( p.( p.p.u.o.:.!.!.,.>.Q.>XR.Q.#X1.R. XrX:X:X:X:X_.:X:XpXpXrX:XrXiXrXrXpXrXpXrXpXrX:XpX:XDXpXrX:X%XaXrXaX:XpXaXpXDXDXpXaXiXrXrX%XPXaXiXtXFXtXtX3XrX$XuXvX%X&XrX&X:X;X&X}.(.&X:X:X{.:X:X&X.X/.#X{.0XeXg.3X%XE.2X1.4XR.Q.j.wXwX^.j.^.wX^.^.",
"( o.h.j.i.i.+.h.k.j.u.a.w.+.u.u.+.o.u.j.| o.o.+.a.:.u.7Xu.k.a.k.z.k.O.d.k.a.a.a.t.k.a.a.,.:.k.a.s.k.s.g.k.T.OXk.T.d.>XT.>.d.d.s.OXa.P.k.a.s.,.d.{ @.-.g.k.-.t.P.%.<.s.g.1.+.,.,.T.d.,.d.a.a.a.,.d.u.d.a.a.+.+.a.a.a.+.s.:.O.k.+.d.k.l.Q.f.s.+.%.g.s.g.1XOXs.P.4X{. XW.1.!.d.k.l.d.~.k.a.j.u.>.~.GXGXGXwXGXIXwXqXyXyXPXHXGXIXFXGXIXPXHXHXIX2XuXyXFXtXuXyXGXiXyXGXuXuXuX9X0X%X9X0XoXyX,XqX7X7Xa.+X7XOXs._ a.-.{ } y.5 U E *.*.y.P V P P P V S V V L P y.K K L K E L 2 } y.=.=.N.&.G ! ;.W U #.y.#.#.` F ' ' A.A.S.Y.U.B.H H W W P V U P P =.S ! J H M.G.Y.G.Y.J.B.n.H.fX`.MX[.MXxXgXgXxXfXsX-X).(.S.M.V.$.' &.A.I.A.$.H [ A.D.S.V.S.C.V.C.n.n.b.H.H.H.=XdXxXmXY.m.G =.$.S W S F P S W =.F F W #.$.G G H ` H W H F $.*.W F W W W ` ` ' ' &.S.&.C.D.C.D.Y.G.C.C.C.S.M.&.$.' $.$.` H F S I P 2 L 5 1 u > s > p s Y s Y u Y s K ; p Y @ ; b s u @ 8 8 u 0 8 s 8 w 8 q   X y 8 9 w u + @ $ t w o @ e $ + d $ o b : w u 4.t @ b % % d X.w.w.t.w. .w.O.o.o./ u.q.q.q./ z j.p.N ( ( ^ q.o.( / p.u.o.o.o.o.p.o.p.p.p.p.8.p.p.8.p.p.p.8.p.p.>.!.p.p.!.!.p.p.p.^.p.i.^.^.z.8.( 8.8.8.p.( p.p.8.p.q.p.p.8.^.u.!.u.~.d.!.d.,.:.E.,XQ.XXE.@X{.pX:X:X:X:X:X:X:XDXpXpXpX:XIXiXrXiXrXpXiX:X%XpXeXiXDXrXpXpX:XaXrXrXrX%XiX%XaXPXiXiXiXrXtX8XrXtXtX1XIX+XeX8XuXrX&X3XaX&XpX&X:X&X'.pX&X;X&X:X&X&XrX&XR.E.%X.X3X%X.X1XeX.XE.3X@Xd.!.!.!.^.~.^.^.^.~.!.",
"o.u.j.p.w.p.j.7Xp.w.w.o.w.j.a.w.j.u.u.a.j.a.u.+.a.a.k.k.u.a.f.k.a.k.w.k.k.j.a.a.k.Q.k.l.a.a.OXk.k.Q.>Xk.d.d.k.>X,.{ s.g.,.-.-.,.s.a.s.d.s.d.-.s.@.t.s.,.s.l.g.s.1.g.1.T.P.g.s.g.@.+.a.:.:.a.:.u.>.@.a.d.a.w.O.+.u.a.O.a.a.:.d.+.d.s.s.d.s.k.,.a.s.s.g.6X6XP.oX1Xg.R.E.:.d.d.f.d.j.k.j.a.d.u.+.!.HXGXwXGXwXIXGXFXGXyXGXHXGXPXHXwXHXGX7XHXyX1XuX$X9X0XtX9XtXtX6XGXuXqXqXuXrX#X0X0X,XeX>X6X5XFXOXd.<XP.g.X.} +.t.y.*.I A R L U P V S P A P V A V L E P y.K K E K Y U L U =.;.;.L.U.$.#.=.W =.=.K.$.G J ` M.M.Y.Y.Y.=XK.N.! H S ~ W P U F A U C $.$.' ! c.H.G.G.J.J.b.).sX`.xX[.xXxXgXlXkXsXsX-X=X*XC.M.V.' ' $.B.L.$.' ` ] V.C.V.V.C.C.n.v.B.H.J.sXsXdXdXmXmXmXB.b.m.&.H H ! G F J H #.! F F ` $.;.` _ H F H ` #.F H H F H #.$.$.#.' V.S.C.D.D.*X;XD.G.=X(.D.D.S.C.V.A.&.&.$.$.#.#.P F I P L A L 1 > > p ; s ; K s s > p u 8 p b s b ; u u s u s u # s a a X X 8 s #   e s s @ w y t @ $ $ $ u w o 9 9 $ + $ O y @ b 9 + d $ % f ..T +.w.w.{ .. .o. .u.j.x z ( p. .i.i.( w. . .o.( z ) q.p.o.o.( o.>.8.p.p.p.^.p.p.!.p.p.8.p.8.p.8.p.>.( p.p.!.p.!.p.^.z.^.^.p.x.i.!.p.p.( ( ( 8.p.p.p.p.( q.) p.( p.:.!.u.E.!.E.!.!.>Xf.k.d. XR.aX:X&X:X:X:X[.:X:X&XpXiXpXiX:X:XiXaX:XrX:X:XpXpXiXiXtXrXrXrXrXpXiXiXpXIXrXrXiXeX$XDXtXtXeXiXrXrX3XiX+XeX8X1X3XrX%X&X&X&X'.:X&X&XpX&X:X&X:X&X{.%X{.{.%X0X{.@X%X3X%X3X$X#X2XQ.d.7X^.^.7X^.^.~.<X^.~.",
"( u.u.o...q.u.j.+.O.h.o.+.j.+.:.^.h.O.^ u.u.u.o.j.j.Q.k.j.z.f.u.w.d.O.a.a.w.a.a.d.a.k.a.d.,.k.a.d.s.k.>XOXk.d.-.d.,.6Xk.f.l.d.d.,.d.d.,.k.a.@.a.@.,.,.+.,.f.k.k.f.T.,.P.1.k.,.:.+.a.,.+.+.+.w.a.u.+.d.k.w.u.u.+.w.a.+.+.a.a.+.-.a.a.a.,.,.k.a.g.a.k.P.>XoXP.W.g.oXoX|.1.g.k.W.k.f.~.Q.u.d.>.o.j.GXIXIXIXuXGXwXQ.uXFXFXGXGXIXHXGXFXFXGXGXeXeXtX%XiXtXFXuXFXGX6X8XGXqXqXuXyX#XaX,X1X4X,X7X,X6XOXOX>XP.g.P.D } *.} X.X.A R V L P V P A V P V V V P P L 7.p L E p L 2 L #.=.H H m.S.$.$.$.! H G #.#.G [ &.S.S.*XG.Y.=XY.S.' ! F S P S U U H $.H B.m.B.' J S.H.Y.=XY.n.`.`._.xXgXxXxXlXxXlX].-X).).(.C.] M.` ` ' N.L.$.$.M.A.Y.D.C.C.v.n.n.C.J.sXsXgXsXmXdXmXmXdXJ.c.[ ' ' [ [ G J H $.N.$.` $.$.H $.' ' ' ` ` ' ' H H ` $.H ` N.I.I.D.S.Z.V.Z.Z.(.G.G.(.Y.G.Z.G.H.M.V.A.V.&.$.#.#.W U P U P L 5 5 1 p p s s b ; p p p u ; s # K s ; p ; # O ; ; u 8 # 8 s s 8 # 8 s + X w @ 8 + + 9 u @ 9 w @ o O $ $ o $ o   o c   b 8 + d d 4 z | ..w. .| ^ | ^ o./ ^ ( z ^ x q.(  .( x  .( q.(  .^ ^ u.p.q.p.p.p.!.>.p.>.8.p.8.p.!.p.p.p.p.p.p.p.!.p.( ( p.p.( p.p.p.!.i.i.8.p.^.p.8.p.p.p.( ( ( z ( 8.( p.( j.p.p.p.~.:.!.d.d.d.k.Q.k.Q.g.@XE..X&X:XaX:XpX:X:X:X:XpXiXiXPXpXiXiXpXrXaX%X:XtXpXDXtXpXrX%XaXaX0X9XrXrXFXtXtXiXeX.XrXrXtXtXiXrX8XrXFX8XIXtX8XpXiX%XpXpX&X&X:X'.&X:X'.&X&X&X&X&XrX%X1.$X$XoX.X.X+X+X3X.X{. XW.!.<X<Xj.^.!.!.wX<XwX7X",
"w.i.q.o.u.j.h.q.w.u.Q.+.+.j.a.u.Q.~.j.u.j.k.d.:.k.j.u.k.d.k.+.o.a.u.+.u.k.d.Q.!.>Xk.oXa.l.a.OX<Xg.f.>XP.,.a.l.>Xt.a.l.+.+.s.a.s.-.a.a.a.f.s.a.g.k.g.s.a.s.a.-.d.s.P.<.d.a.s.+.@.Q.s.:.:.d.+.w.k.!.a.k.j.+.a.h.w.a.h.a.+.g.k.+.g.s.a.a.,.,.s.@.s.U.+X>X+XP.k.OXOXoXoXW.a.d.d.k.d.j.d.:.@.o.:.d.<XwXwXGXGX9XFXuXuX3XGXGXGXHXGXwXGXFXuX2XeX{.0XOX$XaX0X0X9XFXFXyXGXGXqXqXaXaX#X0X#X,X6XqXyXk.g.OX5X6XP.k.qX-.| +.R P R V P K - P S P V P W P P V K K 2 E V L E K K L D U =.U.Y.I.I.S.N.N.$.$.F ` &.' V.D.*X*XmX=X-X=XY.Y.J J ! $.H S S H W =.$.M.G ' b.b.v.B.G.=XG.n._.J.].zXxXzXgXlXxXlXsXdX).;XD.S.&.M.' ' $.N.S.$.J ` M.Y.C.V.V.H.G.G._.dXxXxXxXsXxXsXxXxXdXG.J.J ] v.' [ ' M.' M.S.$.H $.&.J ' ] &.A.M.' $.M.m.M.m.V.M.S.Y.S.b.D.'.-X-X).D.-X-X=X(.G.G.D.G.G.V.M.&.&.&.' ` H F F F U D A L 2 2 i u ; ; Y > s ; p ; ; Y @ p ; ; s s s u s 8 s 9 8 # 8 8 9 0 8 q 8 # 8 8 w y y e w $ u t $ o @ 9 t % 0 $ @ : m @ 8 @ + 9 $ % % T O.a.O. .o.w. .q./ z q.( p.q.q.q.w.8.(  .x ( ^ ^ ( ^ ^ z ^ ( o.u.8.( 8.p.p.!.p.^.p.8.p.p.p.p.p.8.!.p.( p.( p.p.!.!.p.!.!.^.^.^.p.p.p.q.( ( p.p.( ( !.j.p.p.o.u.>.u.j.j.o.p.>.@.:.k.W.k.W.R.@XE..X:X&X&X:X:X:XlX:XpXrX%X%XrXrXpXrX:XrX:XiXDXpXrXaX&XrX0XaXrXuXpXiXpXuXtXrX3XrXPXPX3XrXtXrXtX8XeXtX8X6XpX$X+XeXrX}.&XaX&X:X:X:X:X:X;X:X:X;XrX%X%X.X/.%X#XrX%X$X$XeXrX.X#X3XQ.f.^.7X^.^.^.!.qX^.~.^.",
"o.u.o.o.i.^.z.u.a.a.h.+.j.k.>Xa.a.j.>.^ o.h.d.j.i.k.j.j.>.j.+.j.w.+.:.a.k.+.a.a.+.,.>Xk.g.+.,.-.>Xf.>XP.s.a.s.>XT.a.a.a.+.a.+.k.>XOXk.k.a.-.+.,.@.{ @.-.d.g.s.P.s.g.k.s.k.a.d.-.d.+.+.,.k.+.-.d.l.u.z.k.u.h.h.O.a.h.a.+.a.d.@.f.k.g.d.d.s.f.+.,.s.T.oXOX|.+XoX1XR. Xd.:.a.g.d.a.f.k.j.!.!.:.@.>.yXyXFXIXyXiX3X XtXtXyXyXFXFXqXIXqXiX5X1X$XuX6XtX9XuX8XyXGXyXHX6XqX9XqX<X0X#X0X#X,X6X7X7XOX1X5XoX1XU.g.T.s.-.t.r.I r.P L K V P V P C P U P L S L K V L K E R K L L Z Z #.I.;XY.Y.S.B.B.m.M.$.M.N.] &.S.G.Y.dX-XdXdXY.Y.c.' m.B.N.m.$.m.M.N.M.m.J M.S.G.S.B.sXdXG.J.sX_.sXbXxXzXxXkXxXjXfXhX(.-X*XS.M.M.' &.M.N.N.M.m.M.C.=XD.G.(.H.`.).sXsXgXgXfX].xX].].xX].H.J.J [ b.v.v.C.Y.S.M.V.[ J ' b.b.N.V.S.Y.I.S.S.S.S.G.Y.Y.Y.G.=X=XY.-X(.(.=X-X(.=X(.sX=X=XY.D.G.S.S.A.V.&.&.&.&.#.#.F S P A 5 5 p 1 > p ; ; p > ; ; s ; s K p p > ; u m b ; u 8 s 8 8 # # 0 q 8 8 a y X # w w 9 + s b 9 @ y r w $ $ t 9 $ o r @ 9 s s s s a f % : ..x w.o.o. .( ^ q.B z p.^ / / ( x ( ^ ^ ( ^ q.q.u.p.q.( N /  .( ( p.8.q.p.8.8.8.p.p.p.p.p.p.8.p.p.p.p.p.p.p.p.p.p.i.p.i.i.z.p.p.8.8.8.p.p.p.!.!.( z 8.p.p.p.u.h.p.p.j.!.u.!.>.d.!.Q.k.k.k.g.W. X$XaX&X:X:XpXDX:X:XpXpXiXiXDXrXDX:XpXrX&XaXrX:XpXDXaXiXuX9XrXyX0X0X@X0XtXtXeX3XyX3X8XFXiX$X5X3XtXtXiXtX8X+XrXrXrXrXpX:X:X%X&X:X&X&X&X(.&X:XpXrX3X%X{.3X{.$X.X.X3XtXrXR.E.@X>XQ.!.~.^.^.!.^.HX!.!.7X",
"/ p.q.q.:.w.u.u.u.u.a.u.k.j.T.j.u.j.u.o.a.z.u.u.u.k.j.o.a.k.j.j.l.u.k.j.z.+.a.a.k.a.d.+.,.a.k.f.P.l.k.l.k.k.+.s.k.a.a.k.} a.@.g.a.,.,.a.a.d.>XW.a.-.+.@.t.k.a.t.,.a.P.g.f.-.f.,.,.:.d.u.a.-.k.f.f.j.k.l.+.a.a.w.w.w.t.+.-.a.+.d.s.k.t.-.s.T.d.%.,.s.g.g.P.oXT.k.OX@Xd.,.d.W.d.,.E.d.d.,.d.f.!.XXyXeXGXyX2X9XrXtXeX3X$X2XGXyXqXyX6XyXeX,.$X6X1X.XoXeX7XGXFXHXGXGX7X>X,X2X0X#X0X%X5X,X+X6X6X6XoXg.OX6XP.t.l.t.-.X.R r.L P K P K V P 3 P V V V L K V L L L Y E K L V D -.L.I.Y.Y.=XY.Y.Y.S.I.S.I.Y.G.G.G.=X_.dXsXsXdXsXsXS.&.J H $.' H J m.M.b.b.J J.C.C.J.C.).sX(.Z.].).sXBXzXBXxXxXkXgXfXhX=X-XY.S.&.M.' m.$.&.&.M.$.C.V.G.C.G.(.-XsX_.jXjXgXxXxXxXxX].gXgXgXxXsXH.J.b.b.v.v.b.' M.C.b.b.Z.D.H.G.D.C.C.V.M.V.V.M.S.Y.=X=XG.G.dXdXnX-X(.-XhX=X=X(.-X-X=XY.G.S.G.B.M.] ' ` ' $.` F F U U A 5 L 5 1 i p s u u ; s s ; s E s p p s ; ; 5.s O ; ; b 8 8 # 8 8 u # 8 s 9 # 8 9 # X # 9 y 9 @ e w 9 $ $ e 0 %   y @   t 8 @ s 8 $ o &  .x  .^ ..^ ^ z ^ q.( q.( / / q.q.o.o.( o.( ( ^ ^  .(  .^  .q./ ( ( ( ( ( ( ( 8.i.p.p.p.p.p.p.p.p.p.p.( p.8.p.8.p.!.8.!.i.x.8.p.p.p.8.p.p.( ( 8.p.8.p.p.p.p.o.:.p.h.i.p.o.d.{ >.!.Q.k.Q.|.g.|..X$XR.aXaX:X:X:X:XpXrXpXpXiXpXaXuXaXaXaX:XpXDXiXrXuXaXaXaXaXtXuXeX%XiXuXeXeXeXuXiXeXeXtXiX8XrX8XrX8XtXtX8X1XiXrX+XaXrX&XrX:X:X:X&X;X:X:X&X:X:X&X}.1.1.oX{.g.1.|.+X.X@X1.E.g.f.~.!.p.~.!.j.^.HX~.^.qX",
"q.j.j.j.h.q.w.u.+.+.h.w.l.+.d.h.k.k.u.o.u.h.u.a.o.a.d.^ j.~.u.:.u.| d.+.j.a.Q.j.k.l.>.+.d.P.>X,.s.d.d.,.a.-.+.T.a.+.l.k.+.k.a.k.a.a.:.a.a.a.k.T.d.+.,.+.d.OXd.T.a.-.d.g.a.+.f.+.k.,.k.,.,.-.Q.a.j.d.k.h.+.w.w.w.a.w.a.h.a.d.s.a.d.s.@.s.g.s.<.@.s.g.P.k.k.,XP.g.1XXX,.,.a.W.a.>.u.:.d.E.E.!.f.Q.6XeXiXtXtXeX3X5X0XtX9XFXwXqXyXGXyXtX8Xs.OXP.XX,.,X1.1XGXHX8XT.7XwX>X@X@X0X#X9X6XyX,XoXyXqXP.P.|.6X8X@Xs.T.t.U } R E L P V V V K P - P S V L V 2 2 K K P Y E p L - 7 #.L.I.=X;X=XH.=XdXG.S.B.S.*X;XsXH.-XsX).-X).sXG.dXG.S.[ J H M.M.C.S.G.H.C.S.Y.H.G.sXG.sXdX-XH.=X(.sXzXBXzXzXxXzXhXfXdX(.-XI.Y.M.A.$.&.&.N.m.V.N.D.S.*XZ.=X=X).[.).fXgXgXgXxX].gX].].].sXsXgX`.H.b.n.J.H.H.J.H.H.G.=XdX=XG.Y.=XG.S.G.Y.S.G.Y.dX=X=XjXjXdXdXH.Z.`.-XfXhXH.=X=X=X=X=XY.G.Y.Y.V.D.S.V.A.&.&.&.=.W U U P A V h 5 ; i u > O O s s > K Y > s K ; > > Y s O u @ s w s + @ # w 8 u 9 # @ w 9 # m c y u $ w t : @ w e t t e X d e @ s @ @ a 9 e < < w.w.w.o.q.o.o.( ( i.( / q.q.q.( q.( >.o.p.o.o.q.( 9.p.i.q.p.i.q.q.8.8.8.p.p.8.8.8.8.8.8.8.8.8.p.8.p.8.( p.( p.p.p.p.8.8.p.p.( x.p.i.!.!.p.( p.8.p.p.>.p.p.u.u.p.j.!.i.i.>.p.@.d.d.k.j.>X>X|.XX.X.X&XaXaXpX:X:X:XDXpXiXrXrXpX0XpXaXpX:XiXpXiXiXrXDXiXuXtXrXtXuXtX2X9X9XyXrXeXiXiX5X3X3XtXtXtXeXrX3XuXeXrXtXvX9X%X&X0X'.pXrX:X:X:X&X&X'.&X:X%X%X%X.X{.%X%X{..X%X.X{.E.{.9XXXa.d.!.^.^.^.!.^.7X^.~.<X",
"w.p.o.u.u.o.+.o.i.{ d.+.j.d.t.d.h.h.a.o.a.u.a.u.a.~.h.u.h.k.w.j.d.+.j.+.>Xk.k.| k.>Xd.d.a.,.>Xa.g.,.a.,.>X>X+.>X+.{ s.>Xa.:.-.OXa.k.,.+.d.,.a.k.,.@.a.a.a.+.@.k.l.-.s.k.a.,.f.,.k.@.:.,.a.+.s.{ +.+.k.k.a.u.w.w.w.O.a.d.t.a.k.,.a.d.@.>XOX@.} +.l.g.oXP.g.T.g.g.@X X,.:.,.Q.a.:.d.:.f.Q.@X@X,X5XtXuXuXeXtXiXrXrXrXiXyXPX2XuX9XuXIXqXU.>XL.g.g.k.T.{ k.GXGXGXT.HX7X<X#XW. X@XtX2XyX8X5X7X7XoXoX6XoXg.s.k.U.-.5 X.r.L E V P V P P E V Q U S P V 3 2 L L L L L 2 L A S $.A.M.M.Y.=XY.dXmXY.=XS.S.Y.=XdXG.hXhXsXjXhXdXsXsXY.=X=X=XY.hXmXdXsX=XY.H.sXsX=XdXjX`.sXsX(.J.sX).gXgXzX[.zXzXMXfXsXsXZ.=XD.Y.S.S.S.N.M.B.I.S.N.S.v.*XZ.(.).Z.sX_.gXxXxXgXzXxXxXxXgXxXxXxXxXgXbX].].).sX=XsXsX=XsXY.(.G.G.sX*XD.G.Y.G.J.G.=XG.Y.J.G.J.n.sXsX-X-X=X(.fX-XdXdX=X=X=X=X*XY.Y.S.A.S.V.&.&.$.#.W #.Q U U A h L p i p u i ; > K ; u s p s p s ; K # j u w u   w w b s 9 X 8 9 0 X m u 8 s w b $ @ c w w t y d y $ % % w   w y 8 s u 9 b @ y % &  .a.u.q.o.^ ( ( u.^ ( q.p.( w./ ( ^ q.( q.(  .p.(  .q.p.( ( 9./ 8.p.q.( q.q.8.p.p.8.8.p.p.x.p.p.8.p.p.p.p.( 8.8.8.i.p.p.p.p.p.p.8.j.p.8.p.8.!.8.8.!.p.p.p.>.p.u.j.j.p.p.>.p.>.!.:.!.d.Q.k.k. X X X XaX:X:X:X:X:XDXpXiXpXrXDXrXiXaXpXpXDXpXpXiX0XiXtX0XtXtX0XtXFXiX9XuXFXuX5XtXtXeXiX$XrXtXuX8XtXtXiX8X5XrXtX3XrXrXpX&XpX;X:X&XpX;X&X:X:XpX&X;X%X3XrX$X8X.X%X1X+X%X%Xg.R.E.f.!.j.j.^.^.^.7X<X<X~.Q.",
"u.h.h.u.u.k.o.@.:.u.+.+.u.<Xk.a.h.o.d.:.h.u.j.h.>Xh.l.k.h.j.+.k.k.a.j.k.:.h.u.+.a.Q.l.@.a.k.>Xa.k.,.d.qX+.>X+.a.| j.k.a.| +.s.s.-.a.k.,.+.a.a.a.-.a.{ s.t.l.d.t.a.a.g.,.@.{.,.R.W.d.f.R.:.) ,.{ @.O.u.a.a.o.+.u.o.+.k.d.d.a.@.{ a.+.,.a.k.,.d.-.+.W.oX>XP.>Xg.k.oX,.:.,.a.a.a.+.>.>./.@XtXuX9XrXIXtXeX8XtX8XrX3X8X3X3X%X$XiX$X%X8X.X$X1.%.1.s.d.|.>.+.qXGXqX~.<X<XXX7XQ.Q.@XyXaX#XaXyXXXXX,XOX5X8XOX6X6XL.6 } r.A 5 L P W V V W P ! W P S R 2 3 V ; i E 3 p s K P S $.] D.(.-XmXY.=XdXH.G.Y.Y.G.=XG.dXdX=XcXdXcXvXvXcXdXdXmXvXjXdX-X-X=X).sX).G.).).dXH.J.].sX]._.H.sXsXsXnXfXxXbXlXjXjXjX).).G.I.M.N.m.&.M.B.M.M.] V.b.G.G.=X).H.xX].).].].gX].gX`.].].].xXgX].gX].).].sXsX].].)._.G.).H.=XG.Z.Y.G.G.V.S.G.H.C.G.=XjXxX=XgX=XnXsXsX_.hXsXsX).-X-XZ.=XD.Y.V.D.M.] V.&.' &.` F #.*.U S 2 2 L A 2 i ; ; s ; p p ; u > ; p s Y ; s ; ; s w w s # 8 9 # 9 # 8 X y X 3.0 X + t + : 9 # u w u u j u u   u @ X $ @ + y 8   y d y < f g h.o.x ^ { p.^  .w.q./ 9.N ( o.( ( ( ^ p.( ^ (  .u.q.9.q.q.q.9.q.p.( B z ( ( ( ( !.8.!.8.8.p.i.j.p.p.( p.p.8.p.( ( !.( ( !.( !.p.>.q.p.( :.o.i.p.8.p.p.p.p.p.p.i.!.d.>.u.>.p.E.:.!.E.d.<XQ.2X XW.aX%X%X:XpXaXpXpXvXuXrXpXrXpXtX.X9XDXiXtXrXuXrXrX0XuXuXrXtXDXtX0XyXpX0XiXtXeX9X9XuX3X9XyXeXeXtXGX8XiX6X8X8X8X8XpX&XrX:XaX:X}.&XpX:XDX'.rX:X%XrX&X$XP.OX$X+X3X.X3X3XOX,.XX!.k.Q.z.z.~.~.7X^.^.^.^.",
"+.+.a.k.a.+.o.j.d.j.!.f.:.a.d.j.k.p.p.j.u.o.w.>X>Xx.h.w.h.7Xa.a.k.:.u.d.u.k.Q.z.u.a.j.a.l.s.>XXXl.d.~.~.o.~.j.Q.@.{ T.+.d.OXa.{ @.+.s.,.a.,.+.+.k.d.,.k.d.d.d.a.-.P.a.T.1.g.,.1.d.f.k.d.d.>.:.>.o.o.u.u.u.u.u.>.u.u.j.a.a.O.:.{ f.:.,.:.d.@.,.d.,. Xk.P.k.|.g.|.|.a.+.+.u.h.u.:.{ @.d.&X0XpXrXiX3X5XyXeXtX5X3X}.%X8XrXpXrXeX.XeXoX X1.,.,.,.,.k.Q.u.@.!.7X^.k.!.4X<X<Xk.!.#X0XaXaX#XyXwX6XqX.X.X6X1XL.T.Z - X.*.E U S V Q P K S P P P P A U V 2 2 3 p E p K p K L C M.Y.C.C.=X=XY.mXG.B.H.S.m.sX-X=XhXdX=XvXsXhXdXjXmXjXjXcXsXG.-X=X(.H.Z.H.H.G.).H.sX).G.H.).J._.H.sXzXzXfXgXBXgXfXfXfXhX).=XG.Y.S.I.V.N.S.S.S.S.S.Y.S.Y.J.Y.=XY.sX).].].gX].xXxXgXxXgX].xX].gXgXxXsX].].].G.G.).).).(.H.(.=X(.Y.G.H.Y.=XH.Y.H.dXG.H.G.G.dX).).G.`.).lXdXsX(.).-XS.*X(.=XG.*XG.V.C.&.&.&.$.` #.W A A A A A 1 2 3 > s 3 ; ; s K > ; p 5.u ; # > # u u O j # # # y X   # 9 s b X 9 X   o t + u u   : O ; u s > u # : % # @ @ 8 a   # b u     % ..h.O.w.+.O.u.o.w. .M z q./ ..o.>.j.p.( ( / ( q.u.q.q.( z ( x.z.p.( >.p.!.( p.p.p.p.( p.( ( p.q.>.p.8.p.( p.( p.p.p.p.( ( p.( p.p.p.( ( p.!.p.p.>.>.p.j.p.p.j.p.d.z.i.>.u.p.>.>.>.k.!.j.<Xf.<XQ.W.aX#X#X0XpX3XpXrXrXpXpXtXrXrXtXeX9XuXuXqX0XyXuXuXFXuXrXaXaXrXtXtX0XtX0XuXuXyX9X0X$XuXFXyXoXeXFXGX8XFX8XFX+XpX&XrX&X:X;X;X:X&X;X:X&X:X&X&X:X%X%X+XI..X.XP.g.$X.X{.|.oXT.6XQ.f.k.Q.>X<X7X<X^.^.^.^.",
"{ w.+.a.u.o.>.u.:.o.:.u.j.a.-.u.u.>.p.>.a.^ j.z.j.+.h.w.w.>Xj.a.k.u.u.j.u.Q.~.!.+.u.a.a.d.+.s.l.XX+.u.Q.k.d.{ O.+.a.@.>X+.,.,.k.g.-.s.a.s.a.,.,.a.-.a.f.a.d.,.a.s.l.s.g.g.1.g.E.,.f.:.{ o.) { ^ o.+.w.u.o.:.u.>.u.d.u.:.+.+.g.a.l.,.,.,.g.{ >.,.g.oXg.g.s.g.g.|.W.g.:.+.+.a.a.:.@.,.wXtXuXiXrXaX%XtXtXtX+X$X%XrX&XeX+X8XrX8X+XrX{.+X,.%.R.d.d.P.XXd.@.>.^.>Xj.!.4X7X~.>.d.W.0XuXaXaXwX,X7X5X.X+X+X8X+XP.} } X.P P P P A P P P P W P P S V P 2 V E 5 p Y Y Y Y Y P U $.S.H.(.=X-XG.sXG.H.n.J.sXmXcX=X(.-XjXnXG.sXdXsXsXH.=X=X(.Z.Y.H.G.G.Z.C.J.).G.H.=XG.].H.H.).sX].sXsXBXjXBXxXxXjXkXjXfX`.(.C.S.N.S.M.M.M.N.M.M.B.G.V.G.C.G.G.].dX).J.).).).).).].xX).].].J.`.].).].].).).sX].).=X=X(.H.G.=XY.S.S.B.G.Y.C.G.C.G.J.J.J.).dXgXxX]._._.kXfXdX).=XjX=X=X(.G.D.C.v.V.V.] ] &.#.F F #.A A I L L 5 p i i > > > ; p n ; . p b s ; u s @ u s 8 m w 8 w s s w a X 9 + u 8 + 9 e c @ 9 O # u O ; ; p : u : : $ @ # + 9 s 9 9 w : % O < T h.a.l.u.| { o.o.^ 8./  .( q.u.u.i.p.q.( / ( ( ..( q.i.i.p.q./ z ( ( ( ( ( p.( p.8.8.p.( 8.p.q.q.p.p.p.p.p.( p.d.( p.( ( p.( p.( !.( >.p.p.p.( p.p.u.p.p.p.p.p.j.j.j.u.u.j.>.o.( d.u.d.<Xd.Q.XXW..X{.%XaX3X:XpX3X:XpXpXpXtXrXpXtXuXuXFXFXuXrXtXiX0XrX0X0X0XeXpXiXyXpX9XuXuXuXuXuXuXuXFXGXeXtXiXtX8X8XGXpXrXtX}.aX;X%X:X&X:X}.:X&X'.:XrX{.:X+X+X8XrX8X+X%X.X+X X#XOX Xg.>Xk.k.OXk.h.~.>X~.~.<X7XwX",
"O.d.u.w.:.j.j.p.u.o.u.>.d.j.d.k.>.:.u.{ k.O.z.l.h.t.z.>Xj.>X>X<Xd.d.u.d.u.k.u.d.i.d.j.k.>Xk.>Xk.k.d.Q.l.k.d.j.~.u.a.d.>X+.k.-.<.$Xa.1.,.{.g.s.g.:.,.s.d.,.k.,.,.T.a.g.@.R.1.g.g.k.k.@.{ o.>.@.{ u.o.+.h.o.o.o.u.:.a.>.a.:.@.d.-.a.d.:.+.k.-.,.@.+.k.d.P.oXg.1.@.g.g.>.{ O.a.u.o.@.,. X#X%XrXrXrX%XuX3X0X{.8X8XrX%XpX+XrXpX3X$X3XP.|.1.%.g.f.f.k.l.:.@.{ j.j.d.d.Q.wX<Xk.Q.wXyX0XaXQ.aXQ.k.oXoX1X.XyX+X7 @.-.U } A L P L E ~ V ~ Q ~ P S V 2 3 V L 2 3 K p p K K C S ` D.G.H.Y.nXmXmXdXdXZ.Y.dXJ.(.-XsX).=XdXG.dXdXmXjXdXdXhX=X=XH.C.Z.G.J.C.C.G.H.).sX].G.].=XdXsX).sXjXBXsXxXBXxXzXbXjXhX-X).H.S.A.S.M.N.M.V.V.S.V.S.C.Y.G.G.*X).dX).J.).].sX).].sX].).].gX].`.].].sX].).).sXG.H.G.(.G.V.C.S.V.S.G.S.D.H.G.Y.H.).dXdXnXjXH.).dXsXsX_.sX-XsX).).=XD.(.D.(.*XD.D.Z.S.A.M.M.&.#.} } P P U L 2 5 i p u > ; p u ; ; s . s ; p ; s 5.# @ u s u s # @ s 8 8 u @ a # 8 @ # X # @ o c b @ r u u ; s : s r : e % # + w w 9 8 # @ : f . & w.| a.u.O...|  .x w.9.(  .o.u.( ( ( p.( (  . . .w. .q.q.q.8.q.^.!.p.!.( ( p.p.p.!.!.!.p.p.!.p.p.( ( ( ( p.>.8.p.p.( p.p.p.( p.( p.q.!.( ( o.>.p.!.p.p.p.p.p.p.j.j.i.u.d.!.p.o.>.d.>.j.<Xf.Q.<XQ.E.R.aXrX%X:XiX:XpXiX8XpXvXrXrXtXDXuXIXIXuXuXuXyXDXiXrXrXiXiXiX{.0XrXtXtX0X0XyXuXFX3XoXtXuX6X6X8XGX8X8XT.rXtX}.}.rX&X:X}.}.&X;X&X'.pXpX&XvX8X}.%X8XP..X3X&X$X+X3XOX|.f.g.d.Q.~.k.~.^.>X^.~.>X^.^.",
"a.u.a.a.u.j.o.d.>.( :.@.k.h.O.+.u.p.^ u.a.u.O.u.k.w.k.l.h.<X~.k.j.u.:.u.u.d.u.u.:.+.u.d.k.d.T.k.W.d.f.a.>XQ.k.Q.a.a.d.l.,.g.-.,.1.,.1.g.|.,.1.g.g.,.g.,.,.f.f.d.d.l.P.-.,.,.1.,.,.@.| o.o.+.@.^ u.| o.h.o.o.+.u.a.a.:.k.k.+.a.,.d.k.,.+.f.s.g.,.g.oX,.1.P.g.|.|.d.g.+.@.w.a.:.@.@.,.,XeXuXuXaX{.{.aX.X%X&XpX%X%X{.pX3X8XrXP..X+XP.1.g.,.-.g.g.s.d.@.:.o.:.O.u.d.Q.7Xk.O.a.d.aX%XaX%X5X7X,X6X+XoXeXuXL.- } _ I -.L A V ~ Q V C V Q S V C V V 3 A 1 2 p L E Y Y 3 P W N.*Xn.Z.n.n.B.dXjXvX=XG.=XdXhX).H.=XhXdXH.dXdX=XG.J.C.G.G.G.D.M.v.M.v.V.C.G.J.H.sXH.G.sX=XsXdX).sXxXbXgXfXzXgXjXhXsX).).).Z.S.S.S.V.S.V.S.V.S.M.C.M.G.G.H.G.H.].).J.].].sX].].].).J.].].].].sX).sXsX(.=XsXG.=XsXY.=XD.*XG.G.C.S.D.S.D.*XY.=XY.=XY.).=XY.xXxX).].sXsXsXgXsXH.-X*X*X=X(.*XC.V.V.M.&.] ` #.H S U S P A 2 1 2 3 i u ; ; Y ; ; # p h Y . s O u Y ; w 9 5.# u 8 # b + @ 8 s a # + X o $ f b + o   . O ; : ; u : s r w u w + # 9 w # 9 @ w $ 4 . : z.0.o.x 6 ^ u.w./  ./ ..o./  .( ( ( >.(  .q.q.p.q.q.q.o.q.q.q.q.( ^ 8.p.p.!.p.!.p.p.p.p.p.p.p.u.>.p.( p.!.p.p.p.p.p.p.p.p.( p.!.8.q.!.( >.p.p.( p.o.p.j.p.i.d.p.p.p.u.d.j.>.o.>.u.@.:.Q.d.Q.Q.f.R..X9XrX%XtXpXaXpXpXaXrXFXtXrXrXuXuXuX0X$XpXiX0X$XyXuXrX0XpXiXiX0XrXuXtXtXrXrXqXtXuXuXiXGX8XGXtXiXeX8X$X+XiX{.+X%X&XrX&X'.pX}.%X&X:X1.{.0X&XP.+X+X}.+X+X{.$X.X{.f.OXOXOXd.k.k.d.7X7X>X>X~.^.Q.~.",
"w.@.u.i.u.d.^ u.d.o.u.u.7X7Xu.d.d.d.:.d.a.k.j.j.7Xl.~.j.j.z.j.j.d.u.:.u.u.j.u.u.j.j.k.~.k.,.f.<X,.d.>X>Xd.| +.d.a.f.a.k.@.@.,.k.-.1.R.g.g.@.,.g.1.@.g.,.#X,.1.a.@.6Xs.f.,.%.E.d.,.@.+.a.{ o.o.o.u.o.o.w.>.u.p.o.u.+.^ +.+.@.-.@.,.,.-.,.,.@.@.>.-.,.,.,.{.a.1.s.g.k.,.+.u.a.+.o.>.a.|.$X%X#XR./.E.0X%XaX+XrX+X;X+XpX&XP.oX1.g.1.OX-.s.1.a.g.,.g.k.@.,.:.+.o.u.!.!.>X>Xj.Q.|.9X0X.XR.T.6X>X>X>XP.eX{.7 %.-.-.y.y.- A V V P ~ ~ V ! K V ~ V V 3 K 3 2 3 2 K 3 K s 3 W &.C.G.sX(.C.=XG.G.J.H.].).H.H.=X).G.H.(.H.sXG.G.=X(.=X=XC.n.C.b.v.v.C.H.H.dXY.dXdXsXdXxXdXsXdXsXjX].xXnXfXkXzXNXkXjX-XsXsX*XC.D.V.M.C.M.M.M.G.Z.H.S.G.Y.G.=XdX).=X).sXJ.).).).].].].`.].J.].H.).=XH.(.(.=X=X=XY.C.G.v.Z.V.V.S.v.G.Y.Y.=XG.-X).dX].dXdXxXxXY.].dXgXsXsXdXdX=X=X(.(.*XG.Y.D.C.D.V.&.&.' #.#.#.U U L L A 2 A > ; ; > ; s ; ; ; s s s # i @ . s 8 b # 6.# ; b + s 8 b u #   8 t +     X d : m M   : : w O : ; i : : w w w @ 8 w 9 u w @ % : % 4 i.w.| o.| o.O.x x M / /  . .o.^ q.( ( ^ / o.q.( x  . . .q.q.q.q.8.( p.p.>.p.( p.( 8.( p.p.j.q.p.>.!.8.>.p.p.( ( p.p.( 8.>.( p.!.j.p.8.p.( p.( >.p.q.p.j.p.p.p.p.p.d.u.p.d.:.p.u.j.:.d.wX~.>X<XQ. X X$X2X3XpXeX$X%XpXrXaXtXuXiX0XPXiXuXuXuXuXuXuXiX0XrXeXrXtXeX$XIXtXyX0XuXuXuXrX4XiXyXtX6X8XtX8X+X%XeXrX8XpX%X:XiX}.}.}.;XPX&X}.:XpX'.:X&X%X;XpXpXaX3XeX{.$X{.{.g.g.|.k.g.>Xk.k.<Xz.z.~.>XQ.!.^.",
"u.u.a.a.u.k.>.:.p.o.:.o.u.!.i.7X .o.d.^ +.a.k.l.~.a.k.h.d.u.o.d.u.:.u.u.u.j.:.o.j.k.k.k.d.+.l.OXf.6X>Xd.:.Q.Q.d.a.:.5X+.,.a.,.,.,.g.P.1.1.,.g.,.1.@.d. X6X,.d.,.+.7X,.g.s.,.oXf.w.@.O.o.6 ..{ | u.q.o.o.u.u.u.:.j.d.@.:.+.,.d.a.,.d.d.f.g.a.,.,.s.g.g.1.P.g.g.OX1.k.a.+.w.O.{ { { :.>XyX9X@X{.$X1.tXrXrX{.&X{.:XpX8XP.P.%XP.g.s.P.1.d.s.k.g.,.g.,.+.+.o.@.+.O.k.k.k.d.u.h.k.yXtX%X.X6XqX7X5XyX5XuX,.6 -.-.#.U U C P P C P K ~ P Q P V V 3 V 3 P K Y p 2 K s 6.K V H m.(.fXJ.J.cXnXdXxX=X].hXcXdXjX_.H.sXsXsXsXG.J.n.C.n.n.C.b.b.M.M.C.Z.G.Y.Y.dXG.G.Y.sXsXdXG.).dXG.xXsXzXxX].BXsXlXfXfX).-X-X=XC.D.V.v.D.C.C.M.D.S.C.C.G.G.H.=XdX).sXsXxXJ.].].].].`.).H.J.H.].H.=X).H.H.Z.H.H.(.G.C.S.2.S.S.V.G.G.*X-X-XdX*XdX=XdX=XdXdXxXmXdXgXhXsXsXsXG.=X).-XG.*X(.Z.D.Z.C.C.] ] ' H ` #.W U U P L A p p 1 ; ; s ; u ; u ; i O # p > ; # s # # w s s # u 8 @ # 8 8 # + v t $ o X % 0 . : r O u : u ; u ; r : r > w w 8 @ u e + $ o o $ < o R  .x ^ { | +.o./  . ./ ( ( u.) o.( ( ( o.o. .^ ^  .o.i.u.o.( q.u.q.( p.( >.>.p.p.!.p.!.p.p.o.u.( p.( p.p.!.p.p.p.!.8.p.p.p.p.p.p.p.o.p.( o.( p.p.p.p.p.p.u.p.i.j.d.u.j.p.u.u.>.u.o.u.!.!.Q.!.f.E.Q.$X$X$XtX$XaX8XrXrXpXtXrXiXrXiXrXrXuXuX0X%XuXrX&XiXFXrXFXpXtXDXrXrX#X0XrX0X0XGXiX8XFXtX8XtX8X+X+XeX8XvXrXrX8X:X8XrX3X&X$X{.rX'.&X&XpX}.%X{.&XtXP.&XrX}..X+X%Xf.g.g.f.d.>X>X>X>X~.~.^.~.j.j.~.",
"u.j.>.u.u.u.u.u.:.u.u.{ u.<Xu.u.d.u.j.a.u.Q.z.k.h.d.<Xh.k.k.a.j.>.o.o.>.u.j.o.u.o.u.a.u.u.a.XX|.a.W.d.f.,.Q.j.+.a.d.+.f.>.a.s.OX,.,.,.,.g.g.g.%.1.d.>.OX,.,.,.,.k.P.g.a.>Xd.P.d.-.+.O.w...u...^ u.o.O.q.p.{ o.d.:.:.,.d.+.d.+._ +.-.+.-.a.g.T.d.,.,.g.,.g.,.,.P.g.>Xg.+.a.O.o.+.@.,.XX2X X1.d.0X,.&X#X%X+X&X}.aX}.}.}.%X8Xg.1.,.l.OXa.-.P.k.s.a.d.d.u.@.u.j.o.j.d.d.a.h.d.d.yX0X#X X7XyX>XT.@X+X%._ s.-.L.s.U K.Q P S V Q ~ V ~ P ~ V ~ V V V E 3 K K 2 E 3 E K C F S.D.).H.`.).dXH.jXsXjX].J.dX_.).H.G.G.=XG.J.H.H.G.Z.n.M.n.n.Z.C.H.Z.H.G.J.H.].sXdXxXdXgX].xX].].gX].xXzXsXxXgXzXkXkX-X).).Z.C.Z.M.M.S.C.S.V.=XI.S.C.G.Y.G.(.=X).sX=XgXJ.sX].].J.J.].].H.].H.J.J.J.J.).(.Z.C.n.V.Z.Z.Z.G.(.(.H.=X=XdX=XdXdXdXsXsX).dXsXdX).sXjXgXsXsXsX].).sX-XZ.=X(.D.D.Y.Z.V.M.&.&.' #.#.U U A A A L 2 2 3 p > K ; s > p # s . u 6.# # ; Y w   5.# Y u   8 w 8 8 u X # s   f % % % e   % e o O O : > i > p : i : @ u 8 # s w % b t r e %   ..e.x { x ^ o.w.w.x /  .o.z ^ z ^ ^ z q.^ ^  .o.q. .x ^ / ^ ( o.p.p.>.~.p.p.p.!.( p.( ( o.p.q.p.!.p.>.p.( p.p.( 8.p.!.8.8.p.p.p.p.>.q.p.q.( ( p.>.p.p.p.u.j.d.i.j.j.p.d.d.p.d.>.p.>.d.Q.>XQ.~.!.,.#XwX3X0XyX%XiXiXrXeXiXpX0XeXrX9XiXuX%X0XtXuXDX%X$XPXpX#XpXeXrXtXeXiX0X9X9X2XaXiXGX8XtXyX8XpX6XIXtX.X3X9X8X%X:XrX:XP.&XpXrX}.{.:X{.&X%X'.pX%X&XpX%X%X0X1..X.XE.g.P.1X1Xd.k.l.>X>X~.<X7X>Xk.~.<X",
":.u.u.a.+.o.u.O.>.| >.^ Q.k.!.^ j.j.:.u.d.j.k.>Xj.>Xj.<X~.>.u.u.j.u.u.d.z.j.!.^.p.+.d.j.a.!.k.a.6Xf.XXa.+.Q.d.@.d.d.>X:.+.a.g.P.g.+.,.<.a.1.a.,.g.d.:.g.,.d.a.@.P.l.,.,.g.-.g.d.,.O...w...| O.o.o.:.u.O.u.j.p.:.u.d.a.:.d.+.} @.+.g.-.>.|.,.-.,.+.g.,.g.1.,.d.P.g.oXu.,.t.+.+.+.o.,.6X6X4Xf.d. X1.0X%XrX&X%X&X8XF.<.%X+XoX%.g.,.a.,.-.-.k.l.,.,.a.l.a.{ h.a.+.j.j.:.O.a.w.d.,XeX/.#XOXk.6Xs.,Xs.7 1.-.s.-.-.-.y.U C P C ~ P K ~ ~ P ~ E C V 3 E V 3 s K K K K K V F Y.sXJ.dXxXxXdXdXxXsXdXxXsXxXnXmX].G.xXdXG.sXY.J.sX=XH.H.J.Y.G.H.=XH.=X=X`.-XsXsXjXdX].gXgX].].].fXgXxXBXlXlXlXxXgXdXsXhX).(.S.n.V.V.V.C.M.Z.Y.C.=XZ.*XdX(.H.).sXsXsXsXsXG.].J.].].].H.`.H.].).J.).H.`._.H.`.H.(.`.(.Z.dX(.dX-XhXsXsXdXsXsXxXxXdXsXgXsX].sXxX].xXgXxX).sX).=X=XH.(.(.G.C.G.G.] M.&.&.M.#.F U A S L L 2 2 2 > ; s p ; u ; 5.s ; @ s 6.# s @ 5.s   6.u ; u u 8 @ u w u + # u # 8 % %   c e o d O % O , r . O u r : : y u ; 8 u 8 8 w s d y % . k h.x ^ o.4 { o.z / z / / z ^ B p.) ^ ) ( ( o.o.{ (  .j.j.i.8.o.j.p.o.>.q.p.o.:.p.p.>.>.p.p.o.( >.( z ( p.8.( 8.8.p.p.p.8.p.p.p.p.8.8.8.p.p.q.p.( o.>.i.d.p.i.j.!.p.j.p.!.p.d.d.>.u.p.d.~.<Xj.f.,.XX9X4X5X3X3XeXiX3XtXrXrX8XDXuXiXaXaXiXPX@X$X%XtXrXrXtX%XtXpX%XtX%XrX1XtXeX$XeXiXFXeXeXFXtX+X%X8X%X;X$XpX%XrXrX+X%X8XrX%X%X8X%X&X&X&X&X{.pX&X%X:X&X3XrX3X{.+XR.R.,.f.f.k.XXk.>X7Xz.,Xk.>Xz.k.k.",
"u.+.o.u.u.u.d.:.:.o.i.{ w.^ h.j.j.u.o.j.k.k.h.OXa.z.k.!.i.^ :.j.~.p.u.u.j.p.z.j.u.u.j.d.,.k.>XXXW.,.W.d.!.4Xk.>.d.{ d.{ XX@.a.>X-.g.@.,.+.k.k.@.-.-.a.+.l.s.>Xk.s.>Xk.s.g.,.P.k.+.{ | w. .| ..@.o.( O.h.a.u.o.u.d.u.:.:.k.,.@.+.@.+.@.+.f.a.g.g.,.s.@.1.,.d.P.|.g.k.+.+.O.| | +.{ @.>X<XXXa.+.d.>.E.#XuX{.{.}.pX{.F.P.<.P.d.P.s.,.@.<.+.d.g.-.k.d.f.d.@.d.u.w.a.d.+.| u.| d.XX3X0XR.>X7XT.GXR._ %.s.@.%.<.=.*.*.P V P V K P ~ V V V P V 3 3 3 P 2 2 V p K s K K C G B.G.J.sX=XsXdXxXxXdXxXxXmXxXsXxXxXmXnXjXdXjXjX=XsXsX-X).H.sXdX_.hXsXhXjXsXkXjXjXzXjXjXgX[.xXxXH.].gX].`.`.[.lXbXgXfXsXdX).(.Z.Z.G.S.C.Z.C.S.G.V.*XC.Z.(.G.*XdXsX].sXxXxXfXxXgXjX`.`.xX].H.).].xXJ.dX`.H._.fX)._.fX-X(.hX-XjXsXdXjXcXxXsX].dXxXdXxXgXsXgXgXsX).sXsXsX).=X).=X-XH.G.G.G.C.S.C.V.M.&.&.$.` F F D A L V L 2 2 > > p ; u ; O p ; : ; # s @ Y O u s w y @ # w 9 8 w 8 8 8 X @ t X 0   %   M d % o o : O % : # : i : u u i n w ; @ u @ # O : o o o x  .4  .u.6 x ^ x / f z z B ^ ) o.^ ( ( ^ ^ o.o.^ ..^ o.( ^ ( >.i.o.o.o.p.j.p.j.>.p.p.p.!.p.u.o.p.p.( >.p.p.( ( p.p.p.p.p.p.p.p.!.p.8.8.( 8.( p.p.q.q.p.p.u.p.u.!.i.j.p.!.u.p.u.:.u.:.p.!.!.f.d.a.d.!.XX2X4X$X2XtX8XuXtXiXtXiXrXrXuXuXrXaX&XtXiX%XrXpXFX8X8XtXtX%X$XeX%XeX%X.X0XeXtX.X{.8XeX6X8XP.8X:X%X8X:X8XrX3X}.pX3X%X+X+X&X&X&XaXaX}.:X{.F.%X}.%XoX X{.$X$XR.|.1Xg.g.>XXXOX<X~.>X~.>XQ.k.Q.",
"u.u.a.d.h.a.u.| +.+.h.+.k.i.j.w.j.h.d.j.k.h.j.z.a.z.j.+.!.~.^.i.i.( >.p.i.i.!.j.p.d.!.d.>.a.d.j.a.1.>X1.,.a.d.j.!.@.a.>.a.d.k.k.@.@.{ @.-.a.s.@.+.+.a.@.k.+.k.d.+.T.P.d.|.g.f.a.+.+.a.O.w.w.| +.w.o.+.u.o.a.u.d.u.o.a.+.:.@.@.+.o.@.@.+.-.@.a.d.,.,.+.,.-.d.g.s.s.a.@.| { | | | { +.XX6Xf.:.@.,.@.1.#XeX&X&X+XF.F.}.<.P..XOXP.-.-.| s.@.a.s.@.,.g.l.,.@.a.w.w.+.a.| ..w.O.a.|.2X%Xg.|.7Xk.OX,.7 6XU.-.} s.;.-.*.D S P P 3 P ~ V V K E V V 3 V K K 3 3 V K K s V C J J.Y.).gX].=X=X=X).).sXxXdXxXsXdXdXsXjXgXdXdXxXjXdXdXhXsX].=X_.H.).).).fX`.sXjX].].].xXgX].[.xX).].[.zXMXxX].bXBXgXsX-X).(.Z.H.G.*XZ.S.D.Z.Z.G.Z.=XG.G.=X=XfXxXxXdXgXjX].].jX].lX[.gX].gXjXsXxXjXsXjXlXsXsXfXkXjXkXgXkXNXjXgXjX_.xXgXxXsX].].sX[.sX[.gXgX[.].).sX].sX).].G.=X-XG.G.G.*XC.C.C.A.M.$.$.H F S Z S P L K 2 2 2 2 p s ; s ; @ p s ; u @ ; . s O   b : # b # w 9 @ # 8 w #   9 u # z   X   N 9 % o o : : O : ; u u O i u ; b O 8 ; u @ @ @ e $ % o N 9.x x ..^ | ^ ^ z z z ^ B ( ^ ( o.( p.( ^ u.O.o.o.{ u.o.o.o.q.o.u.u.u.q.>.>.p.( :.!.p.p.p.u. .>.( 8.8.8.p.8.p.p.p.p.8.p.8.8.8.8.8.( p.( p.( >.p.o.o.p.p.u.o.p.p.p.u.>.!.o.>.u.d.p.d.d.!.~.j.u.Q.Q.W.>X6X4X@X$XrX%XtXrXiXtXtX%XiXaX%XaX0X0XpX$X%XtXiXpX+X8XiXtX3X%X3X%XpXuXtXuX.X+X%XeXrX%X8XiX{.rXrXrX%XrX%X3X3XP.FXrXtXeX%X+XrX:X%XrXrXpX%X&XrX+X+X{.%X$X$X|.R.|.,Xk.f.7XQ.T.>XQ.7Xk.>Xz.>Xk.",
"| :.u.h.a.:.a.| u.h.k.o.h.a.k.i.j.h.w.o.u.k.j.k.d.k.h.p.~.o.p.p.j.o.u.p.j.p.z.p.p.:.i.E.a.k.Q.d.,.d.OXd.>Xd.a.>.+.k.:.| { f.| -.a.} ,.-.d.@.-.+.a.d.a.a.l.,.+.@.a.d.,.f.4Xd.:.-.O.{ | x O.@.^ +.u.+.w.:.^ j.u.p.u.a.!.+.o.,.u.+.a.+.a.d.a.@.:.+.@.,.,.a.@.,.a.,.k.f.a.:.O.t.u.-.+.,.>X6Xa.:.@.:.@.>.,.g.&X8XpXI.<.P.F.F.P.s.<.@.g.-.a.,.g.f.,.,.g.d.+.+.+.+.a.O.a.o.O.h.u.l.|.2X@XR.OX6Xg.f.7 ,.P.,.<.%.s.*.} y.U P Q P 3 ~ K V V ~ Q K L 2 K K 3 3 s > 3 3 K 3 V W B.J.H.].J.).xXnXxXxXsXxXdXxXxXnXxXgXbXnXbXxXdXjXjXjXgXsXsX].jXsXkXkXfXzXsXhXbXlXlX].bXgX].H.].gXMX].].gXMX[._.lXsXjXhX-X).C.D.D.Z.D.Z.D.D.D.G.v.H.n.G.-X`.H.].gXxXdXfX[.].fX].gXxXzX`.sXzXxXxXxXxXxXNXzXkXjXzXlXBXxXkXkXjXlXBXfXxX].gXxXxXxXxX[.gXxXxXgX].].sXsX].sX).].).).(.H.H.S.Z.V.M.v.C.&.] ` H F H A S L L A p 2 p p s : ; ; ; . b w # ; s b   u s @ 5.# # 5.  w u w # # s u X 9 8 + v     X 9   8 f # @ @ O r : > ; ; u ; # s p u : o @ O # O $ @ # < 9. . .x { { x x z ^ / ^ B ( z 4 ( ^ o.( ( o.^ o.^ ( w.u.:.o.o.{ o.+.u.p.p.>.!.j.!.p.o.>.u.!.p.o.p.p.!.( ( 8.p.( ( 8.p.p.p.p.p.p.p.p.i.p.8.( ( o.( o.p.p.>.o.q.o.p.:.p.!.p.p.!.:.p.p.p.j.j.d.u.a.j.d.~.XX,X6XtXrX3X%X%XpXpXtXrXtX%XaXpXaX%XaX&XtXtX%X%X$XtXeX8X8XtXrX%X3X$X0XeXFX$X X$X3X|.I.+X%X:X}.%X$X8X}.+XiX$XeX+X$X1XtXeXaXaX/.%X%X&X%X}.&X8XrX$XoX|.|.|.oX,.g.g.W.W.d.j.>XT.,Xz.>X>X>X>X",
"a.j.d.a.a.a.h.a.k.t.a.+.u.o.h.j.q.o.^ ^ h.>X>Xj.h.h.h.u.7Xz.j.z.!.q.p.i.p.i.^.j.o.@.p.p.d.k.f.d.W.,.,.+.>XW.k.k.d.:.k.j.+.a.d.l.,.@.a.+.d.,.a.+.d.k.-.a.a.a.+.+.k.,.@.,.5Xd.-.a.a.| +.{ w.,.@.u.,.+.+.a.+.u.:.@.>.@.>.) | a.u.{ a.o.:.a.a.:.a.:.+.+.+.>.{ >.,.g.,.:.+.+.{ O.| { -.+.>X<X:.>.@.+.:.>.f.5XyXP.F._ F.P.F.%.P.-.,.,.-.@.{ @.a.,.d.s.g.a.@.,.a.a.a.{ j.+.o.w.| :.,.{.@XoXk.k.HXD @.,.,.%.s.s.s.} } ;.Q D Q S V - P P V P E P K L K L 3 p p p 2 2 p K S ! N.H.).].].sXxXnXxXxX].gXgXxX=XdXnXbXxXnXjXjXxXxXjXxXgXsXgX].gX_.jXlX].lX_.].gXjXxX].gX].].sXgXgXgX].xXxXzXJ.NXZXfXsX).).).Z.*XH.C.Z.G.D.Z.G.=XZ.G.Z._.jXdXH.sX[.[.[.lXzXlXgXMXMXMXzXbX].xXnX).BXjXBXlXgXBXBXxXxXMXxXxXxXgXgXZX[.zXgXxXxXxXgXxX].].].].].].].).].).].].).).G.=X).=XG.Y.C.Z.D.S.&.&.$.` #.! S A L P L 2 p p p ; ; p ; O . s ; s # p n # w b # 6.8 @ 5.@ @ # a u 8 t a # 8 X X N + X f X X + f #   . o j ; : @ u ; ; @ b 0.> O y : # # o @ $ 9 % M / q.^ x x  .o.z 9. .( z o.^ ^ p.o.q.o.p.a.o.| { o.o.o.{ o.:.w.:.( >.>.j.p.d.o.>.d.j.j.p.j.o.o.p.j.!.i.z.p.p.p.p.p.p.( 8.p.p.8.8.p.8.( ( ( p.o.q.p.>.o.O.o.>.( >.>.q.j.u.p.!.p.d.p.:.u.j.~.!.!.!.!.XXQ.W.k.3XuXrX0X%XtXtXrXrX0X%XrXuX&X%XrXrXiX%X+XrXeXtX+X8XrXtX%X%XrX%X3X.X&X%XtX%X+X%XtXiX:X;X'.&X%XrX%X3XtXeX8XuX5X5XyXoXtXrX&XrXeX&X&X+X&X3X%X+X|.oXoXoXeXf.|.XXXXk.d.>X>X~.>Xk.>X7X7X>X",
"u.a.+.o.w.t.+.O.h.O.| O.k.h.a. .u.w.u.h.h.z.h.k.a.^.^.w.i.i.i.p.i.o.p.p.j.j.!.j.p.p.j.:.:.:.:.a.@.d.OXf.XXa.a.j.| w.k.u.l.:.:.k.%.@.7 ,.s.:.s.a.a.a.-.+.:.@.+.@.a.a.@.,.,Xs.a.,.@.{ @.{ +.+.{ @.+.O.u.+.+.j.a.o.p.p.o.@.:.:.:.+.a.@.+.o.+.+.>.+.:.+.@.@.{ ,.,.d.+.,.+.+.X.+.X.{ | { k.<X:.:.+.o.:.@.,.|.$XP..XF.F.I.<.1..X<.s.s.@.%.@.+.g.<.+X>Xa.,.,.a.a.a.t.{ a.{  .0.x | +.E.oXP.>XT.U.+.,.1.<.-.-.#.#.U *.-.U A L A A 3 K V V V K L V P V K 3 p 3 2 s 2 K V C S M.Z.).).].=X=XdXdXxX].xXxXnXxXxXnXnXbXnXnXnXnXzXxXjXgXfXsXgXjXgXNXkXjXNXgXlXjXfXjX].lX].gXxX[.xXgX).].].AXMX].kXfXjXhXsX-X(.-XY.S.G.*XD.G.G.(.G.).Z.(.hXfX`.kX[.].gXlXlX[.gXxXlX].xX[.sXgXCXlXbXBXBXbXgXlXBXzXxXzXgXzXzXxX[.BX].[.gXxXdXsXxXsXsXxXxX].sXsX].].].).].).].).G.G.G.G.Z.H.C.C.V.M.M.M.$.#.#.#.U A A V 2 K 2 2 > ; s s b # s > . 5.@ u b # # b # u u w s 5.s X m a # # t 8 u # # v 0 X 4.% q o + O o # o d @ : : u ; p w u 5.s u n u @ y y + o t % 9.M ..x { o.w. .x q.q.u.^ ( ( ^ p.o.( { o.q.| u.o.+.o.>.o.o.p.o.u.{ o.>.p.>.o.:.p.p.>.>.q.j.j.!.i.i.i.^.p.8.8.p.p.8.8.8.p.p.p.p.p.p.p.p.p.j.^.q.o.p.( ( u.u.p.o.p.p.>.p.u.>.u.:.p.u.u.p.j.j.j.h.j.d.>XQ.9X9XuXeXeX3X0XyXrXrX0XrXaX:XaX%XpXrX%X8XaXpXtX8XiXpXtX3XrX.X3XiXrXeX.XeX2X5X+XeX+X$XP.&X%X:X&XaXeX8X8XiXtX6X8X6X6XiX8XaXaX%XaX&X{.}.aX3X$X{.oX6XyX1Xg.,X{.OXf.g.g.s.>X7Xk.>Xk.>X>X>Xz.",
"+.a.w.a.k.k.l.a.w.w.t.o.w.u.h.w.w.i.h.j.h.w.w.j.~.u.u.i.z.z.i.j.j.p.i.j.j.p.p.( j.j.j.u.u.d.d.k.g.k.f.d.d.,.u.a.+.+.k.a.@.h.a.a.,.>.{ k.d.-.-.-.f.,.,.+.a.@.+.@.@.+.>.,.g.,.,.@.{ { | O.{ @.@.@.-.+.a.{ u.d.k.:.o.u.o.o.>.^ o.o.d.o.:.o.:.+.@.{ :.+.:.,.+.:.@.a.@.+.:.@.{ w.I { +.D k.Q.+.>.u.>.>.+.:.k.$XU.P.<.%.F.<.<.s.1.,.+.@.+.+.-.g.,.s.g.d.s.,.a.+.d.O.+.u...w.h.O.+.,.@X|.|.7X6X-.{ 5X,.OXU.-.-.-.;.L.y.U U S A V V V 3 K V 2 V K P 2 L 3 > > 3 V p K 2 V H C.G.).sXxXdXdXdXgXxX].].xXdXnXsXjXjX].jXgXxXbXgXcXjXgXgXfXxXfXfXzXfXfXkXfXjXxXdXsXsXsX].).].J.xXgX].[.].zXlXgXxXfX].).-X(.G.-X*XD.*X*XG.(.H.(.(.(.H.`.sXfX_.fX[.[.lXgXlXxXxXxXzXxXbXgXzXBXZXCXgXZXxXZXbXfXxXxXzXBXzXxXxXxXxXxXxXgXxXxXxXxXxX].sXsX].].].].).].].].].sXG.).).G.G.G.C.G.S.n.M.] &.&.` H #.F P V V V 2 5 p ; 3 ; u ; s . s @ # s # : b w # Y s   ; 8 j m b # u w +   s # w 8 # f 0 X N % q X X + $ e @ y # u : > ; n ; ; . 5.b u o @ r y # X o   e...q.o.w.o. .^ z / / ( ^ ) ^ ^  .o.o.o.^ { o.:. .| o.p.o.@.| ) o.o.u.>.:.u.:.d.!.d.p.j.p.j.p.i.p.p.p.p.p.p.p.p.p.p.p.p.p.8.( p.p.p.p.8.8.( p.p.o.p.o.o.p.>.p.p.p.p.u.u.p.p.>.p.j.j.j.j.Q.!.u.i.k.d.!.k.2X,XeX6X$X3XeX0XeXpXaX%XaXpXrX%XtX0XrX%X8XFXpX+XDXiXiX{.pXrXrXrX1.$X%XiX3XrX%XeX}.8XpX&X&X;X&X%X.X+X1X+X+X6XyXeX6XyX.X0XaX%X%X%X+X%XrX{.+X3XtXoX$XOX|.6XoX1XXXXX6X>X7X<X>X7X>X7X>X>X7X",
"u.k.u.+.t.+.| X.t.+.w.t.t.| O.w.w.i.u.u.i.h.h.j.u.u.j.h.p.p.p.p.!.i.z.j.!.p.p.p.!.p.:.o.:.k.d.f.+.:.@.+.:.u.u.:.j.a.l.@.w.d.a.g.D @.,.1.s.k.d.,.k.+.@.@.-.+.,.@.+.@.} +.,.>.a.+.O.@.@.+.{ @.+.>.a.@.a.+.k.o.>.u.| d.@.( u.o.:.{ o.{ +.| o.o.^ ^ +.+.:.w.o.+.@.W.+.d.a.O.@.+.^ | a.6 l.d.@.o.i.+.@.{ { P.6Xg.<.F.%.I.<.<.<.s.-.-.s.-.-.@.s.1.,.g.g.P.g.a.+.a.+.d.O.x w.l.w.+.+.|.OXg.g.>X7 +.P.-.%.t.} -.%.-.s.} R *.L L V K 2 3 E V V V K L 2 p 3 > 3 p K K V 3 V F M.H.).=XxX=XdXxXxXxXsX].xXsXnXdXnXnXjXxXgXxXsX].bXbXxXgXgXBXgXgXBXfXkXbXgXbXsXgXbXjXjXxXjXsXgXxX].[.BXgXzX[.zXNXjXfXsXhX=X=X(.*XG.G.*XG.Y.Z.*X(.).`.).-XfX_.gXfX[.lXxXBXBXlXMXzXBX].CX].fXgXgXgXxXxXzXBXbXZXBXzXBXxXxXxXgXgXgXnXzXxXxXxXxXsXxX].].xXdX].].].).].G.).].H.G.).H.H.H.C.G.C.v.] ' A.&.` H H F U A A h L K 2 > * Y > u > ; p i u Y y u s b @ u @ u s O b # u m # # 9 8 m # 8 8 X v v o f + X % f # e m w j # u ; u O s * b . 6.: ; $ @ @ @ $ @ + % x.M w.| 6 ^ o.w./ x / / ( ^ q.o.( p.p.j.o.( +.( @.o.o.>.{ p.u.u.j.>.u.p.p.j.!.p.p.o.>.!.u.p.q.p.!.i.i.^.p.8.!.p.p.8.8.p.p.8.( 8.q.8.p.8.p.q.p.i.O.p.p.p.>.( p.o.:.q.q.>.p.>.( >.q.p.d.j.~.~.u.u.Q.j.~.k.,X>XyX5X%XeXpXaXrXrX%XrX:XrXpXrXrX9XvXrX{.rXIXpXFXtXtX%XpX$XtXiX{.tXtXtX$X3X.XtX3X5X8X:X&X{.&X:X&X%XrXyX6XyX8XyX8XiX5XrX%XaX0XrXrX{.{..X{.+X5Xg.|.XXk.6XR.f.g.OX<XQ.>X>Xk.7X7X7XT.>X7X",
"j.:.!.a.k.a.| t.0.a.h.h.s.{ w.| i.u.p.( j.i.j.^.x.8.p.z.z.i.p.^.h.p.p.q.p.p.!.!.p.p.p.>.j.u.:.i.d.o.d.d.p.u.u.+.j.~.:.+.,.d.s.>.D >.E.1.d.:.@.d.:.,.@.@.:.@.a.@.+.{ @.| a.d.,.{ O.{ +.@.+.@.+.u.+.+.+.o.+.>.+.>.o.o.u.@.u.>.u.o.>.w.@. .+... .^ w.h.{ O.+.d.@.o.@.{ j.@.o.| O.| ..O.a.O.{ { | a.@.D >.@.g.,.<.<.P.s.<.P.s.<.<.s.t.s.,.%.g.1.1.g..Xf.,.+.,.a.{ ,.w.x a.| w.,.@.>X7Xs.k.d.A -.-.-.-.I D } -.-.} *.I D A 1 2 3 3 3 P E K V 2 K K 3 K 2 p 2 K E p 2 - G A.S.sXG.xX].].).xXxX].xXnXdXnXdXnXnXnXxXnX).nXdXCXbXnXxXfXfXzX_.zXgXgXkXjXbXjXkXfXjXsXsXhXfX(.lXsXsXjXJ.xXgXxXxXdXsX).sXH.dX-X*XD.Z.-XG.dXG.=X).=X=XG.].dX`.gX].xXlXxXMXxXBXBXzXMXzXbXzXZXCXkXjXBXBXnXCXzXzXnXgXBXBXxXxXxXzXMXxX].[.gX[.gX].xXxXxXxXsX).].sXsXsX=XJ.).).J.H.H.Y.S.B.J.B.M.v.' A.` ` W G U W P V L 2 2 2 ; 3 p p   p i . # . b y p   5.# # # r u : n u w   @ c 9   m X 9 X 9 + 0.  @   y + @ X @ @ # m O u ; ; j r % n j y $ n   @ # 0 @ + 8 4 w.x M z | u.w.w. .N ( q.p.w.o.u.j.o.o.o.z ^ ^ ( ( >.>.{ ^ >.o.o.u.p.p.>.>.p.d.d.j.!.!.p.q.p.!.i.p.8.p.p.p.p.!.p.z p.( p.q.q.p.p.8.( p.8.p.( ( i.q.p.~.q. .o.u.( :.>.p.p.( >.( ( p.!.p.!.!.!.j.^.Q.<X~.>Xf.,X0X2X3XeX%XpXaXpX:XaX:XrXpXpX%XrXpX.XrXrX3XiX0X%XiX3XrX3XrXeX0X:X%X%XpXpX$X1.%XiX1.pX%X;X%XpXrX8XiX8X+XeX5X1XiX5X5XrX@X0X&X0X$X$XtX3X2X X1XR.4XW.W.OXd.>X6Xk.k.k.,X7X>X7X7X7X>X<X7X",
"o.o.p.o.u.w.X.O.X.t.R O.a.0.a.| o.O.j.p.z.i.p.p.i.i.i.i.p.i.p.8.p.i.j.o.o.>.d.p.>.( :.>.j.j.!.!.i.>.q.i.p.u.u.>.+.d.:.:.,.,.1.,.1.1.1.,.:.f.a.f.@.@.{ ,.s.{ @._ >.@.u.@.o.| O.+.o.{ u.+.+.| @.@.>.:.o.@.@.:.+.u.+.@.p.:.a.{ @.>.o.| { { O.^ {  .i.w.x o.| o.{ :.:.:.j.| | { o.| { o.a.a.w.w.| @.@.@.,.%.s.,.-.1.s.;.t.P.s._ } s.-.s.t.@.s.g.g.P.%.s.,.%.+.l.>.@.| w.o.{ o.o.a.k.7X>Xl.Z @.P.T.s.} y.-.-._ } -.-.X.L r.3 L A V V L V 3 K K 3 2 2 p 3 3 3 2 K V 3 G F S.S.=X].sX].xX].nXxXsXdXnXxXxX].mXxXxXdXnXxXnXdX].dXnXnXhXxXNXlXBXMXgXgXgXgXfXhXfXhX=XdXjXbX`.bXzXbXzX`.xXfXbXxXsXgX-XfXZ.`.G.(.G.G.*XG.=XZ.H.G.=XsX).=XsXH.gX].xX].gXxX[.xXxXBX].xX).zXhXfXKXzXjXbXxXbXbXxXBXxXzXBXxXxXxXxXxXxXlXxXzXxXgXgXdXsX).=X].=X].dXJ.].).).H.).).H.B.J.H.Y.Y.S.S.S.&.N.H #.W G U U L A L 2 K p ; > * 1 . n u u ; . 5.# 6.# p * # Y . .   O @ M 9 + v v + v 8 + 8 +   5.  o @ w @ 9 # @ w o b # ; O O : < : b O : e 5.9 $ + 9 @ X o    ...w.w.^ x ^ x / /  .q.w.p.u.o.i.z ^ u.) ) o.@.7 :.z h.~.j.q.( >.) j.j.p.u.p.p.o.o.( ( ( 8.p.8.q.p.p.( ( ( 8.( ( p.>.p.p.q.o.p.8.p.p.( ( ( ( p.q.q.p.o.u.u.o.>.p.p.>.>.p.!.( >.p.p.!.!.p.p.j.~.!.Q.!.Q.Q.6X4XtX3X.X&XpXpXpXaXDXrX%XaXpXaX0X:X1.pXrX&X9XvX3X$X%XpXrXrX&X}.$XrXrX%X%X%X&X&XaX{.%X&XaX%X8X%X;XrX6X1X8X8X6X5XqX$XaXaXrX0X%XaX$X2X9X$X X6X|.6Xf.XX>XXXqX>X1X5XHX6X7X<X>XqX7X>X>X7X",
"o.>.p.O.t.i.t.h.e.l.X.0.t.X.0. .>.{ o.( q.o.( q.8.8.8.q.p.8.8.8.q.p.j.j.i.p.>.( !.p.p.>.:.>.o.o.u.u.( >.o.( u.u.u.>.{ ,.s.,.,.,.g.,.>.,.@.,.:.d.@.>.@.>.g.-.,.@.+.{ :.+.@.{ @.o.+.o.u.O.+.+.+.o.@.+.@.{ o.+.+.:.@.:.d.:.u.o.u.o.>.@.^ { O.x o.o.w.w.| o.w.| @.d.a.d.j.{ +.| | | { { O.O.+.+.+.@.+.,.,.,.,.%.-.%.-.<.s.s.s.-.} -.+.-.-.@.,.1.<.P.1.g.-.d.s.:.@.6 w...6 x | ^ +.a.a.P.,.7 l.s.y.s.-.L.} -.} } T.,.*.R y.2 2 2 V V L 3 * K L 3 2 2 K 2 3 3 2 p 2 2 A G M.M.H.H.sX).].).dXdXJ.).xXxXxX).xXxXsXsXnXsXnXJXsXnXnXnX].gXgX].[.gX_.gXbXkXkXVXbXjXsXdXcXcXsXbXlXnXMXgXCXzXnXsXG.fX-XjX-XdXG.=X=X-X=X=X=XG.dXdXsX).H.).dX].[.].xX].zXxXxXBX[.ZXzXBXkXzXCXJXnX).nXZXxXgXnXBXzXzXzXbX].gXxXxXBXBXxXxXgX].gXxXdXsXsXsXdXsX].sX].sX=X].).Y.Y.Y.H.Y.H.S.V.M.m.M.&.' G #.U F P D A A K 2 p 2 ; 1 1 , * ; ; : b r j # u # u # ; u ; ; u : w m o   9 0 9 9 8 X v @ # 5.w   0   q 0 9 @ @ o r . > u r % O : j e e $ 5.9 o 8 @ 9 + @ o N 9. .u.x x q.^ / q.q.p.o.( ^ 4 o.o.o.u.>.u.u.( @.u.:.:.o.+.o.h.j.^.o.{ >.u.u.p.o.p.i.j.p.p.p.( >.p.8.>.p.>.( ( p.p.( ( q.p.p.p.( 8.8.p.8.8.8.q.p.p.u.q.i.p.p.( o.( ( ( ( ( ) ( >.>.:.p.p.q.p.!.!.j.R.Q.<X4X4XeXeX%X$XrXaXpX:X:X:X:X:X:X&X&X:X:XrX%X+X%XiX%X%XrX8X{.%X%XpXpX3X%X%XaXtXrXrX%X{.rX&X:X%X8X:XrX:X8X%X8XeX8X1XqX$X#X&X#XrX$X0X%X X X$XoXoX X<XW.oXOXXX6Xk.OX>XOXk.>X>X6X7X7X>X>XT.",
":.j.u.o.w.t.l.t.X.T.e.l.h...t.a.j.o.u.o.u.i.j.j.p.i.p.p.x.p.p.i.p.q.q.i.j.j.p.p.!.p.d.p.u.u.h.+.d.k.a.:.:.u.d.d.d.u.@.u.a.d.,.d.f.,.,.,.@.>.+.:.{ :.@.@.:.,.+.@.>.{ @.+.u.{ | O.+.O.a.@.:.a.a.>.o.>.>.:.u.,.:.u.u.a.u. .>.:.a.>.+.:.o.^ o.| o...^ | | o.O.{ o.u.o.a.a.{ o.o.| | ^ I | { { | { { @.s.>.-.-.} @.@.@.s.P.s.s.;.@.,.t.-.+.-.<.1.1.g.P.-.{ a.d.,.+.^ h.{ ^  .+.{ O.k.s.>X,.7 P.X.%.T.#.l.-.-._ { U.} -.y.R L L V L 3 2 V 2 K K K K 3 K 2 p p p 2 3 2 S F m.S.Y.].sX).xX].).].dXsXdXdXxXsXxXxXxXxXnXsXsXCXjXnXBXJXnXbXZXBXlXNXfXzXCXkXsXjXfXhXdXjXcXhXkXbX_.gXlX[.bXsXzX].sXxX=X_.H.H.).=X=X'.G.*X=XG.G.G.G.G.G.).sX).gXsXxX[.BXxXxXBXxXbXBXgXCXhXZXbXgX`.ZXbXBXbXCXxXxXzXxXbXxXBXBXgXMXxXxXxXxXxXxXsXxXsXsX].sXsX].H.=X].Y.J.=XH.).J.J.B.B.J.M.v.m.M.' ` Z $.F H F A V L 2 2 2 > * 1 2 . > # p . y w # r : r u u u # p w : O o r y M e e o # @ # 5.# w d y   +   % 8 e + # u u # u u , : : ; f d M , b $ # 9 o w 9 e % f 9.f o.x | u.i.i.q.9. .o. .( o.u.u.u.^ u.j.+.d.u.{ p.o.o.i.p.o.o.6 >.( ^ ( o.:.( ( ( ( ( / q.( ( ( ( ( ( ( ( ( >.p.p.p.o.u.p.p.8.N N 8.p.( ( z ( ( ^ ^ / / N o.p.o.>.>.( ( z ( q.8.( ( >.p.>.i.j.d.j.d.Q.Q.#X4X4X0X3XrX$XeX&XrXaX:XpXiXpXaX:X:XaX%X%X%X%X&XpXpXpX&X3X3XrXrX%XrXtX%X$XaXrXtXrXpX&X%X&X%X8X8X%X8X8XrXeX3X5XeX$X.X%X%XrX#X%XrX@X{.9XoXR.XXyX|.f.P.>XOX7XOX<X>XqX7X7X7X>XT.7XGX7X",
"u.j.u.o.w.h.t.0.0.l.h.l.h.X.h.l.^ ^ j.q.j.q.i.i.( z.i.q.p.p.i.8.( q.q.o.q.j.j.>.j.p.i.j.u.j.z.i.:.>.d.u.u.d.o.p.^ u.d.@.{ ,.,.,.,.>.a.d.@.>.o.@.@.+.@.:.f.a.%.:.,.@.+.+.@.^ o.:.O.+.a.+.u.a.+.o.| @.@.o.a.a.+.o.u.>.o.o.>.o.:.u.+.u.>.{ | { o.x o.w.w.w.u.:.:.u.o.h.d.| +.o.O.+.{ ..+.+.| { { ^ >.,.@.+.@.} X.} @.a.s.s.,.} D a.+.-.-.-.g.1.1.1.-.:._ @.+.:.,.^ | o.u.+.| | +.>Xa.XX} 7 l.-.X.%.*.t.s.+.%.%.P.I U } I L 2 - V V 2 K L V 3 2 K * 2 2 K K 2 2 3 2 A G $.S.H.H.).J.).).=XxXxXdXxXxXxXxXsXdXnXgXsXCXsXnX].gX].dXfXH.lXlXsXkXfXlXNXjX_.jXsXdXdXjXhXsX-XhXsXkXjXfXnXgXBXgXgXgXG.sXsXjX-X*X=XD.H.G.=XG.=X-X-XdXdXsXdX_.sXfXgX].xXxXgXbX].xXbXgXsX).bXfXCXbXbXbXnXxXbXxXBXnX[.xXxXxXxX].xX].[.xXgXxXxX].xXsX].].).].].dX=XJ.J.=X).J.).J.G.S.S.C.C.V.B.M.%.$.J #.Z #.S V V 1 V 1 1 > O 2 . . h * p # u O # u T + i s . ; ; u r y r : o   : c % y . # n # $   n w # + + X w 9 # a r : : O O : r $ : O b c y r 9 t # + @ +   B e... .w.j.i.x.i.w.i.i.i.u.q.q.h. .o.O.>.{ o.) z u.6 ) ^ o.o.( ^ j.6 { q.>.o.o.^ o.( / ( N p.( ( ( >.( ( ( p.>.o.p.p.d.( >.p.8.8.N ( N 8.N ( q.p.( 8.q.p.8.( ( 8.( q.>.>.p.( 8.p.p.8.( p.p.p.j.~.!.^.!.~.>X<X4X4X5X9XFXtXiXrX:X:X:X:X:X:XaXpX&X:XpX%X:X:XaX:X3XrX;X%X}.&XaX8XiXpX&X%X8X%X%XaXaX&X:XaX&X%X;X%X%X3XtX8X$XyX8X$X%X%X9XyX.X1.$X%X#X5X@Xf.1XyXk.,.k.W.d.6Xk.oXP.4XOXoX7X7X7X6X7XP.",
"q.i.w.O.q.t.w.0.h.0.r.w.t.t.h.h.u.>.d.u.j.i.p.q.o.z.z.u.p.i.z.p.q.i.z.z.j.i.j.u.>.p.>.p.u.j.j.k.p.o.j.u.>.u.o.Q.>.d.h.:.+.a.+.-.-.@.+.+.@.@.) { >.o.{ @.,.,.@.,.a.o.{ o.+.6 | { o.{ u.| @.+.+.@.f.a.:.u.f.k.u.@.@.u.u.u.o.@.o.:.@.o.@.( O.^ { ^ O.o.| +.@.{ | +.@.a.+.{ ^ x ^ {  .| u.+.{ | @.+.:.-.@.@.@.{ @.} %.-.} -.,.+.} @.{ -.a.-.P.P.P.,.<.,.-.+.+.{ { { ..o.x O.@.^ +.l.l.l.= { -.-.-.-.s.D Z Z -.} -.D U A r.A V 3 3 L K V 2 2 2 3 V 3 * 3 p p p 2 3 2 D F &.S.Y.=X].).].sXsXxXH.J.).dX].xXsXsXnXsXsXnXnXnXsXnXjXjXjX].kXkXjXzXfXfXkXkX_.bXhXhXhXjXvXjXjXcXkXNXzXxXnXjXnXdXdXjX].G.(.G.=XG.-XD.*XG.=XG.G.=XG.=X=X(._.`.].fXfX].xXzXgXzXBX[.gXgXBXsXbXbXbXJX).CXCXxXzXzXBXzXgXxXxXgXxXxXxXxXxX].].].gX].dXsXsXsXdX].=X].sXsXJ.J.=XY.Y.Y.G.G.D.S.M.M.m.' ' $.` #.G U S - L 2 2 2 2 > * , * ; > . ; Y ; # u ; j   5.  # > # s > O . u j d o j : 5.  o s . y   b y   + % + 8 w   y w r u r : O % e r   $ j y d t y +   + o % N w.9.{ ....B w.p.w.i.i.q.o.o.6 w.o.u. .( 6 ) o.) | { o.:.@.^ u.o.z i.j.~.z.!.^.j.z.j.i.i.( 8.( ( p.p.( p.!.p.>.( ( ( p.( p.p.8.!.p.p.( p.z z ( q./ ( 8.8./ ( ( >.( ( ( ( >.( p.p.>.p.!.p.( p.p.d.p.j.j.Q.Q.j.Q.XXXXoX2X1XyX3XaXaXpXrX:X&X&XpX&X&X:X&XaXaXaXaXrXrX}.%X%XrXpXrX%XrXaX:XrX%X&XF.aX%X:XrX+XrX+X%X8X%XiX3X+XtX6XoXrX&X%X%X+Xg.$X@X|.@X3X6X,XOXg.oX6X4XoXoXoX6X7XQ.5X>X|.T.XXk.k.>X",
"{ o.o.o.{ w.| t.h.I t.X.t.h.h.a.u.u.o.{ o.u.o.u.q.q.u.u.o.o.( ( q.( p.8.q.( p.p.j.!.i.j.u.a.u.p.>.{ d.>.@.o.o.!.@.o.@.@.{ @.6 { a.+.:.@.u.@.>.>.d.a.+.-.,.f.g.a.,.{ ^ o.:.{ | x | | +.+.+.+.w.:.:.+.{ @.u.:.o.) o.a.d.:.o.>.u.o.^ @.@.{ +.{ | { w.+.o.:.{ o.@.>.u.h.u.u.O.| O.O...x | | { @.+.+.+.@.O.{ +.{ } @.| X.{ | -.a.a.@.7 } @.} a.<.%.-.,.@.-.+.a.| | t.w.| x w.+.o.{ a.k.T.D k.l.s.*.-.6X-.} ,.-._ } s.=.X.y.U A V V S V 2 2 V V 2 L 2 3 2 2 2 2 p > 2 C Z ! B.J.Y.].).J.J.J.).].xXxXxX].].jXjXgXdXjXdXcXnXdXCXnXnXgXdXVXNXzXzXzXjXkXbXdXnXhXhXsXdXsXdXsXsXsXfXxXgXnXxXbXsXsXsXsXsXsXsX*X(.-XG.G.=X=XG.C.(.=XsXdX=XhXdXfXjXxXsXgXxXgXxXBXgXzXxXZX_.sXCXfXZX).zXnXCXCXgXgX].H.[.nXxXbXxXxX[.xXxXxXxXxX].].].].sX].J.J.).=X].J.Y.).J.J.J.b.B.N.M.M.M.M.] ` $.#.F S U A A P 3 2 L 2 < 2 3 * , ; ; i e.#   y u @   6.  j ; y p T s   b o r O r : 0.. > > ; j : j e o   0 a o t X u @ e w n e : o u b O % e e y e w @   w + X M q.q.i.o.u.u.i.o./ / ^ ^ ^ ( | u.u.w.6 ^ ^ ^ @.o.6 o.z ^ o.i.| | j.o.w.p.( ( p.^ q./ q.z.p.z.p.( ( ( p.!.8.( ^ ( ( p.p.( q.q.( 8.8.( ( p.N N z ( 8./ N / ( p.p.p.p.>.q.p.p.8.p.q.( p.p.p.p.!.i.d.j.d.!.~.~.!.~.<XqX7X4X,XyXyXrX&XrXaXpXrX&X;XpXrXrX:X:XaXaXpX8XpX:X%X+XaX:XrX;XrX8X&X&X;X3X}.%X%X&X%X%X8X{.+X8X%X8X3X$X8X3XoXrX.X&X#XeXeX2X$XR.|.5X6XOXf.k.qX X6X|.OXf.5XeX|.>X1X,X6X5XOXk.>X",
"o.| o.| I w.| z.h.T >Xt.w.| | +.6 >.:.:.{ O. .k.{ ^ q.q.o.O.q.u.w.p.j.p.j.!.~.p.p.j.p.u.u.j.d.k.j.>.u.u.d.!.u.@.^ :.u.{ 6 a.+.+.o.@.a.o.d.o.>.a.d.@.@.k.d.d.+.,.O.@.{ @.O.^ +.+.+.o.h.a.u.+.+.+.^ @.>.+.u.a.:.u.+.o.o.+.o.+.o.w.^ :.p.{ O.o.w.o.^ +.o.o.^ :.o.o.O.+.O.w.o... .{ { 6 O.+.| O.@.{ O.^ O.^ +.I { +.X.{ X.t.+.| O.l.+.X.+.s.OX%.+.P.-.+.,.I +.+.{ +.^ x +.| ^ w.{ k.k.7X7 } I } D 7 t.y.D s.s.L.;.-.-.y.R E 2 S V - 2 V V L L K 2 . p 2 p 3 3 K i 3 V S J m.J.H.G.sX].xXxXxX].sXdXH.xXdXxXxXnXnXnXxXfXnX).xXnXZXhXdXkXgXgXfXNXjXfXsX].jXsXdXjXcXhXjXcXbXCXBXbXdXJXxXzXxXgXdXsXY.G.G.=X=X-XD.C.dX;X=X=XmXdX=X(.H.sXjX].].jX].xXlXbXxXzXnXnXfXCXBXgXZXnXxXsXxXxX].gXCXBXZXCXgXxXxXBXxXxX[.xXxXgXxXxX].dXdXJ.].J.].).].).=XJ.=XY.J.=XY.M.D.Y.S.M.M.M.` %.$.$.F F S Z A D * 5 L > 3 > ; i L i . > n . n ; # y @ p u u O Y   i u ; 0.  j j : o 6.. n i r O d d $ d   c m   a 8 y $ w # w . e r : b @ : e w e w O @   u @   /  ./ h.6 { w.j.w. .p.h.j.u.u.O.u.^ o.j.j.{ i.p.o.>.^ o.:.+.@.h.o.{ ( O.d.o.| h.o.p.( ( p.(  .( ( ( >.( ( ( ( ( q.q.p.o.( q.p.( 8.8.N ( ( N 8.^ ( ( ( ( p.i.i.( p.( ( q.p.q.( >.p.p.( p.p.p.p.p.p.!.i.j.j.~.~.k.Q.k.XX4X6XqX@XaX&XaX&X&X&X{.rX&X%X%XaX&X&X&X0X&XaX&XrX%X;X%X+XrX%X}.rXaX.X;X8X:X:X8X8X%X3X}.eXrX1X+XeX5X%X5X%X1./..X.X{.3X{..X5X|.|.|.oX$X|.k.XX9X|.4Xa.,X6Xk.g.6X>Xg.oXoX|.>X",
") :.@.u.^ +.a.w.a.t.t.l.s.T.u.a.+.k.a.k.j.h.a.h.j.^.z.z.j.z.~.w.p.u.:.( u.j.p.d.( !.~.~.>XQ.a.d.u.u.>.k.i.a.:.u.!.d.+.^ +.k.+.t.+.| +.u.:.:.a.d.o.@.:.+.d.k.,.@.@.{ w.o.^ { ..O.x @.O.+.O.+.:.^ o.{ :.d.u.o.:.u.+.u.h.a.u.o.h.o.o.@.@.o.^ +.o...{ u.u.{ u.@.{ >.| o.w.6 w.o.| ..| | O.O.{ +.+.{ { @.w.{ O.O.| O.O.@.| +.X.| w.t.a.X.-.} s.,.g.<.@.-.s.X.O.t.| O.{ +.{ z { ^ @.h.l.l.= 6 X.s.*.T.s.D -.-.} *.%.s.*.R V Q P P V P V L 2 P V 2 K 2 3 2 2 3 p p K 3 - S #.M.S.G.sXH.J.xXsXdXJ.].sXdXnX].xXxXgXsXxXnXjXJXG.JXnXbXgXZXkXkXCXkXcXkXhXjXfXdXkXH.cXhXdXbXD.cXfXsXbXhXnXxXjXcXbXjX=X(.-X=XdX-X-X*X(.vX*XG.*XC.dXdX-X=X).-XsXgXgXxXgXnXnXgXxX].[.xX].BX[.gXnXsXbXxXnXnXBXbX].nXxXgXgXxXxXxXxX[.xX].).xXxX].xX].].sX].sXJ.J.).G.H.H.Y.H.H.S.C.S.S.M.M.$.$.' H ` H U S #.A V U 3 1 2 2 > 2 2 . 1 . Y > : r n # O y ; # e.# i i   u 0.  i u j . . r g k i i i O f j e $ $ % 5.X 0   3.  0 # o   @ r $ b # % w y @ c e o   @ %   o M / j.( o.+.w.^ w.{ 4 z >.u.4 6 o.u.@...| 6 w.a.^ O.@.+.:.u.^ | ^ | z :.{ o.>.( o.p.i.( o.( q.p.z.p.8.p.q.p.p.p.8.( q.p.8.p.!.p.p.p.8.i.p.p.p.p.!.p.8.p.( p.^ ( 8.p.p.q.p.( ( p.( i.( >.p.( p.j.j.j.j.j.p.>.j.d.Q.~.Q.<XXXoX.X$X{.@XpXeX1X{.rX3X{.rX+XrX8XeX+X%XpX8XaX8X}..X%XrX%X;X3X;X:XpX%X;XpX+X{.rX%X&X8X+X3X.XeX$X$X3X$X1.%X%XP.eXoX3X1X1XOX1X|.|.<XyXeXOX,.1XoXP.f.1XOX,.OXk.P.XXT.OX",
"j.:.| k.l.t.| +.l.+.| +.@.t.{ @.{ { o.O.@.z.^.u.x ^.j.w.h.u.u.~.~.j.i.d.~.!.p.!.p.j.:.) >.u.:.+.>Xk.u.u.d.k.p.>.u.@.>.u.a.u.| a.w.+.+.| o.+.:.a.:.>.:.{ +.,.-.a.+.{ | { { o.{ ..6 w.a.a.o.{ +.+.>.@.+.@.@.+.:.u.u.>.o.:.+.o.u.+.u.+.{ o...o.o.+.o.o.{ { a.o.^ { | +.u.o.w.o.h.u.w.O.| | 6 { +.O. .| O...| { U w.r.O.| O.| { O.| X.X.s.@.<.@.1.s.+.s.a.+.O.O.{ o.7 u.:.w.O.O.O.k.k.l.& D -.l.-.s.-.t.-.} %.U.U.t.U S V X.R A S r.Q V V P E V 3 V K 2 2 K K * ; 3 2 D #.N.S.G.H.J.).].).).J.xXdX=XJ.).xXxXsXdXnXnXdXnXjXjXjXdXsXxXBXbXlXkXnXbXjXBXcXjXdXdXhXvX=XvXhXNXcXbXcXkXZXgXjXjXhXdXfX-X=X-X*XD.D.*XD.(.S.=XvXdXZ.-X=X=XdX-XH.fXhXgX].].gXgXgXxXnXgXxXnXxXsXxXxXCXxXnXxXnXnXnXxX].].xXxX).sX[.xXxXxX].xX].].].).].].J.).).].).G.H.Z.G.C.C.V.B.C.S.M.M.N.M.$.$.#.#.F Z U A A L 2 2 2 < 1 , > > 1 ; i j : y Y u u u O > n ; u Y p O Y > j   < j   j . > r ; p r n l X o 9 v m X 0   N e e $ m f #   f 9.u # O M d y y o # O O X 4  .= | +.+.6 { ^ x | w.w.| 4 +.~.~.{ +.u.a.a.o.+.) @.| o.@.:.:.o.@.+.+.j.u.o.o.>.i.o.o.^ p.q.8.q.q.( ( i.q.8.8.( 8.q.i.!.i.p.8.8.8.p.p.p.( ( 8.( ( p.p.p.( !.p.p.8.>.o.p.p.p.d.!.p.!.!.!.!.!.!.p.p.p.p.p.d.j.k.j.j.Q.k.>XQ.>XW.3X2X@X.XE..X3X5X+X{.1X$X3X1X8X3X%X.X%X%X%XrX:X}.8X%X8X%X3X8X8X3X%XpXaX8XiX%X.X$XrXtX{.{.rX0X$XtX.X X+X@X%XeXeX|.@XOX1X1Xk.P.,X>X,X6X5X>X1Xk.d.oXk.>X6X,X,X6X,X",
"w.>X>Xj.w.a.k.k.t.a.T.k.d.7Xk.d.k.~.Q.k.k.z.h.h.^ q.o.| z.j.h.i.i.~.>X~.j.~.j.^.Q.d.i.u.~.d.d.>.u.+.,.o.:.j.u.d.d.) o.@.+.O.{ { w.u.w.o.{ o.>.u.:.a.d.>.+.+.+.a.:.{ { @.{ u.| { | | u.w.@.| +.:.@.:.>.@.>.:.u.+.u.+.q.i.u.q.w.o.o.o.o.u.| >.^ o.:.o.( | :.o.o.w.w.a.w...x x ..x X.| O.w.{ O.w.O.O.{ | | O.{ { t.w.O.I I X.O.O.{ t.O.-.} %.-.,.,._ @.| | | I I ^ x u.x { x w.w.a.+.l.7 +.X.} *.-.t.-.D -.s.s.F U S - * C E C V P A 3 V - E P V K L 2 V E K 3 3 K 2 S W $.S.G.G.sX).sXxXmXxXdXxXxXxXxXxXnXnXJXnXxXxXnXnXsXCXJXcXxXkXjXsXkX].sXhX-XjXjX-XcXmXjXsXcXjXVXcXnXnXjXZXjXnXnXjX-XhX=XG.(.*X-XG.*X=XD.=X*XY.(.=X=XdX-XhXsXsXjXdXsXgXxXgXgX].xXbXgXnXCXnXbXxXgX].].nXBXxXgXgXxXnXgXxXxXxXxXxXxXxXxXxXxXxX].].J.sX].).].J.].=XG.Y.H.G.H.H.S.S.S.M.M.M.M.M.$.$.#.F F Z F A 2 5 2 = 1 * 1 1 < > ; . * j ; # n   ;   @ b O p s p n ; j 6.g O j > . Y   > > ; i k b O :   X 0 9 + 0 X 5.X e t b : o $ m m j # : b m w b u u o   % & x.w.a.| @.a.<Xj.a.z.^ x :.a.6 = +.a.u.7 B & { :.+.{ @.u.+.+.+.a.u.wX:.:.^ u.d.:.d.o.j.o.i.p.9.q.( ( q.j.j.q.p.( q.8.8.8.8.p.8.p.p.p.8.8.( ( p.( ( ( p.p.p.!.p.q.p.p.p.!.p.q.( :.( p.p.p.!.!.d.p.j.p.u.!.!.!.>Xk.j.!.~.<XQ.<X X,XQ.6XtX5X,XOXeXoX$X@X3X6XeXeXrXrX+X%X0X+XeX{..X8X%X8X;X8X8X8X;X%XtX;X&X3X%X3XrXoX+X{.{.3X%XP.%X{.&X$X5X1.5X.XP.1XXX|.@Xk.P.oXg.g.6XOXg.4X1Xg.OXXXT.>Xk.g.>X>X",
"a.a.a.O.t.h.l.h.w.O.k.>Xa.+.I +.k.k.k.a.h.h.O.j.w.w.u.q.u.u.o...^ >.h.o.^ o.( >.q.>.d.~.<Xu.,.o.a.o.f.u.u.+.>.!.@.6 ^ { { +.O.O.O.o.O.+.o.+.u.d.a.d.k.d.d.:.-.+.+.+.o.w.@.+.| ..u.{ O.O.w.a.+.+.^ +.+.o.u.a.+.@.| a.a.u.o.o.o.o.( o.@.( 6 u.^ o.( o.o.^ ^ { o.O.o.O.z | { | w.x o.O.w.a.o.-.+.@.| ..| O.t.0.X.w.t.t.| { w.w.O.| t.O.@.D ,.s.g.%.-.t.O.X.w.| w.o.^ a.^ +.{ k.w.| t.a.- @.| U } 6 6 X.7 I *.s.D A *.R P L P V S Q P U E V P L 3 V P K 2 2 3 K K Y = - S H B.H.H.sX).).].).sX].sX).xXdX].).H.).=XxXjXdXxXdXjXbXG.jXnXbXbXbXdXkXjXsXdXdX).nXxXhXcXvX=XbXcXjXZXhXnXkXsXhXjX(.dX;X-X=XD.dX*X-XD.S.=X;XZ.=XvXG.=X=XdX-X).jXxX].gXsX].xXxXxX[.].xXsX].].].nXxXgXxXzXxXbXnXxXnXgXnXxX].xXxX[.[.xXsXsX].].dXJ.sX).sXdXJ.).G.G.G.C.H.S.S.S.S.V.M.N.$.m.$.` ` F F G S U A = 5 2 2 1 , 3 1 > h > p h Y b w 6.# y y p 6.# j : y ; O # T O r r   r j e u O u u r f   n     % + 8 8 X 9.  8 e + $ o % y e 5.o o u b O j b r y o &   i.t.>X>Xk.k.k.k.>X7X7X>Xj.qX7X7X>X>X7Xk.f.<Xj.XXj.) @.d.:.a.a.d.W.o.+.d.E.>.o.o.>.>.^.j.~.j.j.^.i.z.h.i.i.q.z.p.!.z.i.p.p.i.q.p.p.p.p.i.p.!.p.!.!.( p.p.( p.o.( >.( 8.>.( >.( p.o.>.p.( >.>.u.p.d.p.d.!.i.d.!.a.d.f.k.W.k.k.d.E.g.f.#X XoX,X1XoX1XoX+X.X6XeX{.3X$X3X3X$X8X+XP.%XP..X.X+X}..X+X}.3X{.1.P.&X%XtX{.{.rX3X8X3X+X{..X3X3XeX1.2XP.g.OXg.s.OXg.l.W.6Xg.6XQ.a.XXT.g.g.oXk.7XT.f.k.g.",
"a.t.a.h.k.w.O.w.+.{ t.j.+.{ I l.j.d.k.i.O.h.u.^ z q. .z w.o.^ h.j.o.h.q.^.j.z.j.i.p.d.p.u.u.k.k.d.+.j.a.a.u.>.u.( ) :.o.o.+.+.+.| | @.u.w.+.:.u.j.d.d.a.d.w.a.a.{ o.o.:.| +.O.| | x o.o.^ { ) { { >.@.o.a.d.u.:.O.a.u.o.x o.o.o.{ o.^ ^ ^ w./ u.o.O.w.o.o.w.w.u.o.w.^ w.q.w.w.x w.| o.| x +.+.O.{ x I { { w.X.I h.l.l.t.a...O.0.{ X.-.-.d.L.g.-.s.l.-.O.X.o.h.O.{ a.x | 7 u.w.w.z.>X7 +.} } s.} } t.{ A 7 ;.} - Q Q V V V V V V S P C P ~ K K E K K K V 3 K K > 2 A Z $.B.J.J.J.dX].dXsXdXsXdXdXsXxXnXxXxXxXnXnXnXvXjXnXnXnXjXZXBXbXdX_.nXzX).bXjXmXsXnXvXjXnXvX=XcXcXcXZXvXxXhXnXjXnXhXdX=XhX*X(.D.hXD.vXM.dX=XG.hX=XhXdX-XhX-XdXjXcXjXxXxXgXbXxXxX].xXZXbXbXZXsXBXnXgXgXnXxXbXxXgXsX).xXxXmXnXgX].].xX].gXsX].sXJ.sXJ.sX=XJ.J.G.H.H.V.C.V.V.M.S.M.] ;.$.$.$.$.#.F H A F U P 2 A 2 2 1 L * 5 g . ; > , : j # Y # u n u 5.. ; . r.; : p y : 5.. $ y m O >   y i O n f ,   $ 9.q   + q % m   9 8 e @ 9 d o b # $ e b % % j w n d   & z.w.l.g.s.a.a.@.>Xu.+.>XT.a.+.XXQ.j.k.7X7XGX7XqX7XqXFXGX<X4X7X>Xd.<Xd.>Xd.d.u.Q.~.d.f.p.d.q.i.j.p.~.k.j.z.~.^.p.j.j.j.j.j.^.!.p.p.p.!.j.p.( ( p.!.p.!.p.!.!.p.>.p.o.p.p.( >.>.!.>.>.( ( >.p.:.>.>.p.u.d.>.>.j.d.j.Q.Q.Q.k.XXR.,XQ. XoXf.XX6XoX|.oX$X.X|.+X$XoX.X.X{.{..X.X+X+X1XP.3X8X%X+X+X:X}.+X&X+X%X&X{.E.{.&XeX{.$X3X$X{.{.+X{.1X.X1XP.P.6X>X.XyXoXOXXX1Xd.6X6XOX6X6XT.T.,Xg.7X>X>X>X>X",
"^ O.o.I 0.h...g 4 4 x x { t.a.k.{ { +.o.+.w.q.o.u.u.w.^ w.( ^ ^ i.q.o.q.q.i.i.i.o.q.o.~.~.+.O.o.w.o.u.w.a.j.u.>.u.>.>.>.@.o.{ O.w.o.o.u.u.o.o.a.a.u.:.u.a.+.a.a.{ @.O.+.w.w.w.{ | ^ +.+.o.| @.+.@.@.:.d.j.d.:.u.i.u.o.o.w.u.o.w.o.o./ o.o.o.{ o.( | ^ / ^ ^ / i...| x o.O.h.w.^ | x I { { +.+.+.| | | ..X.z.l.t.l.h.h.w.h.X.w.{ | t.t.+.-.,.s.-.{ +.t.w.{ T ..T ^ +.{ a.o.a.| { t.l.7 { 5 7 *.U X.I 7 U U -.*.S R U 2 V K Q P * P E 3 V V V 3 3 K V K K 3 K 3 K 5 C A H B.Y.Y.J.J.sXdX=X].=XxXxXxXdXxXsXdXmXxXnXnXnXjXdXjXdX].H.bXjXjX`.bXjXG.jXnXnXsXvXmXcXnXnXhXcXvXVXjXjXnXjXjXG.sXdX-X*X:X=X(.*XD.*XY.=XZ.V.D.S.D.-X=X=X(.-XfX=XfX-XxXxXdXxX).gXsX].bXgXjXbX).nXnXxX].bXbXnXxXnXxX].xXxXsX].xX].xXgXsX].gXdX].].sX=X).J.).J.G.G.H.C.G.C.C.M.S.N.M.M.M.&.' $.#.F #.G D F P A A 2 5 2 R . 1 r * ; > 1 . i # 5.# # 6.  6.u y u n   i 6.. : Y   j   n   y # b s . f n   e $ e.  8 0 0 + d X 0 o $ f 3.y   % % e $ r w O w O j : % & h.k.qXk.k.OXg.:.T.s.k.} 6 d.d.+.{ ,.{ +.o.{ t.:.@.| ,.f.a.a.>.a.,Xg.f.k.>X,Xd.wXwX~.XXj.~.^.7X<Xj.>X!.j.j.k.>X!.j.~.!.j.!.^.j.d.j.!.^.^.j.!.!.p.!.!.!.p.p.!.!.p.j.!.!.!.!.!.!.!.d.!.!.!.!.!.!.:.p.:.u.d.u.d.d.u.f.d.W.k.!.>XW.#Xk.W.7X@Xf.1.oXOXOX@XoX+XOX{.2X.X.Xg.{..XP.g..X.XP.+X+X+Xg.P.{.{.P.{.{.P.1.%.1.R.{.{.1.P.{.P.g.P.{.g.g.{.g.g.g.P.g.k.,X|.k.W.>Xs.6X1XOX,XT.d.oX>Xk.P.T.P.T.OX",
"x w.e...l ..x w.T. ...l.z.a.w.l.k.d.o.{ +.^ ..h.w.q.h.i.q./ i.^ p.h.e.i.B q./ N p.i./ i.i.O.O.a.u.a.a.a.u.a.>.o.:.^ @.^ o.w.@.u.w.| o.+.:.+.+.u.u.a.a.a.l.+.w.t.@.o.+.+.a.w.u.{ { x 6 | | { | ^ { { :.d.a.w.o.@.u.+.+.o.u.i.o.o.o.o./ +.w.^ o.^ | O...o. .....j.w.w. .....O.^ 4 ..x X.@.{ a.+.a.x I I x x l.h.0.l.X.| X.h.o.w.| t.t.} } } ,.a.,.@.X.a.t.w.q.9.{ { { 6 { ..| | x X.t.= I X.} -.| | I @.} } *.D A A P E P K K Q V V V C V V ~ E K ~ K K E 3 K 3 K 3 * C ~ c.J.Y.].dXH.].).dXxXxXdXxXsXgXxXxXdXdXxXjXnXCXnXxXxXhXhXfXjXzXsXdXhXsXdXjXnXsXxXdXcXvXvXjXjXjXvXjXjXnXnXCXhXhXhXdX-X-X*X*XdX;X-XD.=X*XD.nXD.dX(.*XsXG.jXhX).NXjXsXgXxXxX].bXnXgXbXxXxXnX].xXxXxXgXbXxXnXgXxX].dXxXnXsXdXxX].xXsX].].dXgX].sX).].J.J.dX=XH.C.C.V.S.v.V.V.V.S.m.&.S.$.H N.#.F F S S P S 5 2 1 1 2 Y . , 3 p ; > , . : : n @ # j   r u # ; ; . 6.0.# r 5.% j   b @ u @ b 8 % : j   f   3.o q v + d X 9 9 X e t d o % b b # o O e w ; : r #   & t.t.a.D } ,.@.1.s.@.@.k.P.,.,.k.a.f.XX6Xa.+.a.7Xk.d.,.XX|.d.9X XW.|.d.g.f.,XQ.Q.Q.Q.qX!.~.<X7X>X~.>Xk.>X~.<X^.7X<XwX<Xj.!.j.^.^.wX^.^.~.~.<X^.!.d.j.!.!.!.!.!.!.!.d.p.!.!.^.>.!.!.!.Q.Q.Q./.Q.Q.Q.!.Q.~.!.Q.Q.Q.>XQ.<XXX>X2XXXwX,X XXX@X<X2X@XP.|.+X$X.X.Xg.R.{.|. X$X$XoX{.oX1X|.1X.XP.P.|.+X}..X{.{.{.{.E..X&XP.{.{.g.{.P.1.{.+X{.{.g.g.g.OX.Xg.k.P.k.P.T.s.s.k.g.|.T.,XoXk.OX6X@X6X>Xs.k.",
"0.h.0.x 4 ^ 4 9.h.f f | w.T 6 | h.o.o.u.i.o.i. . .u.w.o.w.^ p./  .N q./ 8./ q.q.N ^.w.w.| u.h.w.h.w. .u.u.:.o.+.^ @.>.{ @.a.o.O.+.| | o.u.:.u.d.d.j.a.a.a...a.h.o.w.a.+.u.{ u.| w.O. .w.O.@.+.{ :.w.d.a.+.+.+.o.{ o.w.z o.w.o.o.o. .x ^ o.^ h...^ u.o.o.h.h.o.o.x { ..6 x M x | u. .u.w.{ +.@.O.{ | | | I t.t.9.X.I X.X.w.T t.a.| X.O.+.-.,.s.s.s.| X...T ..{ x O.o.o.u.+.( | | 6 ..7 l D I -.t.R I 0.X.} I A *.P P Q E P 3 Q V ~ C P V V V V E ~ V K K 3 E 3 K 3 3 S ! c.c.J.Y.).].dXsX].mXxX].nXxXxXnXxXnXnXxXnXxXxXdXsXnXjXbXbXbXsXhXcXcXjXJXdXjXdXmXdXdXdXjXG.dXvXdXJXjXjXhXdXjXdX=X*X-XdX*X-XD.C.D.-XD.*XC.;X(.(.mX(.vX(.=XvX(.kXjXsXdXxXgXxXxXgXgXgXxXgXbXxXxXnXxXxXxXdXxXsXnXnXxX].xXdXxX].).xXxXxXsXxX).sXdXJ.sX).J.=XJ.S.C.H.C.D.v.M.S.' m.' ' N.$.H N.` F W S D D A A 2 A > 2 Y * > ; T * > p : ; u b ; : # u # Y . y i ; 0.: . o Y r m y $ 3.+ + b w : : t o %   4.4.  4.+ X v c % 9 +   $ % c $ m % @ O e r . y r % =   < x l.+.f.6Xk.7XT.6X>Xs.k.>Xd.a.k.k.+.+.s.+.{ d.,.d.+.k.XXQ.@.>.f.d.k.@XQ.,.,.d.!.>.<Xd.k.a.+.a.d.d.+.Q.d.>X!.Q.o.>.d.>.j.!.j.:.p.p.^.!.!.!.!.!.^.!.!.!.!.p.^.^.!.!.wX^.wX!.!.^.Q.!.^.!.wX!.^.Q.^.Q.Q.Q.~.<X<XQ.7X>X,XQ.W.W.d.@XXXQ.#X@X@X|.4XoXeX.X%X{.3X%X{.2XoX1XoXf.$X|.P.1X|.OXP.+X+XeXoXP.F.{.}..X.X/.P..X X{.%X{.+X{.P.1.1.g..XP.g.P.|.f.,.OXP.s.,.,.OXk.k.|.OXg.OX>Xk.g.T.d.T.k.k.6X",
"h.{ T x | 9.T / ..4 x l x ..I w.h.^ w.o.h. .j.z q.u.o. .w.q.i.x 9.w.N q.w.N q.p.z o.| ..a. .h.o.o.o.u.q.o.:.a.u.+.+.@.| O.+.u.{ +.l.+.+.a.u.u.a.a.j.u.w.| o.u.w.o.u.:.+.d.h.O.O.6 { w.{ o...+.u.a.u.>.o.^ ^ u.| ^ ^ ^ ^ ^ ^ o.^ o.o.o.^ ..o.O./ o.w. ...h.i.o...{ O.u.o.q.w.{ q.h. .^ ^ x a.+.{ { { { X.X.t.0.X.T x ..0.O.w.w.+.I | { +.-.+.@.| X.{ ..{ 4 | x w.| { | t.6 O.| I O.= I } +.I 6 } R I r.I = U L S Q 2 Q K V C 7.P P 3 S ~ V C V E P E ~ K V K 3 2 3 * S W H M.Y.G.=XsXsX=XsXxXxXsXnXxXxXxXxXsXnXnXnXxXxXmXxXJXdXdXdXjXjXsXsXjXdXdXjXdXdXnXdXjXxXcXdXnXcXnXJXcXvXnXhX=XhX-X-XhX-XdX;XdXG.;XG.=XG.C.-XC.(.=X=XdX-X=XsXjXhXdXdXsXxX).xXxXgX].xXxXnXxX).xXxXxXdXxXbXxXxX].H.xXxXmX].].xXxX].].sX].=XsX].sX=X).H.sXG.G.H.V.C.S.V.V.S.S.S.M.N.M.H M.N.G W W Z D A A P - L 2 2 1 i > u ; p O , u ; O O j i s O ; # i @ . r   e.  ; : T y y 5.# u s b   w o m T 0 #   5.t   X 8 + + a + d y @ + b w # 5.@ y M   r : : . e . : % 4 w.w.| u.7 o.>.o.k.~.j.j.{ ^ d.@.) ) ( 6 { ~.:.p.!.:.a.R.d.,.<XW.:.>.d.~.R.!.!.d.^.d.!.Q.d.h.u.d.j.u.d.^.:.wXu.!.d.!.h.!.p.p.^.!.^.^.!.!.p.!.!.^.!.!.!.!.!.!.!.p.^.!.!.!.!.!.!.^.wX!.wX^.<X!.<XQ.<X!.XX4XW.<XW.,X<X X<XXX0X0XwX@XW.Q.%X@X5X6X1X+X.X{.%X{.g.1.R.g.3X|.oX.Xg.%X1X+XoXP..X+Xg.{. Xg.{.F.+Xg.oX|.1X|.s. X$X{.g.g.1.1X@X6XT.{.OXg.P.k.|.P.T.f.OXg.1.|.d.P.P.OXk..XP.W.f.g.{.f.",
"0.T 6 0.x 4 6 T ..z w...z x & q.h...^ ..u.u.h.z j. .q.o.w.x / w.z.9.z.i. .q.x ....B j.4 u. .| ^ o.o.:.u.u.o.+.u.a.+.| +.+.O.-.-.:.w.@.| :.+.a.w.a.w.O.+.u.o.w.u.o.a.a.:.u.+.{ O.^ | O.{ O.o.| o.:.d.u.a.:.:.h.q.( |  .o.| ^ o. .o.o.{ i.O.w.x { 0.| | 0.h.M x { +.+.w.{  .w./  . ./ { { ) +.+.,.{ @.O.O...w...T 0.x X.O.X.O.| X.6 D 7 { X.+.+.{ O.t.t.w.^ l.0.w.f ..w.x ..x O.{ l.7 & l.t.O.*.} I 6 X.A * L L L *.3 P S E P Q * P C S P ! E ~ K ~ Q E E K 2 2 2 3 * A W ! $.Y.G.=X].].).sXsX].].xXdXdXxXdXmXxXmXjXnXnXxXdXnX].dXjXjXcXcXjXnXjXdXnXjXmXgXdXcXnXsXvXcXCXdXmXjX-XfXVXhXhXdX=X=X*X-X-X=X=X=X*X;X*XD.mX*X*X=X*X;X-X).hXdXdXcXnX).xXsXnXxXsXdXdX).sXdXgXH.).xXnXxXxXbXdXnXgXxXxXxXxXdXdXsXdXxXdXsX].sX=X=X=X=XY.Y.H.S.C.Y.=XD.S.M.V.M.M.$.$.&.' $.&.G #.H G S A A D V 2 V p 2 2 > ; ; ; ; i k ; s O u j y O   e.r # e.b ; Y r ; j n   w O 5.  b s # b w j y   @ $ @ @ @ + 9 o 9 y X w u e @ # . # 9.#   l o O O f f l O & O x ..0.x ^ +.) u.d.a.j.j.@.u.p.p.( q.p.>.) { u.qXd.qX!.j.k.7Xj.j.!.Q.~.!.u.u.u.!.j.!.u.!.~.k.<X<Xj.d.h.j.~.j.wXi.^.j.~.j.!.!.^.^.^.!.!.^.wXwX^.!.!.!.!.!.!.!.!.!.!.wX!.!.!.!.wXp.!.^.!.!.!.~.E.>XQ.4X>X<X9XXX4X X2X4XXX,XR.#X#X@X@X#X@XwX,X6X,X3X1X.X{.%X}.3X1XeXoX5XP..X$XP.+XP.P.OX.X+XOX|.W.P.{.+X{.OXP..Xs.f.k.g.f. X.X{.P.g.g.P.d.,.1.P.g.OX,X$X+X+Xg.+Xf.P.oXP.1XoX1X$X1X1X2X6XoX2X5X",
"w.T T h.T x T | ..x 0.4 x z.x x w.w.w.w.M w.u.( h.^ q. .q./ x i.^.9.e.w. .9.h.i.u.( w.w.a.u.o.4 h.u.+.o.a.o. .{ o.{ 6 { { { @.| a.@.{ @.+.u.a.u.~.l.u.j.k.u.w.u.u.d.j.a.a.O.{ | O.t.w.o.+.u. .o.o.:.:.o.+.u.o.^ ^  .^ o... .+. .o.o.{ +.| w.| o.....e.O.0.{ |  .o.O.| z ^ | z  .o.....o.@.w.} +.{ | | I { t.0.0.X.x ..0.| { { X.-.O.{ X.t.a.s.t.I | 0.o.M w.{ | | ..O.O.X...X.= w.{ & +.*.t.| I X.I t.X.5 U U 2 r.P U P V V E V 3 C V K V ~ V C V E E Q E 2 2 3 A 3 - S $.N.S.S.J.).=X].xXsXsXsXxX].xXxXxXxXxXxXxXmXnXxXdXnXxXxXzXsXjXbXxXcXjXmXxXY.).G.jXdXjXY.jXdXdXnXnXNXjXdXJXvX-X-X=X-XhXhXdX*X=XG.G.Y.G.C.*X*XD.*X=X=XmXdX(.dX-X).dXxXnX).).).sXxXxXxXxXxXnXnXxXxXnXxXdXbX=XjXsXgXdXdXsX=XdXxXdXdXdXgXsXsX].=XsXG.G.G.G.G.C.G.G.v.V.M.M.&.] &.$.&.$.` $.H W F F A C A A 2 2 A i 3 > ; > p ; > O p . Y ; O > . s   6.. O b   j o w $ y w > y u y O # 8 8 5.u u b   t t   o @ @ w X 0 w   8 $ + # o d   M . # n : % < m k n . & f q.M ....| 4 ( ) B ^ ) B @.o.( :.q.( :.q.^ o.) j.d.h.>.!.,.| u.j.j.a.@.o.d.<X^.!.>.d.u.>.o.u.o.u.:.j.~.!.wXp.!.u.!.j.j.!.j.p.^.^.^.!.p.^.^.!.!.!.!.!.!.^.^.!.^.^.!.!.!.!.!.!.wX!.!.^.!.^.!.<X!.Q.j.<XQ.Q.E.#X,XW.@X9X<X6XXX XW.#XaX,X@X,X@X>X|.|.OX.X{.{.E..X.X6X.X6Xg.{.OXP.6X|.+XP.6X6XoX4X@Xg..X.XP.OXP.P.d.d.k.f.g.OX@Xk.f.+Xs.P.g.s.oXoXP.OXP.g.g.|.1.L.|.oX4X,X1XOXP.P.|.OXOX|.g.|.k.",
"h.x h.{ T ....x 0...| x x e.f q.x | | w.{ i.u. .q.( i. .w.z.w. .i.q.^  .w.z q.z o.q.4 h.^ ..k.h.o.u.+.^ j.i.a.h.{ | { | ^ @.+.| a.@.+.,.+.+.a.a.j.+.o.u.h.w.o.o.@.o.+.:.d.a.:.t.+.d.+.w.u.a. .+.o.u.:.@.o.o.o.......^ ^ / o.w.o.u.o.o.^ ^ o.| o.....| .. .9.e.q.| O.w..... ...i.h.i.{ | | +.{ +.+.@.X.{ I O...X.T x 0.w.| I { w.| +.| | | | 0.w.| { ..O...| x | w.| { w.4 4 w.w.I I I 5 { X.5 I w.5 2 = - X.r.S A V E P V V Q Q C P W Q K P ~ K K V K V E p 3 * 2 V V A #.N.S.C.J.H.H.sXsXdXdXxXxX).nXY.xXsXxXdXdXsXdXxX=XxXsXdXnXsX].fXdXdXhXsXjXsXnXxXnX=XxXjXdXvXcXnXnX-XcX-X-XhX-XdX=XhX=XD.G.Z.*XG.(.-X*XG.=X-XG.Z.=X*X=X(.G.-XdXnXxXJ.].sXxXxXxX).xXdXxXdXdXxXxX].xXxXnXnXdXxXdXxXxX].dXxXxXdXdXsX].sXsX].H.J.=XH.G.G.G.S.G.D.A.m.D.M.M.M.M.M.$.$.;.H $.` F A F S Z D - V 2 2 ; 2 p * ; Y p u . r . j : ; u : 6.i > s b ; . y .   w ; % u # p w 5.; m # ; m   m : d w # + X 9 w   c # 0 t 9   X t 3.  d w O e O . : r : r % o   g T q.^ ..^ ) i.O.^ ^ :.( ( z o.o.) ( p.o.u.u.u.o.a.h.^.z.d.!.u.!.<X~.!.!.d.d.j.^.<X!.p.!.^.d.!.j.~.!.p.~.j.j.!.!.^.^.^.!.^.^.^.^.wX^.^.!.p.!.^.^.wX^.^.!.Q.^.!.!.!.!.!.^.!.!.!.!.wX!.wX^.qX^.<X>X4X<XQ.Q.9XwXQ.XX,XQ.Q.E.0X#XaXwXwX<X4X4XyX9X3X5XeX$X%XrX8X5XeXtXiXyXyXyX>X1X@XqX|.6X1XXX4X6X{.1X.XP..X1Xa.f.d.a.a.f.k.g.,.s.|.,.|.|.g.6X@Xg.g.g.g.f.6XoXd.OX+X5X1X6X>Xg.<X6X,X6X6XOX>XXX",
"l.l t.k x | M f 9...f x f o.x X.|  .o.w.q.u.w. .( o.q...i.h.h./ 9./ q.q.w. . . .a.x o.h.o.{  .x +.a.j.o.u.| | a.u.:.| :.| +.w.:.a.@.+.a.@.o.d.d.a.a.u.d.k.d.h.u.a.u.-.a.a.+.@.+.{ a.o.:.o.w.^ o.o.u.u.o.o.+.o.q.o. .{ o.o.o.w.o.u.^ { o.o...x ..| x ^ ..0./  .o.x { ..^ ....M w.4 M x o...w.+.k.@.{ +.X.+...k x I T O.r.w.{ { t.{ +.X.@.O.X.+.O.w...x { { 9...T x ..l x | l w.l.7 5 { { 6 U I | A L I I L L V . P K V V C V ~ E * V ~ E V V V V K 3 3 * L Y 3 * * L S S H $.B.S.Y.=X=X).].sXdXdXxX].xXsXdXdXsXdXsXmXnXnXdXnXnXxXZXxXjXxXjXkXcXdXH.H.jXG.dXdXxXsXcXmXCX(.vXnXVXhXsXjX-XdX(.dXdXdX=X(.-X=XY.=XH.C.G.D.C.V.=XsX).=XhXcXsX=XdXdXnXxXxXdXxX].nXdXxXxXsXdXxX].xXdXdXxXsXxXdXsXdXdXdX=XxXdXsXsXsX].G.G.).).dX=X=X=X=XD.S.G.G.V.S.m.] A.S.&.H $.N.` #.F F Z F A A A 2 2 L 5 2 Y E s ; Y r r u h ; . # i . u ; O ; O @ s y # i y # ; n y O @ 5.w # 5.@ # 5.# r   m @ e $   d 0 o m   3.v o t $ $ e + m w $ % : : j d f k % 4 f f q.M { w.j.p.u.z z ^  ... .N / / q.^ z ( z 4 j.^ 6 o.j.u.o.!.j.^.wXj.d.d.o.u.!.!.!.p.p.d.p.d.!.p.d.!.p.~.!.p.!.!.j.i.^.!.^.^.p.p.^.!.^.!.^.!.p.!.!.^.^.!.!.^.^.^.^.wX^.^.!.wX!.!.^.^.^.!.!.d.j.k.Q.Q.Q.~.Q.Q.f.Q.,X<X<X4XaXQ.Q.XXoXXX,X,XOX6X4X4X XE..X0XoXoX|.g.OX{.|.XX6XOXQ.qX>XqXQ.f.k.!.d..XP.|.OXP.l.>Xk.j.k.d.Q.k.f.T.XXf.k.,Xg.oX5XR.OXoXoXg.f.g.d.oXf.XXf.OX,XQ.>XQ.k.W.>Xk.>Xk.",
"z.0.w.9.T ^ { x 4 { ..M 4 9.0.o.h.O.O.u.w.w.o.o.q.w. .q.w...w.q./ B q.w.z  .w.h.i.& x 4 ^ ..a.u.q.o...o.u.u.+.j.h.+.{ w.+.{ +.a.a.@.@.@.{ +.a.d.u.a.u.a.u.u.u.>.@.+.a.d.a.-.s.k.{ a.+.a.| :.o.>.:.:.u.>.o.o.o.o.>.+.o.q.O.q.u.o.o.^ ^ o...t.x { x I  ... .x ....| o.^ ..q.....q...q.w.w.{ w.6 { +.{ | @.w.X.x X...x I | X.O.{ | { } I 6 { { { D | { | 0.....| w.h.w.6 { X.w.O.I & O.L X.L I I I 5 T I I 5 L R Q *.P - V V V K V 3 C V P V V K K V 3 K 3 K R ; > 2 3 2 A W $.M.C.J.).J.].dXdXsXdXdXsXxXsXxXxXdXxXxXxXnXxXxXxXdXgXjXgXdXdXdXsXhX).sXsXdX].cXxXnXmXdXnXJXbXfXvXjXkXvXnXVXcX(.H.H.G.Z.H.G.=XG.=XG.D.=XD.G.n.Y.=XH.G.G.hXdXcXsX).=X].].sXgXsXxXdXH.H.xXmXxX=XnXxXxXdXdXxXdX].dXxXxX].dX=XsXdXsXG.].sX=X=X=XJ.Z.G.Y.V.S.Y.V.] ] V.M.M.A.' M.$.$.H H H #.S U S Z V 5 Z 3 2 ; = > ; u i > . > n p . u p ; p u u 5.; s Y u . Y 0.# : s 6.8 ; m b s ; 8 ; : d d   5.@ @ w X m 0 t c   M 0   e 9 o o o r o o : j % % o % e <     . e...x / 4 B z / / 9.w.z.z.q.z.i.i.(  .q. .z ^ z w.w.{ / :.u.o.^ { ) ( u.i.!.u.( o.E.!.!.p.j.!.p.i.j.p.!.!.p.!.!.!.z.^.i.p.^.^.p.^.p.p.p.!.p.p.p.p.^.^.^.wXwXwX^.^.^.^.!.!.!.!.!.^.p.!.p.k.j.!.!.!.~.Q.,X<X>XQ.Q.>X>XQ.E.@XQ.Q.Q.W.Q.>XXXXX<XXX4X$X#X.X@X$X2X2X#XXX X@X4X4XXXQ.<X~.<Xk.k.~.k.:.a.f.k.k.d.u.k.u.u.j.+.+.d.d.k.a.,.a.k.@.a.k.a.g.XX6XR.|.|.R.1Xg.P.f.W.W.E.>Xk.l.z.>XQ.k.j.",
"a.0.w.9.T M ^ T  .l x T T w.| x ..l z ..u.h.q. .w.p.q.w.u...i.w.w.q.q.z. . .q.w.j. .w.a.u. .z.k.u.u.{ u.w.a.O.o.d.o.o.u.+.{ +.d.,.@.+.+.+.a.a.a.j.k.a.a.:.o.:.+.+.-.,.,.@.@.-.a.@.a.a.l.@.a.:.:.d.o.d.a.:.:.o.+.q.u.+.O.o.o.u.o.o.@.^ ^ x j.| { x | w.x .... . ...{ x { o...x ^ q.9.x { 6 a.w.a.a.@.X.{ X.{ I X.| I x 6 X.| I { X.O.{ I | { { x x x { o.{ f x | h.a...| 7 ..o.{ . 0.x D | | 4 L I X.1 5 *.R L 3 V V K S ~ K V K 3 V V P P K P V 3 2 K 2 p Y 3 p 2 3 3 V W $.&.M.B.J.sXdXdXdXdXdXsXdXxX=XxXdXxXdXdXsXdXxXnXxXxXxXjXxXxXxXxXdXjXsXsXsXsXsXsXH.sXxXH.nX=XnXcXnXhXnXjXjXcXdX*XdXdXvXG.G.G.G.H.J.G.C.H.C.G.J.=XH.=XdXsXdX).jXbXgXgXxXsXxXxXsXdXnXxXxXxXxXxXdXdXxXmX].jXdXsXsXxX].dXsXdXsXsX=X).=XsXsXY.sXY.H.Z.G.D.C.D.G.M.' ' D.S.N.$.J L.$.` F H #.#.U F D A 2 A 2 A 2 2 ; > p L Y h O . p Y ; j Y . p > E Y ; Y ; n u : Y u y   j b Y # n @   u n   n 3.o b 9 # 9 # d X v + 8 t X + X @ + 9   w $ @ r 5.: < % < , % . % < / f N w.M 4 N 9.& N 9.i.q.f / / f 4 / / i.q.( j.^ & q.u.) ( d.o.j.( ( >.>.( u.p.p.z ^ u.:.>.( o.p.>.( p.8.8.p.p.p.p.8.p.8.p.p.p.p.p.p.p.p.p.p.p.p.!.!.^.!.!.!.!.p.!.!.p.p.!.!.!.^.^.^.^.!.!.~.Q.!.!.!.Q.Q.Q.!.Q.<X<XQ.Q.wXwXwX<X^.<X7X<X!.4XXX,X,X<X XR.g. XoXXX@XXXXX<X>X~.!.!.!.Q.h.!.wX^.a.d.k.g.k.k.d.z.q.p.j.u.+.d.j.a.u.a.d.k.,.a.T.Q.>XW.>XR.W.|.W.9XW.,X1X>XQ.W.7X>X~.7X>Xz.k.j.",
"q.M l.4 {  .T ..f f w.x 4 w...4 x { w.a.w.i. .| ^ q.q. .w.q.w.M q.w.x  . .i.w.z.j.z ^ z h.| h.^ ^ i.h.z.w.k.w.x O...@.O.+.| t.u.+.+.d.a.+.d.:.a.d.j.a.a.u.u.a.d.+.,.a.,.+.@.a.a.@.@.u.d.{ o.:.o.a.^ u.a.+.u.+.:.o.w.+.o.{ | u.a.u.^ o.{ +.w...x O.| ..x w.^ ..q...o...o.w. . .0.x ..| w.x t.O.| w.{ { I X.| w.t.X...I x { +.{ | @.w.@.{ X.| X.| { X.| X.t.t.w.4 4 4 I z h.| T { = 7 | T t.I 5 X.h 0.5 h R L V 3 ~ P E V K C V E C V P K P V E K 3 K p K 2 E p p * 2 A A Z ! B.S.Y.=XJ.=X].sXsX].xXxXxXdX].dXdXdXsXdXxXdXmXnXxXxXkXzXdXgXgXsXgXdXsXsX=X].sXnXxXxXhXZXVX-XjXkXdXJXsX=XhX=X=XhX=XG.`.H.G.Z.G.S.dXG.G.G.Y.H.G.n.Y.=X=XjX=XjXsX).sXdXxXsXsX].nXxXxXnXmXxXxXdXmXxXxX=XxXmXdXdXmX].dXdXdXdX].).sXsX).J.G.H.G.=XY.G.C.S.N.V.&.V.' M.&.&.M.G N.H ` $.H G H U A U S Z A - 5 < 3 2 > * ; , 6.p . p r O p Y * s . 5.p . s ; p   O n O > y 6.; b y s w s u w o b b o o c 0 @ o w   3.  3.+   b o 9 # t   3.m   X n o e : e f f O & e f f x 9.N / x  .z q./ N & B z / 8.q.^ f h.N q.B z B w./ ( 4 o.^ i.>.p.p.o.p.d.o.j.p.j.p.p.p.p.( p.p.p.o.p.8.8.p.8.8.8.p.p.p.8.8.p.8.p.p.p.p.p.p.p.!.p.p.p.p.p.!.!.^.^.^.^.^.!.!.p.^.^.^.j.j.~.~.~.Q.!.Q.<XQ.!.k.<XwX~.~.Q.<X<X<X<X7XqX7Xk.qX7X<XW.W.W.@X XoXR.R.XX,XXX>XQ.j.j.>.d.!.p.p.^.d.u.l.OXa.s.j.k.7Xp.u.z.p.i.u.u.O.+.u.l.+.a.u.:.W.Q.d.Q.k.R.W.d.#X,.R.XXXX~.Q.Q.>X>X>X>Xz.k.j.",
"l...i.4 x ..M T x 9.h.4 = w.w.x ..| o.w.o. .w. . .q.w./ o.q.i.T w.z.( q.x z.^ i.w.i. .| ..x x w.w.| w.w.w.{ ..w.h.w.^ { j.o.+.| +.a.@.+.:.a.a.a.w.d.+.+.d.d.u.a.a.,.,.s.+.+.a.s.a.| { @.o.:.^ { u.u.+.u.@.u.a.+.>.{ o.^ o.+.j.>.o.{ u.@.+.O.^ { O.| T ..o.^ x ^ {  .+. .|  .x w...I w.t.w.h.O.O.{ +.{ 6 { I { X.w.O.O.| +.X.{ 6 @.| O.I w.+.| { { I w.t.h.I ....M | x 4 w.6 k O.& 7 t.T X.5 I X.5 T I L R 2 2 R K ~ K V V C V ~ 3 P V K P 3 K V p K > p 3 K > p * 3 L L S W M.S.J.Y.=X=X).dXdX=XdXxXdXsXmXxXnXmXxXxXxXxXxXxXxX=XhXzXsXzXsXdX].=X).].dXxX].xXdX=XnXhXnXsXJXjXvXjX=XsX=XH.dXhXdXdXH.=XZ.=XG.C.=XH.Y.Z.=XG.G.v.dXdXdXnXxXsXnXsXsXnXxXdXxX].xXsXdXsXdXdXxXxXxXxXxXdXxXdXdXxX].dXdXxXsXdX=XsX).).).).=X(.Z.D.G.D.D.M.D.S.S.I.&.M.&.&.S.;.H $.#.G F W Z S C A A V A 2 5 2 = p 1 2 . ; 6.; . Y . ; > p b > ; * s 5.* ; @ s p O b ; p b @ Y p # 8 b O @ b o e o d e X X X b   3.X c 0   d % X o X $ b d e   : o $ $ r f f % : % 4 M M N M / f / B 0 / N q.N q.e.N f x B 9.% N  .9.i.4 z ) z ^ ( { ^ ( o.o.o.^ ( q.o.o.q.( ( 8.( 8.8.8.8.p.z ( ( 8.p.( p.8.8.p.( p.8.p.8.p.p.8.8.8.p.p.p.!.8.( p.p.!.^.p.p.!.p.^.^.p.^.p.j.z.^.^.!.!.^.!.!.!.d.!.~.~.Q.!.~.~.wXE.Q.!.qXQ.~.wX>X<X<XQ.~.!.,X XQ.,X~.Q.<X!.>.u.j.p.o.q.!.!.p.~.| u.k.>.+.k.i.!.i.8.w.q.u.q.p.+.^ w.a.| O.a.+.a.+.>X>X!.XX,.E.#XE.Q.E.Q.E.!.>X~.k.k.~.k.a.!.",
"T i.w.x 0.M T w.w.T % % M w.l.4 | O.....w.u.w. . .u.q.u.q.w.w.^ h.z.q.w./ h...../ ..j.i.h.j.w...j.6 u.O.o.O.u.a.O.o.{ +.a.{ | +.+.a.a.a.o.:.a.k.d.k.w.+.u.o.>.u.+.,.@.@.-.-.d.-.{ +.a.a.+.a.>.>.a.:.o.d.:.u.>.o.+.{ >.:.u.+.w.x o.o.o.^ { h...6 O.x  ...o. .^ q.O.u.q.o.O.O.| x w.w.w.h.o.a.u.l.@.+.{ X.+.+.t.t.t.t.+.I X.{ | 6 | @.+.{ O.| { x O.w.| x x | I l ..O.w.x 4 4 6 0.. x 0.6 L x k , 5 T 0.L r.E E Q E ~ Q P ~ V ~ E K E V V P 2 K 2 3 K 3 2 * s ; 2 p ; 2 V S H m.S.Y.J.J.=XY.].dXdXsXdXsX].xXdXdXxXmXxXmXmXxXmXxXxXsXzXgXjX].xXsXxX].dX=XdX].nXxXsX_.hXJXVXCXbXcXjXnXdXjXsX=XH.G.*XH.).G.).G.G.=XH.mXG.Y.G.G.G.Y.dX=XxXmX=XxXxX).xXxXnXnXxXdXxXxXdXnXxXnXmXxXmXdXdXxXdXdXdXdXdXdXdX).sX).sX=XsX).Y.G.*X*XG.G.S.D.V.V.M.M.M.M.A.$.$.&.N.$.$.#.` H S S D A A A - - 2 - 1 2 1 > i > Y > i p > p . . > > . 6.. ; 6.# ; > Y # O 6.b b Y : # u s b ; s 9 o t e $   t X o $ v X M 0 c % X 0 0 9 9   0 9 0 c 9 e e f , : % . e x % % M / B B z f N B z 8.9.i.N w.q.z & x / w./ 9.( z ^ z q.p.z z / o.z B ) z o.o.o.( ( ( p.( ( ( ( ( ( 8.p.p.( 8.( 8.8.8.( 8.8.8.8.p.8.8.8.8.p.8.p.p.p.8.8.p.8.p.p.p.!.^.!.^.^.^.^.^.p.p.^.j.j.!.j.p.p.!.!.^.!.!.Q.<X^.!.k.<X~.^.j.!.!.^.!.k.~.~.<X<X~.Q.Q.Q.#X<X<XE.d.~.Q.p.d.!.!.p.!.!.p.p.^.u.d.l.d.d.k.j.j.i.i.z.i.q.q.q.q.o.w.u.| O.u.+.a.+.k.!.>X<Xd.wXQ.<XQ.aXwXE.!.!.~.~.!.!.u.p.j.",
"| T h.f w.9.N  .M f x 0...X.0.4 w.h.o...w.i.w.o.p.i.q.h.^ ^ q.x o.a.q.q.^ w.q.z w.B w.o.o.w.i.w.w.^ a.h.w.a.j.h.u.O.{ w.+.O.+.o.+.a.a.s.+.a.a.d.u.f.d.k.~.j.a.d.,.,.+.+.:.s.Q.d.@.+.a.:.{ u.o.o.a.+.+.a.+.+.>.u.:.{ o.+.+.o.>.| a.@.( { { w.x { o.{ w.| | o.^ w.u.O.^ +.w.{ w.w.t.| 6 h.w.w.x x +.+._ | +.t.O.+.X.+.-.X.X.O.| 6 I { +.{ | { x I 4 x 6 I 4 O.7 6 ..6 ..T T w.4 . & k 5 5 k 7 5 I 5 k R , P L V V V V E ~ K C V ~ V W V V V 3 V K 3 K > 2 * > 3 p i 3 3 L U W $.N.B.J.Y.J.J.dX=X=XdXmXxXdXxXxXxXmXxXmXxXmXxXdXxXxXdXxXdXxXsXdXdXxX).dX).xXdXsXsXxXbXnXJXJXxXnXjXsXcX=XdXdX).G.=XmXG.).=X=X=XdX=XY.dX=X=XG.C.Y.C.G.mXdXjXdXmXnXH.xXsXxXsX).).xXdX].dXdXxX].mXsXdXdXmXdXdXdXdXdXsXdX=X].=XdX=X].=XJ.Z.Z.(.C.D.V.S.V.S.V.M.M.&.S.N.&.$.$.$.#.$.=.H U G U S D A 7 A V 2 2 < * * > . ; p . . > > i p ; > . ; i . 6.# ; i b . 6.i ; j 5.  s ; u b ; p w t d o %   3.o o $ c 0 0 0 t + X % f $ f   m + 0 u 9 X : e j n f b : % : z 9.i./ % z q.8.% % / q.i.x / N  .z.z. .w.o.q.i./ / z z ) u.i.o.w.p.j.i.q.q.( ^ ( o.q.q.p.p.8.( ( ( 8.8.8.( 8.8.8.p.p.p.8.p.8.p.p.p.p.8.p.p.8.8.p.8.8.8.( ( p.( ( p.p.p.p.p.p.!.p.^.p.^.!.!.i.i.p.!.!.!.!.!.j.!.!.^.!.j.!.!.~.!.!.j.^.i.i.!.!.!.Q.!.!.!.d.f.d.d.:.>.u.j.j.p.:.p.p.!.p.p.p.!.o.:.d.k.Q.k.p.i.i.z.x.p.q.p.q.u. .o...^ | w.a.a.u.:.>.~.^.~.Q.E.Q.!.Q.Q.E.>.>.a.!.!.j.j.i.p.",
"h.4 h.< e...M n z $ T w.l ....| | w.| ^ .. .q.q.x o. .q.x w.z.i.z i.u.w.q.w.u./ h.6 x w. .w.w.h...z.^ h.w.w.w.O.O.{ ^ { { o.o.{ +.@.O.+.+.u.:.{ +.+.o.u.j.:.o.+.:.a.,.>.+.,.T.Q.@.@.| +.o.>.@.u.w.+.:.u.+.@.+.a.u.:.a.,.o.{ { ^ +.u.a.{ { a.+... .| w.o. ...x o.+.^ { O.{ ^ a.T.w.O.| l.| X.O.l.a.t.{ { { X.I { O.I O.O.@.{ | 6 { | +.| O.+.@.O.| I x I 4 t.x | T x o.....t.| I & I l 4 4 T h I T 5 L L R E 2 Q E V E ~ V V V C C P K V V 3 2 L > 2 2 p 3 p 3 ; . > 2 V S W &.B.B.Y.J.Y.J.=X=X=X].].sX=XmXdXdXnXdXxXmXxXmXsXgXsX].gX].sX=X].=X=XB.xXH.).dXmXxXnXdXdXdXnX=XCXnXhXnXgXmX=XY.dX=XG.G.G.G.Y.Y.=XY.S.Y.D.Y.Y.S.G.C.H.jXdXxXxXdXnX].dXxXxXsX).xXdXxXsXdXdXxXdXnXxXnXxXsXdXxXdXdXsX=XsX=XdX).=X=X=X=X=X(.G.D.C.G.S.G.S.A.A.S.N.' &.$.$.#.` W H #.W S #.Z A Z A Z 2 - - = 2 = = < Y > 2 L * ; L . . > > p O ; u . 6.: . h s # 6.w   Y s ; 5.; s s 8 # # m e t t o 5.o t o 9 v   X + % X X +   X X 4.X v v b   $ $ 4 f k % o o 4   % e.e./ z 5./ f N N N % & 9.w. .z z z w.( f z z  .w. .B B ^ ^ 9.z ^ ( 9.q.p. .u.q.( o.( 8.( ( 8.8.8.p.p.p.p.8.8.8.p.N 8.8.8.8.p.8.8.8.8.8.( 8.8.8.8.p.p.p.( ( p.8.8.( 8.8.p.p.^.p.p.p.p.p.p.p.p.p.!.p.p.d.d.j.j.!.!.!.!.j.d.p.u.p.!.!.j.!.k.j.!.d.!.Q.>XQ.d.!.d.j.!.!.p.!.!.p.8.8.p.^.p.u.o.u.f.k.k.k.u.u.i.i.p.i.q.w.i.p.o.q.w.O.O.w.o.w.h.j.u.j.d.j.~.E.wXQ.^.!.!.!.d.p.u.u.p.p.p.8.",
"w.x q.x 0.4 0.e.k f 9.w.x 0.x 4 O.| o.w.o.q.j.h. .w.i.w.9. .z.w.z h.u.o.h.w.p.w.j.p.x ^ w.i.l.h.w.7Xx | O. .| { w.o.a.h.w.O.o.@.h.@.| o.| :.a.O.:.o.o.d.k.d.u.j.k.d.a.a.:.@.+.+.a.+.+.a.u.:.o.o.+.u.a.a.a.:.@.{ +.>.@.{ | u.d.u.:.{ >.+.a.{ | a.{ w.O.O.o.^ / ^ { { u.| x O.a.h.| 6 | { x ..{ t.| { 6 { X.-.+.+.t.X.X.O.| X.+.| @.O.O.| X.+.O.+.{ I | | O.z.T 4 | w.0.z x 4 I 9.l T X.g k r.1 g I 1 3 L Y E 3 E 7.K Q K V ~ ~ K V P K V V K 3 K 3 3 3 2 3 3 3 ; ; p 2 V P H m.c.B.J.Y.).J.].=XJ.dX=XdXdXmXdXxXxXmXxXmXxXxXdXsX].sXxXgXgXsXdX=X].J.].).xXnXmXdXnXgXjXnXnX].dXxX-XdXdXsXG.dXmX=X=XG.G.Z.Y.Y.G.Y.D.*XY.Y.Y.Y.Y.G.S.G.jXvXdXdXnXxX].sX).dXdXxXsXsXsXdXdXxXdXmXdXdXsX].sXdXdXsXG.G.=X=X-X=X-X).=X=XY.Z.D.Z.V.D.M.S.V.&.m.A.&.' &.N.A.$.$.#.$.=.#.H W U U D S D L I L L L h h 2 > . < i ; i ; L . ; , p   y.  . n j O u n . b j # s s m ; w Y s s u u d X % X   9.X o 0   v q   % q % 0 % $ + 8 v + a b 3.9 s , : f j $ f f N o % / N N & z / 5./ z f z z ^ B 4 ^ ..4 z N 4 z z ( o. .q. . .x ^ x /  .h.q...^ q.8.e.i.( p.( z 8.8.N 8.8.8.8.p.8.p.8.( p.8.8.p.p.8.p.8.8.8.( 8.8.8.8.8.8.( ( ( 8.p.8.p.8.8.8.p.8.!.p.i.i.i.!.!.!.!.^.!.p.d.p.!.!.!.!.!.i.d.j.!.j.p.!.j.j.!.p.!.p.!.!.!.j.j.:.a.j.d.j.j.p.!.p.p.8.8.8.!.o.p.d.Q.k.k.d.k.d.u.q.q.p.i.q.q.u.q.q.u.h.w.w.h.u.w.w.w.o.i.u.j.!.:.~.!.E.p.p.p.j.p.p.>.8.p.p.q.",
"o.O.M x  .f M h.f M l f 4 X.h.o.w.x ..w.o.O.z.w.o. .w.q.q./ i.w.^ i.^ z i. .o.w.x  . . .z...i.w.9.w.w...o.| w.w.w.o.w.O.w.o.| o.O.{ @.| { ) o.+.^ { o.a.u.u.j.j.>.@.@.a.d.:.a.a.+.a.:.a.+.+.:.+.w.u.a.+.d.u.>.{ { >.>.:.a.d.@.7 { { u.^ w.| w.{ { w...w.w.o.w.o.o.{ :.@.@.a.t.t.t.6 O.I +.a.| ^ a.@.+.X.+.| { D +.{ @.+.O.{ X.{ O.O.X.{ O.w.| O.| | X.x l { I I 4 x x 7 | 4 x w.w.l k 6 k w.= g T 0.1 Y 2 R V V ~ V Q ~ 3 K ~ ~ ~ E V C C E 3 V 2 > 3 3 p p 2 ; j p * 2 S ~ ! c.B.J.J.J.B.=X).=XdX].dXsXdXxXdXmXxXxXxXdXdXxXsXsXdXxXdXsXdXxXxXsX).xXdXJ.H.=XxXnXdXcXCXnXhXxXnXgXdXkXjXdXsX=XH.=XG.(.D.=X*XG.=XY.Y.=XY.S.G.M.V.V.H.jXxXjXmXxXnX).sXxXgXxXsXxXdXxXxXxXnXxXxXxXxXxXdXxXxXdX].).].).=X-X=X-XH.).G.H.D.G.*XG.D.M.D.A.I.V.S.;.&.$.$.&.#.&.#.H H #.#.S A Z 2 Z Z - A 2 = * & 3 < i ; h > * * * i l Y u r : e.O # % j # s p > j p . p > p # s u m s p u j e o o X x.9 X m   + 3.+ 0 0 0 % # 9 X + X X 8 t b 9 0 e e j 9.f e o f % 4 % & f B z z z f 4 N O.x x 4 z 4 & B &  ...o.o.( z B x B / w.w.N z M  . .9.9.h.9.q.8.( p.8.( 8.8.8.x.8.8.8.8.8.8.8.N 8.8.8.8.p.8.8.8.p.8.p.8.p.8.8.8.8.8.8.8.p.8.8.p.8.8.8.8.8.i.8.p.p.p.p.p.p.i.p.!.p.!.!.p.d.p.p.d.j.i.p.q.p.p.!.j.!.j.!.!.!.p.p.!.j.d.>.d.~.!.j.p.p.p.8.8.!.p.8.( ( p.d.d.d.k.f.d.i.>.p.p.q.q. .q.w.q...q.w. .w.l.w.| 0.h.p.j.q.u.j.u.!.j.!.p.i.p.( o.p.p.q.p.p.p.",
"| 0.^ f ..N f e...9.M M ..X...= w.| O.u.w.q.a.o.p.q.i.q. ./ { / ^ w.^ / h.q.o.u... .| x i.4 e.z...| z.{ h.| u.u.j.| +.^ a.o.o.+.O.O.a.t.a.@.u.a.a.w.{ o.o.@.u.d.u.:.:.u.>.{ { x { u.o.u.+.u.i.j.u.a.u.@.u.>.u.,.+.,.@.o.+.a.@.^ o.6 ..| t.{ O.O.{ w. .w.p.w.w.o.o.) { u.h.a.+.s.t.{ O.{ { w.w.a.@.6 +.} -.@.@.X.X.+.-.O.t.-.+.| +.+.| +.O.+.| +.I | X.| I x 4 l ..0.9.x ..l 5 T O.x T , , w.I < g 0.= h 3 R E V E V E ~ C ~ ~ E ~ ~ V C V E 3 K 2 3 3 p K K K K 3 p . 2 S C c.c.B.J.B.Y.B.).J.=XdX].xXdXdXmXdXdXxXdXdXsXdXxX].sXsXdXsX).=XsXsX=XY.J.).dXxXxXxXxXjXcXjXjXjXjXnXjXdXdXdXdXG.G.H.G.Z.C.C.Z.S.D.G.S.C.S.S.S.V.M.M.G.G.hXmXxXxXdXnX).xXxXdXxX].xXdXxXsXdXsXdXdXdXdXsXxXsXxXsX).sXsXsX(.-X).-X(.G.H.H.Z.D.D.D.C.] V.M.M.[ ` ' &.&.N.N.&.L.$.=.W *.L.W D D A A A 2 A 5 L 5 < = > k ; < p ; ; Y   1 g ; g j   M % % ,   n . O j s : p   b s b O 5.O u     t o o   v e X 3.q   e.q N % t N 0 t 9 t 0 0 0 t t u # % % $ M o : % k % %   z i.e.q.N 9.8./  ...{ ^ 4 ^ .. ./ ^ q.z 4 ^ q.z  .e. .T f N e.z.....e.9.q.w.N q.q.( p.i.8.8.p.x.p.8.8.8.p.p.x.p.8.8.( 8.( p.8.8.p.8.( 8.( 8.p.!.p.p.8.p.p.8.p.p.p.8.8.8.8.8.^.8.p.8.p.p.!.i.!.!.^.!.!.d.!.j.j.j.p.!.!.z.^.j.!.!.p.j.p.p.p.p.!.>.p.j.d.q.p.^.~.p.p.p.p.!.p.!.p.p.p.u.u.o.+.1.Q.d.a.u.o.z.p.q.8.( q.j.i. . .o...x.T.h.w. .o. .i.u.p.p.p.p.p.j.8.p.8.( 8.p.p.p.p.8.8.",
"..o...I x., z.M f j ..T w.0.M I I ..o.O. . .o.(  .q.h.w.q.h. ...^ .. .u.a. .^ q.o./ x 4 x ..o.q.h.>Xw.x ~.|  .{ O.x o.6 u.x ^ +.+.^ { | u.| | o.+.{ ) o.:.u.:.@.u.d.u.d.+.+.a.,.a.a.+.k.a.+.+.o.@.a.j.:.a.{ @.d.d.j.>.+.o.:.+.>.{ o.+.{ @.| w.w.w.u.w.o.w.w.o. .^ >.{ +.d.a.a.a.a.-.| w.+.+.O.o.l.| l.@.t.{ @.@.6 D { 7 x { { 6 | @.{ { { | 6 { = x 7 4 x a.t.x w.| w.0.w.h.x 4 T l 0...L T h < Y r.1 1 < P E 3 E 3 ~ K K ~ ~ E E E P ~ C E * 2 2 2 > 3 3 s p K . Y i 2 A C c.B.c.B.J.Y.J.dX=XY.dXJ.dX=XsXxXdXdXmXxXdXdXdXxX].dXsXgXdXsXsX].=X=X].J.dXdXsXmXmXdXxXnXjXdXjXhXjXdXjX=XG.G.C.Y.H.m.C.v.D.v.M.I.V.N.S.N.N.A.S.D.' S.C.dXdXdXdXxXxXdXnXxXxXxXdX].dXxXsXxXsXxXsXxX].).dX).sX=X).sXdX-X(.).G.(.(.(.(.G.(.'.V.C.S.V.V.M.A.' &.$.' H ` $.F #.H =.W F =.A A S A S A 2 A 5 2 A p 2 3 g < ; i * * i n g ; . k r . n % M %     : > b p # @ n p   @ Y Y # b $ o d o   t o M o v N X e.  N X t m $   X X 9 t X X + t o e e & k   j n f f  .4 N / q.q.z / f f B o.w.e.O.w.| x { z O.x z o.w.4 ^ x 4  . .x x 9...N 9./ 9.z.q.i.N f z z ^ 8.x.8.N x.x.8.x.p.p.p.8.p.( 8.8.p.p.8.8.8.N 8.( 8.8.8.8.( ( ( 8.8.p.p.( 8.8.8.8.( x.8.q.8.q.p.p.!.i.!.i.p.p.p.p.j.!.p.p.i.!.p.p.p.p.j.q.j.p.>.>.p.!.p.p.p.j.d.!.!.p.p.j.!.!.8.8.p.^.p.p.j.j.d.Q.Q.k.@.>.d.o.i.( 9.i.w.^ q.w. . .w.i.h.h.t.t.w.w.| i.w.o.u.j.p.q.p.( i.q.( 8./ ( q.q.8.i.",
"x ..| | ..n e.e.n M ..4 e.T x a.4 w.x { x z o. .q.u.q.p.u.q.q.o.o.o.u.d.u...{ o./ z f x ..i.0.w.u.j.t.u.z.w.w.t.O.| j.| u.o.{ o.+.+.w.@.x OXa.{ O.a.a.^ :.u.+.{ :.a.:.o.+.:.+.o.>.a.u.:.+.a.+.:.+.u.>.:.>.+.o.d.u.u.o.:.:.+.o.:.+.+.u.{ :.+.{ a.o.+. .{ o.o.w.u.| u.{ o.+.u.+.t.a.{ @.| | { @.| t.+.I O.a.I | 6 t.t.+.X.X.O.+.I | 6 D { { { } { 6 O.0.{ w.h.w.4 w.O.| x f ..x 4 0.T k T x 1 I = X.h h L 5 * r.3 V * ~ K V ~ E ~ ~ Q V ~ 3 V V K * 2 K s p > K s ; * K K P C S $.$.B.S.H.S.H.Y.G.dXdXsXdXdXdXmXdXdXsXmXsXsXdXsXdXdXsX].dXdXxXsX).G.H.G.H.dXdXnXnX-XxXgXlXsXnXjX=X=XG.Y.Y.S.S.S.M.V.' M.M.N.M.S.N.M.I.B.M.M.A.$.' v.dXdX=XcXjXxXgXsXnXgXnXsXxXnXgXdXxXnXdXsXsX].sXdXdXsXdXsXH.dX).G.G.=X=XG.D.(.(.G.D.S.A.I.S.M.I.N.M.S.;.&.&.N.$.#.$.H W N.F W S Z Z U A A 7 - A 2 5 2 h p Y i * * . * T w i Y   u u : n % d j o e f m   # Y w j : y b n w u @ # + 9.  $ @ y o o 9.  % 8 + 8 % X z N   v   0 X X 4.9 d $ r   % k Y , % l % B % &   z N B % z e z  ./ o.w.x 9.| x x x i.4 o.z z z / x 9.w.z 4  ./ M ^ % ^ q.N i.M  .8.9.e.x.i.i.8.8.8.N N p.8.v N 8.N ( p.8.8.( 8.p.z ( / i.z.p.( 8.8.8.8.( p.p.8.( i.q.p.q.i./ p.q.q.q.p.j.j.k.j.i.j.i.z.j.p.p.o.u.p.u.p.q.p.d.q.u.p.>.>.p.p.p.>.u.:.!.u.d.j.q.!.!.p.q.( p.i.p.p.!.d.f.d.j.:.a.u.+.j.^ o.o.u.i.q.^ / u.x O.u.h.0.w.u.w.h.h.9.i.0.q.i.q.q.q.( q.q./ q.z w.p.q.q.u.",
"{ I O.x | f ....T ..% { z.w.g x T l.4 l z { q.o.q.o.o.q.u.q...^ o.o.w.w.q.+.w.o.O.| ..| .. ...o.w.O.{ ..w.{  .u.u.{ w.O.i.{ ^ o.{ { | +.6 w.w.+.O.@.{ +.{ { ^ a.u.+.+.+.u.w.@.o.:.u.a.d.a.+.{ >.,.a.>.d.:.u.+.o.w.+.{ o.+.+.o.) 6 ..^ { o.w.o.u.+.o.u.O.o.o.o.O.) u.@.) x @.u.a.@.@.O.O.6 +.O.t.{ { +.X.{ { +.l.O.+.X.w.O.t.l.+.-.-.s.a.X.@.+.a.+.w.w.| | { w.o.w.4 4 I { x 4 & 4 x & = = R y.  , & , I 1 = U * C * V Q 3 C K ~ E E V V V K K K 3 ; ; 3 Y E b ; Y ; * ; V V P $.$.B.S.S.C.J.G.G.J.).Y.].=X=X].Y.dX].dXsXsXdX].sX).].dX].).).=X=XJ.n.J.n.=XY.mXnXsXgXjXxXfXsX=XsXdXG.G.D.M.$.m.m.&.` M.M.M.N.$.$.H N.$.' &.N.M.M.M.sXhXdXxXjXjXdXsXxXsXnXdXsXxXdXxX).sX].dXgX=XxXdXdXsXsXsXH.sXG.).(.(.=XD.Z.D.S.S.S.C.V.S.S.m.A.$.` M.m.$.H #.$.W H F W y.#.=.W D A A Z A A 2 2 5 2 > * 2 p n p u > i k # ; 5.O b u # O T o % e < # i : O r b   5.y   o w y @   t T   % @ o     t 8   X e v q o v +   B + 0   X 5.c m o w O e , < & g k % & % f M 9.N B z z f 9.w.f x M & B 4 x 6 f ..4 .. .i.z.i.h.z.h.N f  .9. .9. .9.i.l 9.9.q.q.8.( 8.8.8.q.N x.q.p.z.p.8.8.p.8.( 8.8.8.8.q.p.( q./ 8.8.( N 8.( 8.8.8.8.p.q.i.i.q.p.q.i.8.p.q.i.+.u.u.h.^.!.z.!.z.!.!.!.!.!.d.j.!.j.p.j.!.j.>.p.p.p.>.p.p.j.p.>.j.p.p.j.q.p.( q.!.p.( ( q.j.) >.d.j.d.| u.i.i.i.( p.p.p.p.( h.o.o.o.w.o.o.w.| w.0.h.h.0.h.i. .w.(  .q.p.9./ / p.z.i./ q.p.4 ",
"X.{ I x ..x ..T 9.e.f 9.h...4 { k l.x T 6  . .o.p.o.q.u.u.w...| o.:.+.| o.w.o.^ ^ { ..q...o...i.| ^ | | +.{ | a.a.+.u.O.u.w.u.+.+.X.+.a.@.a.+.+.{ ^ | { { 6 +.u.u.+.o.>.u.+.{ @.:.u.a.k.j.d.+.u.:.:.>.u.:.k.j.i.a.O.w.+.d.u.+.| +.d.@.w.o.u.@.o.o. .u.o.^ o.o.u.{ { { { u.u.+.w.o.{ { a.+.a.I 6 a.t.+.O.X.t.O.O.| | X.+.{ { O.{ @.} +.O.+.+.O.a.O.h.a.| ..{ x & 7 & x { f l x g ..t., 5 = 5 t.* h 5 5 X.- h R 2 P P V y.3 V K V ~ K K V V K V V 3 K 2 3 Y 6.> > p ; ; 3 V V S ! m.B.S.S.H.H.G.sXdXdX].dXdXdXmXdXmX=XxX].sXdX].].].xXxX].xXdXdXxX].n.J.n.H.J.dXdXfX_.sXsXdX).G.=XY.V.C.B.' H $.' M.$.' $.$.N.N.N.$.N.$.$.` ' H ' B.dXhXdXxXjXzXzXgXxXjXnXxXsXxXnXxXdXxX].gXsX].sXsX=X).].].J.sXG.=X(.(.*X(.G.D.Z.S.S.S.S.M.M.M.S.&.&.&.N.N.H ;.$.#.H W #.! Z H A P A A A A A 2 2 L * p * L ; p p . h > ; s O ; w u O % w c o : $ j   5.j r o Y   6.b y m m c 0 j b b 9 % d o $ X c 5.+ c 0 % % t v   X % % q     m 9 u   r j b , T : 4 j ..M f z N 8.z f z 0 B / h.B ( i.w.q. .9.M x N z f 4 z 4 z & & f  .w.i./ z / / / e.M  .q.3.q.q.q.i.p.( / ( 8.8.p.p.8.8.8.8.8.( 8.8.p.8.8.i.q.q.q.q.8.q.p.p.p.8.p.8.( ( 8.q.e.( 9.8.p.( 8.o.u.w.q.u.u.j.p.p.p.p.i.p.j.d.j.p.p.j.p.>.i.j.p.( p.o.p.p.p.p.d.p.>.i.j.i.j.p.p.p.p.i.p.p.!.j.p.d.d.d.a.d.o.o.p.u.o. .q.p.i.u.p.p.o.w.w.u.j.w.w.x x w.h.h.9. ...( u.q.u. .i.( ( q.N u. .9.p.i./ ",
"x ..| q.x T M 9.f 9.f x 0.x ..w.t.t.x x 4 w.w.q.i.o.p.q.o.o.^ w.^ +.o.( O.u.o.{ | x x o...w.9.t.+.u.z.u.{ ..{ { ..| u.| O.o.a.o.a.w.@.w.| t.+.| | { :.{ o.{ a.{ o.o.{ { @.+.| ^ { +.a.u.+.d.>.:.>.:.u.u.o.a.a.+.u.o.+.u.u.{ { @.o.u...@.{ a. .| u.o.k.j.o.u.O.w.:.o.i.w.l.O.^ O...I | { I I | +.0.a.I | 6 5 6 7 O.{ U | I O.O.7 { { { 6 I { 7 x 4 7 4 ^ o. ...x w.| h.| 4  .q.x l k 4 T l , r.5 I h l X.* h L V 3 K * P 3 E K ~ K V P K V 3 3 p 3 p 3 s p E . > ; ; p p 2 - C ! $.$.B.M.S.B.C.H.J.Y.J.Y.=XdXsX).xX].dX=X].dX=X].).sX].).xXdX].sXgXJ.b.b.J.B.Y.dXdXsXdXdXdXsX=XG.M.V.S.M.! $.$.J H Z C S C F H $.H =.W $.$.$.H $.v.G.dXsXsXdXjXxXsXxXdXdXdXdXxX).xXsXxXdXdXsXsXdXdXsXsXdXdX].mXsX=X(.(.*X(.G.D.D.V.V.S.V.M.N.N.A.M.N.` $.&.$.N.` W $.=.N.W Z W U Z A P A 5 A A A L 2 L > K * 2 > . p > ; 5.i O u O @ . $ . e % . O : 6.: w j   5.# @ e m c #   m   :   .   e %   3.0   3.    0 d 0 % t X 8 % 0 9 m @ $ # j e : % k , f < f 4 & j B e.3.z N z & % (   x  .9...M 4 % z x w.q. .i./ N ../ / q. . .M 9.9.9.q.q.N / N ( N z B 4.q.8.i.8.8.0 8.8.N N 8.N ( N 8.( 8.( ( 8.8./ q.q.8.p.8.8.8.8.8.8.8.8.p.( q.9.q.q.x.8.p.q.u.a.i.d.d.u.p.o.( q.p.p.p.p.j.p.:.d.p.p.j.j.j.u.p.p.j.!.j.p.p.d.>.p.d.j.!.h.u.>.o.p.o.o.j.!.p.u.a.d.j.~.j.o.u.p.| q.u.p.u.q.i.^ o.w.i.i.z.h.o. .N ..q.i.| e.z. .q.p.p./ e.( q.q.q./  .HXi.z i.",
"..| 0.w.| 9.N M T 9.x g M x g 4 T 4 | ..4 ..z x i.q.u.q.o.w.| i.{ :.>.o.+.O.o.o.w.{ ^ | o.w.0.h.^ { u.O...h.t.O.| x O.u.u.O.o.O.w.+.@.O.| O.+.a.a.+.@.l.@.{ o.{ +.w.+.+.u.:.:.:.:.d.d.a.a.j.:.a.| u.d.j.o.:.+...u.w.+.u.| O.{ | O.^ | x | a.| O.+...h.u. .o.^ x ^ | w.4 | | ..^ O.O...7 I l.k.h.x | I l.+.t.O.t.t.O.+.t.+.a.a.I +.-.t.o.+.| x | O.^ x f 6 x x x w.x ..M 4 z x 6 e.I 6 < h L r.h L 6 R X.g I R p p E 2 V 3 K * K E * P ~ 3 V K K s 2 ; p L 7.* p p i K 2 3 V V H $.M.S.S.S.H.S.Y.=X=X=X=XdXdXmXsXmX).=XdX].sX].sX].xXxX].xXjXdXjXdXG.J.b.b.b.J.sX).sX-X=XY.Y.H.C.B.S.B.' H $.$.S H ~ F W S F ~ =.S W W W W =.W &.S.=XjXvXjXjXgXxXdXnXxXxXjXxXxX].jXH.].sXxXsX).gXsX=XY.).].H.sXH.(.(.(.D.G.Z.D.D.S.V.S.A.M.S.N.A.$.M.H $.$.` $.H #.H S H H F W Z D Z D A A A 5 A L 2 1 2 > ; 3 i h ; u p p ; j s h i u   n O % r O   5.O O O w 9.e @ @ y m w 9 m o d # 5.  e.o X x.%   3.X 0 0 0 % q B X + X f 9 3.w y + d $ % . < , l 4 , &   N f w./ % t N N / i.f  ./ N ^  .{ ..w...i.i.q.w.M 4 w.i.o.M 4 x N z N ..h.9.M q.N 8.q.q.9.8.q.N ( e.p.N 8.p.8.8.8.q.i.8.8.9.p.( q.9.8.z q.( N 8.^ ^ 8.8.( 8.q.8.q./ / / / / q./ 8.w.o.o.>.p.u.:.d.p.q.q.( q.p.u.i.u.o.u.j.u.h.p.j.>.p.q.u.p.( q.p.p.>.u.u.d.p.u.h.p.u.u.p.o.j.^.!.u.d.k.j.<Xh.| :.w.q.i.p.w.p.o.q.o.( o.o.o.w.q.9.u.9.w.x.j.9. .9.q./ o.o.( q. . .q.N ^ q.i.q.o.6 ",
"I | h.| M < l M M M x 0.x x ..0.t.4 0./ & q. .p.h.o.q.o.u.h.w.u.p.h.u.+.o.o.{ o.o.....| ..O.o.w.j.u.u.j.h.k.h.+.l.| w.O.O.+.| w.| | { +.a.O.+.w.a.| { w.| 7 @.+.| { { o.+.{ x { +.+.u.a.u.+.{ u.>.:.u.u.o.a.h.u.a.a.h.w.o.j.+.O.d.{ a.^ +.j.O.w.u.o.a.w.o.O.o. .u.o.O.x u.u.a.O.| j.l.h.{ h.O.t.l.+.{ { 6 O.I w.t.| w.t.X.w.X.{ | | @.| O.a.w.w.O.w. .x N w.9.z ..4 { | I M T M T.9.T & 5 l 0.5 2 < L Y h 5 R 2 3 2 K L P K * 7.7.* K K 3 3 Y 3 3 3 * 3 i Y . > i > > ; 3 K C P ! ! B.M.b.C.C.J.J.=XJ.dX=X=X=X).dX=X].=X].=XsXsXsXsXsX).xXgXxXxXxXxXsXH.J.b.n.J.=X).=X=XsXY.S.S.M.M.&.=.$.! J S W S F W C S S =.P =.H S F ! $.&.S.G.=XsX].sXsXjXdXnXxXxXdXdXdXdXxXsXsX).sXsXG.G.dXsX].dXdX).dXY.(.(.(.(.D.D.C.D.D.S.D.S.S.C.N.V.&.M.' N.N.` ` #.N.=.W $.H S W S U S A A A L 2 2 A p 3 p ; 2 ; ; l ; p h ;   u >   u w ; # % . : r . Y b O o 6.y : O $ $ e @ @ w o . % j % m o o 3.t   e 9 $   X 0 + X % q   + X v e y   w : y : < f . : M k & B   f / z 8./ N M q.f z N z f N M  .9.x 9. .N M B N N x f q.q.w.M x N z e.N z ( f N N 8.q.N / N q.8.i.8.8.8.i.8.8.8.q.8.( z ( N ( q.q.(  .( z q.( 8.8.q.q.q.8.( q.q.q.8.( / 8.(  .w.o.:.j.!.d.:.p.j.p.i.w.q.i.o.>.u.^ :.p.u.u.>.p.u.o.q.>.!.8.!.j.>.:.:.d.j.p.>.p.u.p.o.>.p.h.~.p.~.f.Q.d.^.~.u.w.i.i.j.u./ q.q.i.o.o.u. ./ q.w.q.q.^  .9.q.9.q.i.p.^ ( o.q.q.q.(  .q.M / q.j.h.o.",
"w.x x & ..T T z ..9.9.e.x z w.w.0.4 4 x x j. .x q.o./ o.w.u.w.o.o.o.:.o.o.@.>.o.o.o.o.| ^ | x ^ ^ ^ ^ o.| O.| | h.| w.x ..w.x @.o.| I +.a.@.o.{ O.| @.{ +.7 w.{ +.O.@.u.u.| ^ o.+.+.u.u.+.u.+.a.a.j.u.+.O.u.a.a.O.| w.O.O.h.O.O.a.x w.^ w.h.u.a.+.w.O...^ o.o.w. .O.u.O.w.6 z ..w.a.{ 0.I O.4 X.7 6 w.t.{ w.6 { x D O.X.{ X.O.w.a.O.+.O.O.a.w.| | ....q.q.h.x 4 w.{ ..x ^ ..x & f < 5 < I 5 R h L l I X.I 5 0.L p L L E K 3 * K E 3 3 K K 3 K 3 p K K E L Y 2 L * ; > 2 3 V C S =.J B.N.b.S.S.J.J.=XY.=XY.].=XY.sX=X=XsX=X=XsXsXxX].].].xXjXxXxXdXbXxXsXsXG.J.J.H.C.C.C.G.S.V.M.' $.$.m.=.H G S =.S P S U P W *.S #.S S F =.=.&.Y.G.sXdX].jXgXzXxXxX].dXxXnXxX].=XsXxX].sXdXdXsXdX=X).sX=XJ.dXH.D.(.D.G.(.D.C.S.S.V.A.M.M.M.' N.$.$.$.N.&.$.H $.F $.G W S S W W U A V Z A L 2 2 2 5 1 h ; i * * > i h n u w ; u .   x.: j . 6.: o x.. n O 5.# b # u m w +   w % o   b # m o @ $ + c o f 5.8 X N N q q 0 t + + X m t y   @ o e : : T < ..T k % N ( f 9.% z B z x M N z w.q.M x M M N z M 9.N N z i.9...N q./ ( B N z f x q. .8./ 8.N q.e.N N / q.8.8.p.( p.x.8.8.( 8./ ( ( ^ N 8.8./ z ( q.N p.8.8.( 8.8.8.q.i.i.q.( 9./ / 8.( ( | ^ u.a.j.d.o.^ i.i.z.p.p.p.o.p.i. .p.i.p.h.u.i.o.q.( ( p.8.!.!.( u.u.:.!.u.q.u.j.j.>.q.:.u.j.d.d.>.j.a.~.7Xi. .j.i.p.o.^ p.i.~.q.u.p.q. .h.i. .9./ w.q.i.p.q.9.w.o.q.i.o. .q.q. ./ ..q.o.h.o.z ",
"4 4 ..f z x / 0.M k 4 M 9.M T.g 4 T 4 x f 9.x 9. .w.q.w.u.u.i.O.>.+.u.u.o.o.p.^ ^ {  .| o.u.o.| { a.o.| 6 x O.O.a.{ a.a.a.a.4 u.@.a.+.^ I { +.+.+.+.| h.a.@.+.{ O.o.| | | +.@.o.| O.o.@.| +.o.+.o.a.a.w.w.u.| w.w.| j.u.a.O.{ w.u.{ +.{ +.u.w.O.o.u.w.w.w.| o.O.x o.| o.w.^ O.O.6 T ..{ x X.| h.X.O.{ I { t.+.I X.| w.O.| +.X.t...{ O...6 x x ^ 4  .w.x f q./ z | 0.w...x x x T M ..g 4 l 6 X.1 6 h 5 t.R 1 0.R p L p 6.K p K p 3 K s K K K K > 3 ; . p K Y 2 ; > i 2 2 * V 3 C =.F N.m.b.Y.H.C.J.Y.).J.).Y.dX=X=X=X).sX=X].=XsXdX).xXxXxX].xXxXsXxXgXsXjXsXJ.b.v.C.S.v.S.v.B.&.! $.$.#.W J S G =.S H S =.W S S W =.F G H ;.&.$.=XG.sXjXsXjXsXgXdXnXmXxX=XxX].sXsX=XxXsXdXdXsXG.).J.H.=X=XJ.=XJ.S.Z.Z.S.G.D.V.C.S.S.V.V.S.M.' S.] &.` ' $.N.` $.S #.Z W W F S S D A A Z A L Z 5 V L 1 < * > > i < . > i . i p . u @ ; O O :   : O n u ;   n O O e y b   # u b @ o   5.o d o % e 9 c   0 e.    v B   t   % + 9 X m + w @ r o : j   X.O Y 4 &   f x o q.& f B B B f / z 9.z & B 4 B B f f / x M  .z z  ./ w.M q.9.z x q.f i.N B f e.z 8.q.z / N 8.8.N N N x.i.8.8.8.p.8.8.q.( / p.q.z z N w.( 8./ / ( q.8.8.i.h.q.8./ / ( q.i.i.q.o.@.u.:.:.d.>.^ p.( q.^ ^ ( o.i.u.{ u.o.o.u.q.q.o.!.i.j.p.8.!.^.^ j.p.@.i.h.o.u.i.p.^ ^ >.u.d.u.u.| :.^ o.u.o.z p.i.O.i.q.i.i.j.j.w. .p.9.q.x N e./ q.N 9.e.q.9.q.p. .p.^  .9./ q. .h.o./ ..x o.",
"6 z  .f  .x 9.9.z f 4 I 0.0.h.x x 9.T z 6 9.h./ i. .w.q.w.w./ +.i.^ a.u.w.u.a.^ { ( ^ | o.u.q.u.h.:.u.o.{ u.w.a.O.l.h.a.a.w.u.6 w.+.w.@.a.w.-.a.O.+.{ +.l.{ | { | { a.{ w.+.| o.^ { { o.+.o.o.^ h.i.u.a.h.d.w.+.u.a.a.w.+.{ w.+.{ u.{ x a.w.h. .o.O.w.| O...w.u.z w. .M | M w...o.T w.x { R 9.t...w.{ | x 7 j.w.+.| B 6 { 6 4 | w.{ +.O.x ^ x ^ 4 x 4 h./ w./ N z { x x f | 9...0.x.4 = 5 I X.T 5 I 1 l.T 1 L p = L p T L h i ; K 3 3 K K K ; K K L 3 . p E 2 . p p s 3 2 A 3 V ! =.m.N.M.M.H.C.=XH.Y.Y.).Y.Y.].=X=XdXJ.=X].dXdXxX).].xXxXgXgXxXxXgXbXnXxXjXjX=Xb.b.C.b.C.' M.M.$.$.J ! H $.H S W F S H #.W S S H #.H H &.N.;.M.Y.=XsXdXdXdXxXsXdXxXsXxXsXsX).].dXsXsX).H.].].sXdX-X(.=X(.=X-X(.G.(.D.(.Z.D.S.S.D.V.S.M.S.M.m.M.M.&.A.N.A.H H $.=.H #.W $.W S Z S A A A 5 V A 5 h 1 1 1 2 ; > i ; < , L p . : n # ; @ n # p j O e m Y O b O 5.$ y e.b   y w u m w d o   9.b   c 0 9.  9 N   q 9.X v t X X 8 0   c m c t w o w : g g O T l l f < f % z.4 4 z N M ( N B w./ % / 8.N ( 9. .9.f M / ^ / 9.z z ^ i./  .N z  .i.8.N B q.v / N B 8./ 8.8.8.N N q.8.8.8.8.8.8.8.p.( z 8./ z ( z / / ( q.q.p.8.8./ q.p.q.8.9.q.q.9.i.q.h.o.a.a.u.>.!.^ 6 ( ^ / z p.p.x / ..{ z.| q.h.( u.!.p.8.( ^.8.p.p.>.u.j.j.i.i.>.w.o.u.p.{ u.d.~.!.j.:.k.:.| o.u.o.j.^.w.q.h.i.p.u.|  .^ O.q.q. ./ p.e.9./  .N  . .o.q.j. ...u.q.q.i...i.w...|  .o.",
"x g  .x M f l x x T l k e. .= e.T 4 4 M .. .w.z ....h.w.o.+.o.w.j.{ w.u.o.^ u.u.+.o. .o.w.O.o...o.^ o.{ 6 { { O.a.t.{ O.t.a.h.{ +.| +.O.a.O.{ 6 t.a.t.O.+.D +.{ { { O.{ { ^ x @.+.o.| O.w.{ o.o.j.l.a.w.w.w.+.u.h.a.w.O.a.w.u.| 6 o.o...a.| w.w.| |  .| w.w.w.o.6 o.| w.w.{ w.h.h.x ..0.h.7Xw.0.l.a.h.l.h.6 { I x { { { x { I ^ +...w.w.+.w....... .x / k 9.w.....{ g 6 x w...j & T 5 < 5 < h L 5 T L t.2 < L I < p 2 h 3 ; * * K K > s 3 K K 7.Y K ; 3 K 2 3 p p p 2 3 3 V 3 S W #.$.M.m.v.S.C.H.J.H.Y.Y.sX=X).J.Y.sX=X=X=XsX].xX).].sXgXxXxX].xXsXxXxXxXdXdX=XJ.n.b.J ] J $.' ` $.W #.W =.F S =.F G S #.W #.=.H W ` H &.&.A.V.B.J.H.).].=XxXsXdXdXsXdX=XdX].].sX].sXG.G.sXG.sX=X=X-X).G.G.*XG.D.G.D.(.Z.D.D.D.S.S.S.V.S.&.&.&.;.m.M.m.&.#.$.` $.$.=.F S F U W U S A A A D A 2 A 2 L p ; * > > < < , j u ; p n p O Y   : : k . . 6.r # # # r n   s w   y   b m   w j o u M $ # 9 c o   t 0 0 v   0 X X 0 + t 0 w 5.t w u $ % O g f & 0.x % : 4 x l  .M / N x x M z    .9.z M / B / N M q. .i.w.9. .h.h.( 4 N 9.z.e.^ 4 z % f / / z 8.q.f / 3.8.f N 8./ 8.N z / ( p.( N 8.z f / q./  .( q.8./ p.q.z.q.8.q.q.i.q./ 8.q.8.N ( ( q.u.u.a.j.d.u.) ( 8.p.8.q.p.q.( q.q.o.i.o.i.h.o.q.( 8.( 8.!.p.^.( !.^ j.^ q.i.i.p.o.u.u.( q.a.h.o.u.j.o.!.^ u.j. . .i.q.p.o.^ i.q.x o.u.i. .o.q.i.e./ N N i.i.p. .w.^ o.o.q.i.w.w.i.q.^ T u.^ | j.",
"f 4 ..f f 4 M ..4 9.T x.0...f .. .x M T x M q.x { x w.a.w.h.w.w.a.o.p.o.| ( w.w.o.^ ( o.u.q.o.( o.o.d.:...w.w.l.a.0.| t.h.a.t.| +.| +.+.+.I { { +.t.s.k.l.{ X.{ O.O.w.a.w.O.x o.+.w.o.O.o.^ | o.o.w.O.o.+.+.a.h.O.u.d.d.l.w.t.O.I +.w.^ w.x h.a. .w.h.w.o.a.w.w.o.h.w.{ | a.|  .{ | h.w.X.z.w.h.7X| ..| t.{ { I I +.z.T.u.a.| { 7 { | { w.w.O.w.q.w.w.x x  .e.z 6 x | x 4 l f  .x T 4 5 T L T X.X.l , 0.= 5 L T 2 2 L R R p 2 3 p > 3 2 > K 3 6.L 3 i p L . 3 p > p > ; 3 K 3 - W ! =.&.b.M.C.S.H.Y.H.Y.Y.=X=XY.dXdXY.dXJ.].dXJ.].].xXxX].xXxXxXzXxXxXxXJXxXdXxXdXG.C.c.] J J ` H H H H H ! F G W G S G $.H ! #.` $.$.%.&.M.V.I.=X=X=XsXdXsXxXdXdXdXsXsX].dX].).].G.].=XsXsXG.=X).).=X=XG.(.(.(.C.Z.D.D.V.S.C.V.C.V.A.S.M.] N.&.&.M.$.N.$.&.;.H #.#.;.F F S S F F A - Z D L 5 2 2 2 1 2 ; ; i > ; ; ; > . ; u ; i j ; u . p > O w d ; o > r j   j w   + 9   c 5.o % j O + c +   X e.  X c t q f   v   X t X 8 X X 3.# # O y r : T g . T T & & 4 g x z B 4 % z z  ./ B  .( z z / B N N ^ 9./ N z z z / N x N N % 4 f N ( i.9./ N N N z q.( / e.q.z v ( z N 8.( N 8.8.( B 8./ 8.p.9.z B N / 8.N z f i./ N 8.8.q.q.q.8.q.8.q.p.q.( +.+.a.>.>.( ) ^ ( q.8.p.8.8.8.p.p./ o. .q.p.q.q.( 8.z ( !.8.p.( p.u.( ( p.p.i.i.p.O.O.o.u.p.j.o.u.u.u.HXo.j.u.w. .( j.q.z q.u.j.( o.h.h./ q.q.9.9.^ 5.( i.w./ / ..^ ..o.w.w.w.l ..i.9. .w.x w.| ",
"( 4 x 4 z x  .M f 9.M w., k x . T z f f M h.h.l N 4 x q.O.w.w.O.w.O.o.{ q.+.o. .^ z | u.o.o.O.o.o.^  .^ { w.w.a.O.w.t.h.h.{ O.+.O.@.u.w.@.) w.u.t.+.| +.| D X.@.@.| I O.@.o.x { 6 ^ ^ ^ ^ o.u.w.w.w.u.a.u.w.+.a.6 +.a.h.:.{ O.+.| +.O.I w.| a.h.O.O.w.q.x w.^ ......^ ^ ..^ z t.x a.T.w.I a.t.X.x 5 | { | x +.O.O.| T.z.O.+.I { u.h.@.x w.w.x x 4 6 T z T ^ 0.4 6 z I z ..w.^ t.0.| = , ..I L R I 5 5 r.= 4 1 X.L < 2 p Y * 3 ; ; 3 s K K s 3 K K p K p E 3 > 3 ; p 2 i 2 K 3 V W W ;.m.m.M.B.H.B.Y.J.J.J.=XY.Y.=XY.J.dXJ.Y.dX).].].xX].xXgXxXsXxXgXsXxXnXxXdXjXjXdXsXS.C.' ' m.H H J S F #.H S $.H ` W $.` #.` ` $.M.M.A.V.S.*XY.=X=XsXsX=XdXJ.dXdXsX=X=XsX].H.sXG.=XsXG.sXsXH.=X(.=X=X=X-X=X=XG.D.Y.*XS.G.D.M.S.D.M.I.V.M.Y.S.M.M.#.I.;.$.&.H ! $.;.W W H S Z A Z A A A A 5 V L 2 h p 2 L L i , 2 > < . : p . ; p   i n . j j . ; r : O y e.n y y $ r @ @   w d # d e @ $ % : X 5.0 o d X X t + N X % a 0 a u 9 5.w t @ w O   T n   l n O < & & 4 e.4  .x z B M / B M N B 4 N N z B f ^ z N 9.x B z / ( x ( q./ / M ( i.9.9.M q./ t 8.N z / N 8.( / z 8.i.p.8.z ( ( z 8.^ / ^ x ( ^ N z / / / / i.( x i.w.q.( i.q.q.z ^ N ( N  .w.h.u.>.>.( p.8.8.8.8.e.p.q.q. .x o.(  . .i.h.( ( ( ( 8.8.B 8.z j.( u.i.p.p.i.q.( o.( >.u.i.+.:.) p.7Xo. .o.p. .q.j.x o.z.q.~.u.{ h.h.o.w.9. .w.8.i.w.i.i.o.i.j.h.u. ./ o.h.q.T u.o... .{ h.{ ",
"x z  .M f x ..T T  .9.T n ..r 9.N : 4 f T z.i.4 | z | h.w.w.w.w.h.o.^ ..i.|  .o.i.o.p.i.o.q.u.q.h.o.o.o.O.u.t.w.{ +.t.w.*.x | O.O.o.O.+.O.{ +.@.O.O.-.w.} @.O.U w.a.{ O.| t. .O.^ |  ...o.w.u.o.a.h.u.a.a.:.+.a.t.a.,.u.+.@.O.+.{ { ..O.w.w.w.O.w.{ .. . .h.....q.{ w.a.j.w.{ z.t.h.t.| x { ..{ l | h.d.h.| k.h.l.^ O.| I o.O.a.| a.@.6 { { x O...x ..T e.| i...h.+.w...t.i.l x l T l l I 1 2 I l 4 l X.. 6 5 L I 1 2 L r.> 3 * K 2 > p 3 p ; p > 3 p p Y K 3 ; 2 Y p 2 3 2 V P V S $.$.' ' ' n.B.H.Y.Y.Y.J.Y.J.J.=XJ.mXY.].mX].].).).].xXxXgXgXgXnXbXsXzXnXnXjXjXdXjXY.G.M.$.M.$.H G F H $.#.G #.H ` H $.H $.N.$.&.M.S.S.A.S.G.J.Y.=X=XdX].dXsXdXdXdX=XdXsX=X).sX).G.=X).(.=X(.G.G.(.G.G.*XG.D.D.D.S.D.V.C.M.] N.M.' V.$.' S.M.N.N.$.I.$.$.#.#.=.$.=.W #.W H S S S D A V 2 5 A 2 2 2 < ; 2 ; . , 5 1 , : j Y ; s u # * 5.. T T   T e y ; j   # : y b   e M #   $ O M e $ 9 b e t   9.+ X $ % 9 q X X X X q 0 9 X w s 5.9 y y o n X.: X.T < f g M x 0.. ..N z 4 ^  .f 9.w.q.9.q./ N z (  .x 4 4 z q.p.9.N ( q.9.N ( q./ q.N 8.8.M / f q.8.N e.q.N M 8.M v 8.N B B 8.8.N q./ / z N 9./ / / 8.q.q. .^.i.q.i.9.( 8./ / 8.8.z.i.x./ | u.u.O.( o.( 8.8.q.x.8.e.i.q. ./ x i.8.( 9.q.i.8.8.( ( ( p.8.8.( o.i.8.p.i.i.8.o.q.w.p.q.i.j.^ d.p.d.^.p./ z.j.^ i. .q.h.h.u.q...6 u.w.| 9.9.w.i.9.( M q.i./ o.p.+.h.h.w...9.o.w.h.M ^ w.O.x o.",
"z f ..M z f T q.M ..T x 9.T l e...T ..N M h.0.f 9.f x a.u.w.| ..o.w. .9.i.q.w. .w.{ (  .( o.o./ { z { ^ ^ ..{ { t.l.l.+.h.w.| { | +.+.+.@.{ t.+.+.-.w.-.{ +.-.t.{ +.{ O.^ | ^ { o.o.o.O.O.o. ./ o.O.| w.w.a.u.a.u.d.+.a.+.+.O.O...| | w.O.w.| ..w...O.w.w.h.w.w.w.o.w. .u.O.{ | O.w.{ | I +.O.w.{ 6 7 ^ 6 7 | 6 ..6 { { w.+.{ O.& { O.+.O.I x { w.x I ..O.x 9.R 4 4 I x 9.9.x x f x x I x 5 1 I I 5 < h < k 2 5 L 2 2 L Q 3 2 2 2 p 3 p ; K ; K 3 ; > p 3 > s 3 p p ; 3 p K 2 V P W =.m.B.V.m.S.J.J.J.Y.Y.Y.B.J.mXY.J.dXJ.].].=X].].xXxX].xX].xXgXxXxXgXxXdXjXxXxXxXdXsX-XH.M.$.' ` H H $.$.#.F H H $.H $.H M.N.M.V.A.S.D.D.D.*X=XdXdXdXdXsXdXdX=X=X=X].].H.).).=X).).).(.(.=X).).=XdX*X=X=X(.=X*X*XG.G.C.D.S.C.S.D.V.S.V.M.S.M.M.M.$.M.H M.$.` $.#.=.H W H P W U D A A A A A 2 5 2 2 1 p p 2 ; : , , , < p b ; p i ; ; i p > > O 6.Y r # r r 5.# w 9.  y + # c o n @   m d % e t   c 0   3.+ X 3.q B q 0 q + a a 8 4.5.  8 @ . ; l   ..T < & & < x | / q.^ q.( /  ./ w.p.e.q.q./ / ^ / 9.i. . .o.f 4  ./ z B / z N z B N N q.q.q.i.( e.q.q.i.i.9.8.p.p.( q.8.N ( 8.8.z q./ q. .p.w.N q.i.w.q.8.N z.w. .q.^ / q.( 8.p.( ( N p.w.w.w.^ o.>.o.( ( ( 8.i.8./ ( / M / / i.9./ q.( ( ( 8.z ( ( ( p.( ( i.i.p.p.i.p.p.p.q.p.h.q.u.p.q.u.o.j.j.( i.i.w. . ...h.i.o.u.o.a.| j.k.h.w.i.x.e.q.q.q.w.h. .| h.w.u.o.u.w.i.h...w.w.X.x o.4 o.",
"w.M x 4 f ..M x ..x.9.0.9.T T l e...N f 9.z.w...| x x w.l.h.w.| ..i.w.q.w.w.u.z q. .o. .p.i.p.q.u...u.w.+.a.+.t.l.l.l.X.k.t.X.| | a.u.@.| { t.a.U | O.a.t.-.{ | 6 O.{ w.| { x ^ ^ { ^ o.q. .q.o.w.u.w.a.a.w.a.a.{ +.+.a.+.o.{ { O.O.O.O.| O.| ..| ..w.w.| ..w.O.O.^ O.w.{ x { h...x w.w.t.>Xt.a.a.O.+.h.O.{ ..O.I @.O.| h.+.{ | k.t.{ { { { { 6 | I w.O.O.x w.0.{ x 0...t.w.w...T g 5 g h h 5 L 6 k 6 L 5 = 1 I y.E L A V * - P 2 > 3 2 p K ; K p p 2 K > E K p K p . p Y K 3 3 A S #.$.B.B.b.M.Y.B.B.J.J.Y.Y.Y.mX=XB.).J.J.J.].).].xX].].].].xXgXsXsXxXnXsXdXnXxXxXgXdXdXY.V.M.m.$.$.` ;.$.#.H $.$.N.;.N.N.N.N.N.D.Y.D.G.Y.(.=X=XsX=XY.Y.J.sX=XY.=X=XY.=XY.).J.`.).G.).(.G.=X=XG.(.=XG.G.(.C.G.D.*XZ.C.S.D.S.A.S.V.S.M.S.M.N.M.M.&.;.&.#.A.$.#.$.W #.W #.W F U D S Z V A A 5 2 2 = 2 1 1 2 > < > g , < , u r . b ; i O n j ; . O u r # y y :   u   O # 3.d +   $ e.    b e o w X t   m   v X + B 0 + + v 0 X a a X b y   w : y % T   T T l 5 % M I 0.z < & 4 ^ x M x / z z z B 8.w.p.w.q.h.| N ( ( N / / / N q.( ( / N 9./ / N / q.N 8.3.i.z.w./ N N ( N 8.8./ ^ ( 8.^ w.^ ( N ^ q./ q.q.B / / M q.f N p.q.( 8.8.( ^ ^ p.q.p.N N x 6 x ( ( o.( ^ / 8./ N / / / ( ( q.8.q.( ( 8.8.p.( 8.!.8.p.8.^ !.p.^.p.p.8.i.p./ q.i.( o.q.>.u.^ ^.u.w.7Xo.w.i. .i.h.u.w.w.h.a.@.+.w.w.o.q.| f 9.9.w.w.u.q.O.o.O.u...h.h. .....^ w...7 w.w.l.",
"f N  ./ x x x q.T l x l M e.: 4 e.M x 9.w.T l 9.x x T o.u.w.u.u.w.w... .w.q.w.^  .q.q. .q.w.o. .u.{ O.o.O.w.O.+.u.+.w.I t.{ O.h.| a.| ^ +.{ +.| a.a.-.O.+.d.X.O.t.t.{ +.O.| | O.x  .o.^ x {  .^ w.w.u.a.d.w.+.d.>.,.-.d.:.+.@.I { { O.T { | O...o.| w.|  .| h.o...| o.+.z | w.{ a.7 a.{ 0.X.T >Xz.+.t.l.w.j.O.+.^ { 6 B | 7 4 a.6 { | a.O.{ w.x { { w.I T 4 O.T z x I x x x  .T ..6 4 l 5 h 1 < 1 I l , 5 l L 5 I L L R R 3 2 L 3 2 p p p K 3 K 3 K ; K ; 6.K * Y E 2 Y L 3 3 L P C W $.N.S.b.C.J.J.Y.Y.J.Y.Y.J.J.Y.J.J.Y.sXY.=X].].].].xXxXsXxX).gXxXxXnXxXjXjXjXjXdXsXsX=XS.V.A.M.N.$.&.#.$.#.N.=.N.m.A.B.N.N.N.I.Y.Y.Y.G.I.*XY.H.Y.=XmXJ.=XY.J.=XdXY.J.J.].).H.G.).=X).G.=X(.).(.=XZ.*X=XD.G.C.*XD.S.*X*XV.C.S.M.C.&.S.A.V.N.A.$.m.M.N.A.H $.N.#.#.U ! H S F P D A Z 5 - 2 V 2 3 > L p > , < * < O ; > * ; . Y : : > Y ; h i   T r o b T o y # m b y   s n o o n r e.  $ 5.X @ X 4.9.e 9 w 5.X 4.8 X M 0 X t y # 5.a 9 b @ y   0.  l ; g 4 < , & j.4 z / ..( w./ z ^ N ( ( ( x / / / M q.^ q.9.q.^ q.q.q. . ./ 9.9.( q.8.i.e.M i.x.i.8.p.e.q.q.N / 8.N / N z N / 8.z q.N q.( N 9.x / q.z q./ ^ i.../ 9.z N q.8.q.8.8./ N 8.q...h.h.( ( ) o.( N ( N 8.N / q.q.9.q./ / q.( p.i.( ( ( ( 8.N 8.N q.z p.8.8.8.8.i.( i.z.p.^ j.j.( :.^ i.o.u.j.p.z. .j.w.i.j.h.u.u.w.+.w.O.w...w.9.q.h.h.w...O.w.w.z.u.h.o.z.h...w.h.9.q.w.u.u.O.w.",
"w.z N q.M z M M 0.x ..M T w.4 T x x M T h.j 4 T x x o.I o.w.w... .w.q.^ o.o.q...o.^ w. .o.( w.( o.+.^ | { u.{ @.s.| | x { | t.h.q.| o.+.+.{ :.@.+.@.+.@.O.X.a.I { a.| w.t.| O.t.w.w.w.o.h...i.h.O.k.+.t.:.u.{ +.w.-.d.t.| | | O.4 x  .| w.{ w.w.I w.^ h.....h.w.o.o.w...t.{ w.h.{ t.t.{ t.@.6 @.O.5 { x | O.6 w.{ a.| t.x x h.| x 6 x { | t.x { x I 4 6 T 4 ..X.x 0.O.x l 4 x x k I T X.l , 5 4 L T l 4 < i 1 T Y 5 L i L 1 * X.2 > * P K L 2 2 K * 2 3 u p > p s r.; 3 E 3 L L 3 P ! $.N.$.S.B.J.B.G.S.G.G.G.Y.Y.=X=X=XY.sXdX=XsX].dXsXdXxX].xXdXxXdXxXxX].xXxXsXxXdXdX).Y.H.B.J.B.B.S.M.L.N.M.&.N.N.M.I.S.S.V.V.D.S.D.*XG.(.Y.=X].Y.J.-XY.Y.=X;XmXY.Y.G.S.=XG.S.H.G.=XG.G.G.(.G.).-X=XG.=X=X=X-XG.D.V.D.G.V.V.S.V.S.M.V.A.M.N.N.M.$.&.N.L.` &.=.W K.H W W W U P U A A A 2 2 L 2 2 5 p 1 p 1 3 h i . i . p i . Y I O r k . O l # b j e @ w b T @ u ; # 6.y O @ n 0.# e.  : O @ d   d 9   @ 9 4.X 0   9 q f X + c X d d e o e f & l ; g l . 4 , M 4 h.f z  .9. .o.^ p.z.q./ q.q... .x B x j.M x u.w.q.u.w.q.^ q.8.( z / 8.z / / N N  .N / z.e.h./ N 8.i.9.w.q.9.q.q.x.p.p.z N z w./ M q.w.p.q.9.w.x z.x ^ N / 8.q.( i.z q./  .( N  . ./ / ( z / q.q.q.N 8.p.9.q.q./ 9.q.( q.^ p.^ ( ( ( q.( / z 8.B q.q.( z.q.p.9.p.^.q.p.j.j.o.:.>.>.p.j.k.u.u.o.w.O.h.w.u.t.| w.w.o.w.z.w.w.w...a.q.O.w.l.h.a.t.h.w.w.t.i.| 0.I M 0.i.t.e.5 w.",
"w.N M 9.M x .. .i.M 9.M 0.e.f M k  .z x x x x q.I 4 9.w.o.w.w.w.q.q. .^  . .o. .O.z q.u.i. .q.w.o.u.o.>.{ >.+.j.a.a.+.O.O.+.t.O...w.o.{ | { -.{ D } t.+.X.@.t.x | t.{ I O.X.w.{ ....| X.h.0.t.w.w.k.u.u.+.a.{ w.+.w.w.{ { O.| | | | | w.w.{ O.w.{ w. .a.O.o.O.w.w.x q.w...x t.w.| +.a.X.y.a.X.{ | | k.w.X.| 6 { 6 h.X.o.{ { { 7 a.-.t.X.{ O.R O.{ O.O.O.+.w.h.t.t.w.O.I { t.t.{ { x 4 x < 5 k g 1 4 , = , g 1 k O L T h ; h < R V 2 * K K K V V 2 3 p K p p > p ; 6.> 3 p p V * 2 S Q =.N.m.S.S.H.S.G.G.G.S.S.H.J.=XH.=XJ.Y.J.=XJ.J.sX].=X].).xX=XxXsX].dX].mXxXxXxXdXdX=XH.Y.J.B.J.B.S.B.I.A.S.N.S.A.S.Y.S.D.D.D.*XD.Y.*XD.Y.G.).Y.H.J.*XG.G.*XI.Y.S.S.Y.C.G.G.D.G.H.Y.).G.G.=XH.G.=XG.G.(.G.D.S.H.*X(.G.D.v.v.S.M.S.v.N.A.M.M.M.&.$.' M.N.! ' $.#.W F F W #.W U P A A A V 2 A 2 2 1 2 < 2 > > s , > > . O i ; j Y   O i Y O   y w # y w y 6.5.@ b p O y p b : o j   j : d d e # : # 5.+ O 8 5.X + 0 9   t X + o o d v o o $ e f < 4 4 0.I 4 < 4 T h.x a.w.z B 4 z z ^ x / i. .f q.w.q.9.h.^ ..x 0...^ ( q.( 8./ ^ z ^ / 4 N f i.e.q./ N q.z N ^ / 9.w.( q.q.9./ ( q.z / N q.q.8.( q. .M u./ z q.z i.z z / q.j.q.q.q.z 9.i.q.( q./  . ./ q.q.9.p.q.8./ q.e.8.8./ N 8./ 8.q.( q.^ q.8.p.q./ ( 8.!.8.p.p.p.i.w.p.q.u.i.q.i.i.j.o.u.u.d.:.j.j.u...u.^ o.{ t.k.l.a.a.| w.t.h.w.9.h...x.q.X.w.h.u.w.z.w.w.e.w...{ w.o.| | ..9.w.M e.",
"..x N / l z x M 0.M x.T w.T l x 4 w./ ..g T g T x.k ....0.w.a.u.a.w.w.q.w.o.u.w.i.o.i.u.u.w.i.u.{ o.@.w.{ o.+.l.+.+.| O.{ { +.{  .O.| ^ @.{ +.@.} +.a.-.+.+.a.X.| +.| | t.w.O.x O.X.{ { | I  ...| O.+.+.| a.| a.O.{ w.h.z.l.| { w.o.O.u.k.w.a.h.| w.h.| t. .I x 4 T w.O.o.w.I 4 6 4 6 7 7 7 t.k.T.O.I { { | { t.l.+.{ w.{ | w.a.{ D a.w.{ { | O.0.w.t.{ I O.| 4 h.x 6 T 6 | x x I & & T g = < = < l T h T k h T T j p L . 2 * R K V 3 A V V K V 3 V K K L p ; K ; Y K ; p 2 2 3 K V W =.N.$.S.H.D.Y.G.Y.Y.G.G.H.J.Y.Y.=XJ.Y.H.H.=X=XdXsX].sX=XxXdXxXdXxXxXgXxXxXsXxX].sX].).J.J.H.J.H.H.S.S.V.I.N.S.V.V.D.M.C.D.V.Z.S.Z.Y.D.*X*X=XY.=XJ.*XD.D.D.S.I.V.S.D.C.S.C.H.D.G.G.G.=X=X(.=X=XdX=X=XG.G.G.C.D.*XG.D.S.V.C.S.V.A.&.C.S.M.M.A.&.$.$.&.N.$.` =.$.W W W W W S L S V A V A 2 L 2 2 1 3 * ; 2 > p > : . i ; p . ; > Y g ; 0.. j m w @ 5.o # n y w u O r . u Y u . w   T :   % 5.  y # 5.@ @ X m X   v q   q % 8 0 0 o v 9 m % # T < * . M 4 & . l ..w.4 ^ B x p.o.p.q.i.q.f ^ M M / f x | z. .o.o.0.^  .9.q.( 8./ ( ( 9.i.i.i.M q.9.x  .N  .8.h.w.q.w.w./  . ./  .9.q.N / N / / / M /  ./ z. .x ( x i.M ^ / z ^ z x p.i.^ z z  .p.N  .( z /  ./ / / N q.w.N z / ( / q.( / p.9.o.o.i.8.p.( ( q.i.8.p.( o.q.q.u.p.p.j.u.j.j.i.j.q.a.d.k.j.j.u.p.{ h.o.j.O.+.w.a.z.k. .o.o.^ M f z x 9.0.w.w.w. .w.x.e.h.h.w.9.w.h.w.w.0.w.h.T ..e.",
"N M ..T N N x M 9.9.l.9.9.4 T  .f w.9.0.z ..x M z...T x  .j.h.w./ x / ^ x / ( ^ / ^ w... .w.h.u.| o.@.w.@.u.a.a.+.+.| l.X.x 0.O.| O...| +.{ O.-.@.O.@.D { X.+.X.I I { O.| ^ I 4 6 ..x | ..x { O.w.{ w.a.o.u.| t.O.u.t.I 6 { 0.w.I { 6 l I | 0.w.x | I h.u.t...u.u.h.w.h.w.| { a.l.| d.T.h.-.a.t.d.| { h.a.I 4 x | t.| 6 w.a.| X.z.x { X.| t.w.I I { O.I k w.X.5 X.x t.h.O.^ 4 I | w.I x 4 T T g * 5 T h k , > 1 g p , T = T 1 L 2 3 V K V V K 3 V L K V L K 2 Y s p Y 3 2 2 2 L A V P =.N.N.S.S.G.Y.H.Y.H.G.G.S.=XY.J.=XJ.=X=XdX).H.].).=X=X].].].xXsXxX].xXsX].xXxXgXxXsX].).J.=XG.G.H.H.S.C.G.C.D.S.S.G.C.S.D.D.G.D.G.*XG.G.Y.J.H.H.H.(.Y.D.D.S.D.C.D.G.C.C.C.G.G.G.G.=X=X=X=X=XG.=XG.=XG.G.Y.(.(.G.Z.Z.D.D.G.D.V.S.M.S.S.M.&.M.m.&.M.` N.;.H A.=.#.#.W W U A S P A V A 2 2 A 2 2 1 1 ; > , , > > p ; i . > > . : > : i . ;   O @ + T # # Y b y u   j ; y b ; o n # Y   j , :   9 y @ s m 8 5.X X z o X + 0 %   $ o b o e o   N 5 % g 0.I 4 < x 4 x f T 4  .o.^ ( 4 & x / / z B 4 z x z ^ 4 6 ....x  .^ ( z ^ B N 9./  .N / z 9.8.f i.q.9.N M / N N  .^ q.q./ 9./  ./ 8.z N x  . .q...4 z z  .w./ q... .i.M x o.N N z z i.w./ / z q. .( / q.q./ 8.z / / f 8.i.9.p.i.q.q.i.p.p.p.j.( ( p.8.p.p.8.!.( o.o.o.a.j.j.i.a.j.i.p.p.u.d.u.d.i.a.o.u.o.u.u.O.d.h.a.l.a.q.x a.h.i.7Xh.w.h.h.h.h.h.h.t.t.z.a.h. .z 0.l.z.O.x | e.h.x X.e.",
"x x T  .M z x z e.9.w.| T 4 .. .T q.x x g M | i...l w...| h.w.w.q.o.o.o./ o.w.^ o./ w.w.w.o.o.w.O.o.o.+.| a.j.+.w.a.| k.+.R w.|  .a.0.{ O.| +.+.s.@.X.+.+.-.X.{ +.O.w.t.+.| w.w...| x I 6 ..w.z.| x O.w.| w.| w.{ 6 x O.0...x X.w.t.w.w.w.0.w.O.^ h.0.6 4 | l.{ x O.z.h.< 6 O.l.t.I w.t.w.s.k.-.w.| { t.a.w.t.X.X.7 I w.h.t.-.a.t.6 w.+.x 6 X.| 4 x x x 4 x { l I | w.6 x T x u.I ..l I 0.X.1 5 g L h h L T h j Y p , R > L < A K 3 V V V 3 ~ 3 V K V 2 K K p K i > Y ; 3 1 2 L 3 3 A S ! M.N.M.H.Y.J.Y.S.H.Y.G.Y.=XJ.=XJ.=X=X=XY.).=XY.=X].].sX].xX].gX].xXxXxXxXxX].].].].].].sXH.H.).H.H.C.G.C.D.C.S.G.D.C.H.C.C.G.D.S.S.D.D.J.S.C.D.D.D.C.C.V.C.V.C.C.n.C.Z.G.=XG.=XY.-X=X=X(.H.G.G.=XG.=X=X(.G.Z.S.Z.C.M.V.D.V.S.V.S.A.N.M.&.N.$.S.` N.&.! L.H #.S H P F U U P S A A V 2 A 2 5 h 2 > 1 i 1 ; > i ; i : ; > g < r ; 6.: i . d b O $ o % p @ y j # O   n ;   b j   e.o j .   u y m   s w X m X % + + v + $ o % + 9 m y d e : 0.T & ; , 4 . & l 0.o.9.q.i.w.B & ^ o.^ q.q.M /  ./ x ^ M ..^ ..z O.o.q.z q.( ( 8.( z z / N q.w.q.e.N q./ N ( h.i.9./ w. .^ / N  .x N /  .z ^  .w./ .. .w.x w.h.i. ...x ..w./ 9.h./ q.i.q.x z / p.q.i.9.q.z N / / q.8./ 8.q.i.9.( q.p.( ( p.p.p.( p.q.p.!. .j.o.p.>.p.p...o.j.j.j.+.j.h.h.+.u.d.h.u.a.a.j.+.h.u.w.w.O.j.h.+.t.o.w.o.j.w.M h.w.9.z.w.M  .q.i.w.9...x  .^ x 9.O.x 9...| ..w.T z.e.",
"x N / M x f x x ..x T 9...T l % x M x x x x 9.t.x 4 w.w...u.{ u.w.u.w.o.{ q.o...w.o.u. . .^ ^ ^ | @.o.| { +.:.+.@.+.| X.O.O.w.I | w.O.@.+.D -.@.+.} +.-.| { I { X.O.| | O.w.O.X...O.| w.w.0.| ..O.| t.w.w.w.w.t.w.w.w.w.l.>Xl.w.O.w.| h.w.o...| I { x z.| w.w.w.h.o.I 6 { z.j.l.a.| a.+.{ @.+.| s.X.{ +.O.{ { I | +.| 6 +.t.w.w.O.7 O.t.w.w.O.O.a.t.{ w.{ 9.{ x x T ..7 t.w.| t.I h.l & l 0.Y , l I g 1 < k > h y.> . Y i = * Y E V ~ V P 3 P V ~ K 3 V E K 3 3 3 2 E * 2 h K 2 V V P S N.K.D.Y.S.H.S.H.G.Y.).Y.=X=XY.J.J.).Y.=XJ.Y.=XY.J.J.).dXsXdXxXgX].gXxXgXxXxXsX].].xXJ.J.sX=XsX=X=X).H.G.M.Z.C.S.D.S.S.D.D.S.G.Y.Y.Y.Y.G.Y.G.V.C.V.V.M.V.] V.V.C.C.V.V.H.Z.G.G.=X(.dX(.).-X(.(.=XdX=X=X*X(.*X*X=X*XD.D.D.V.A.S.S.S.M.M.M.&.M.$.I.#.N.&.H ;.G =.S W S S W P U L A L A - 2 5 2 1 2 ; ; , < > ; . ; i j O < ,   L . > k   , O e #   r j y u j b p u w p O u : n f r   y d     # # @ 9   # 5.% 0   + N X + X t   8 d e e $ # j % < , h e.& g . q.l B & z B ^ j.o.q.z i.o.4 /  . . .q.^ 4 B 4 { / x | x q.q. .( ( ( 8.p.9.9./ / 8./ 8.z % z q./ / / i.9. .q.w.q. ./ ^ / / M x ^  .o. .^ & q.w. .M x z x o./  .q.x q.z ^ / q.q.o. .( x q.q.( q.p.e./ / 8.q.p.i.i.p.q.q.i.j.i.p.^ u.p.o.j.^ p.p.>.( u.d.@.+.a.u.k.O.k.u.j.a.h.j.a.j.a.u.u.p.j.q.u.o.j.o.u.| w.u.u.o.w.o...i.i.i.i.9./  ...w.q. .9.T w.h...w.w.w.h.T  .X.e.X.h.9.",
"/ M  ...z f ..9...M 0.e...T x < x M { 9.5.x Y X...g 0.o.x h.o.w.w.a.O.| o.w.o.o.w.w.w.^ ^ w.w.w.o.o.o.o.w.+.+.u.X.w.O.6 X.w.w.O.O...| O.+.6 +.-.+.@.s.t.D +.0.t.{ O.| { O.o.{ { I  .{ w.w.o.O...O.O.w.o.....I ^ O.X.w.w...x x ..X.| 6 I x x | a.w.{ x x x 6 x ..O.6 { u.h.+.x l.a.D 6 7 I D D 6 O.x T O.6 7 x +.w.I { | { 7 7 = | { O.| x ..I | w. .I O.0.a.{ ..X.x 4 4 w.w.O.t.x | 4 , f k , O , I T 1 > r ; h L > < 1 Y L L 1 Q V V V Q C ~ P P K V K P K K 3 > p E * 2 p 2 3 2 2 V C =.=.m.S.S.J.H.H.H.Y.G.G.=X=XY.J.Y.=XY.H.J.J.Y.J.J.J.J.sX].dXnXxXxX].].].].].dX].sXxX).).sX).sX).=X).G.G.V.G.C.S.C.G.S.Y.S.V.Y.S.S.S.A.M.B.M.M.S.M.V.A.N.2.V.V.V.Z.C.C.G.Z.H.G.=XG.-X(.=XdX=XG.=XdXH.Y.Z.Z.(.Z.D.Z.V.S.G.A.V.S.N.S.M.M.M.$.' ` &.$.#.$.F =.F =.#.=.W S S P S A A S V V 5 2 2 1 2 * 3 , < ; ; i > ; ; . p j T ; O r > ;   r : r : j O . u r   y ; : O   r r @     j j b y u @ # v 9 # + b % 0 + q t X $ % t X 5.3.X % $ w n < g . < 0.. x % | f & 4 N f p.^ ^ q.6 o.../ 9. .4 B x u.i.u.o.a. .x u.( i.( ( ( 8.q./ f B ^ e.i.q.x x q.9.q.e.5./ ^ q./ x  .M o./ N ^  . ./ ^ ..x z x o...u.O...^ ^ z ..e.w.h.q.6 ..9.i. .^ q.i.o.( / ( p.q.q.( N ( p.i.8./ i.p.q.o.( O.( o.( o.>.u.{ p.o.p.:.u.u.:.d.w.j.l.d.a.+.+.+.a.u.d.a.+.j.+.+.{ O.u.( u.z w.^ h.h.~.k.o./ q.u.h.i.9./ e.q.9.e.M  .M f x x h.i.w.......w.x ..0.0...0.x ",
"x f M / 4 4 T 9.T / l. .4 < k  .|  .T 9.x x ..e.x l i...{ z.w.w... .^  .o.o...w.u.w.+. .| o.{ o.O.| { +.l.+.| +.{ +.+.I X.| x X.I { { | } D t.+.D } s.a.D t.l.a.O.w.X.| O.{ I w...w.....| ..w.u.O.u.u.t.h.w.a.a.h.w.O.....0.w.0.w.h.O.w.w.t.h.w...w.a.o.t.h.I ..{ 6 +.| 6 I 6 6 { | +.{ t.d.l.t.T.t.l.a.w.a.t.O.6 I | | O.I O.x x O.a.w.w.t.{ | = 4 { ..4 ..& { | ..4 I I w.w.w...w.X...4 I X.k * 5 R h T L i 2 T 1 h h E * 5 P Q V V C Q V P S ~ V V ~ K K K K 2 p T 3 L 2 2 L K V V C =.$.$.D.H.B.Y.J.=X=XG.H.Y.dX=XJ.=XY.H.Y.dXY.J.J.B.J.Y.J.J.J.sX].).J.].].).].sX].).dXsXdXsX).).J.J.J.H.J.v.I.C.C.M.S.S.D.S.m.I.I.N.S.S.N.S.A.V.S.M.M.` [ ] &.v.V.S.G.Z.(.Y.=X=XdX(.=XG.).-X*X=XG.mXG.=XG.=X*XV.Z.Z.C.D.S.S.C.S.S.S.&.M.' M.&.$.$.N.$.;.` &.W F #.W F P A A A V 2 L A 2 5 2 2 h p p 1 1 ; p ; ; ; ; ; O , : Y > r l < r k k   r r m O : 5.T   6.y y b : u % Y j $ M r # : n # u w 8 s 8 w X X t t o + 0 0 9   3.N   d e % < f x : , l % % & x ..^ M w.q.w...z B B ^ B z w./ x  .h.z.a.w.x ..q.q.h.N ( z ^ B B z / q. .9./ N N 9.9.q.^ / 9.q.q.N q.9. .q.z i./ 4 ^ q.|  . .u...x ^ ^ ^ ....9.|  .M i.w.....q.z / / w.q./  . ./ ( q.z q.q.q.9./ / / p.x.q.q.q.o.q.p.u.( p.j.p.u.( ( j.j.u.o.d.k.>.u.a.d.d.a.j.l.a.d.,.u.j.a.a.k.| j.w.o.o.u.o.u.q.o.u.+.z.h. .p.j.q.i.w.q./ e./ N M / e.9.z 9.| w.T x 0.9.x ..T i.w...e.h...",
"/  .x f x N l 0...T M | l.X...f ..x x x 9.T e...x x w.t.w.w.^ h...w.^ O.{ w.{ { w.u.O.O.w.{ o. .| w.6 :.a.| { @.{ +.O.| { 0.{ O...+.X.I -.{ l.-.I @.-.t.{ -.l.O.X.O.O.O.w.I z l.{ O.o...| q.0.w. .a.w.a.| x w.0.h.w.| O...h.t.w...h.w.w.w.{ w.w.w.h...h.a.h.X.h.O.O.O.{ a.w.t.t.a.a.a.O.l.l.l.a.h.a.{ w.x +.t.l.+.6 O.I | I +.t.I +.7 4 x 7 | { w.4 { x 4 4 ^ w.l | ..| x { O.| ....w.4 X.0.r I g 1 R R L 1 > L r.p ; ; R 2 2 2 V C V P P 3 C Q P P 3 E K K P 3 2 i r.; = E ; p 2 2 V P ! #.N.B.S.G.G.G.=XH.Y.=X=XH.=X=XdXH.J.J.dXH.v.v.n.b.b.J.J.B.(.G.H.G.H.H.].H.=XH.].dXsXdXsXH.Y.H.H.n.C.V.V.C.M.M.C.M.M.M.N.N.M.m.B.N.B.N.&.&.` ' &.] J J G ' M.V.H.G.*X*X=X=XG.=X(.=X(.=X).Y.=X(.dXG.dX(.(.*X*XG.Z.C.V.D.D.A.M.M.M.C.A.M.&.&.&.$.A.#.$.#.#.W Z W S S S A V S A A A 2 2 3 2 2 < 1 > i < 1 p . ; ; > > i i g ; O > j i % n e . . : . % r : O u Y O w b O b   %   y T #   o   m # y @ + 9 @ X X N 0 q 9 % 0 9   d v X o e   % n T = & T , j & 4 9.<  .( 9.B 4 ( B w.i.^ /  .z z  .w.u.z.o.6 4 z ^ z z q.z p.i. .p.q.9.q.N q. .i./ B q./ z q.9.q.( w.M / w.e.p.x x q./ / 4 q. .^ ../ O. . .o. .o.z  .h.9... .w.o. .^ q.x ^ q.^ / q. . .q.q.i.(  ./ / i.i.p.q.8.p.p.( p.!.!.( o.u.o.u.u.j.a.k.@.d.a.d.+.,.k.T.+.k.a.z.a.T.:.u.j.| o.a.a.w.i.j.q.u.z.u.w.h.i.h.u.u.i. . .M N z x./ / 9.T q.4 f o.9.{ & q.o.x w.| 9...q...t.h.e.",
"N T 9.^ x x f ..M | e.w.e.x T T ..e.0...0...0.4 9.0.x  .| w.O.u.| w...o...u. .| w.w.a.w.o.{ ..| ^ O.{ w.o.{ | | { I | t.X.O.T t.{ 0.O.{ @.{ l.<.a.-.@.+.| } O.{ | t.t.| w.| { h...o.| | i.h.O.o.w.w. .| w.w.a.| x { ..w.w.h.X...6 I x | O.I I ^ I O.x t.w.{ O.t.t.w.h.a.l.w.O.{ | I I { +.O.+.O.7 6 7 I 7 I { | O.X.l.t.{ I 6 6 4 o.{ { | 4 x ^ t.h.>X{ w.x O.t.| w.0.X.{ x 6 & x I w.l & 0.T l l 5 r.1 1 h p 1 T R L L L = 2 R ~ K P ~ ~ V ~ ~ V ~ P Q ~ K K K K 3 E 2 L R 2 3 3 2 3 V F ! K.I.S.J.H.H.H.H.Y.sXdXY.=X=XsXY.Y.H.Y.H.J.C.n.[ [ [ b.b.b.b.v.C.C.G.J.J.).Y.Y.sXY.Y.=XY.Y.H.S.b.C.M.b.M.M.M.B.M.M.$.m.$.$.$.$.$.$.! $.$.' ` J J J J [ ' M.Y.Y.G.G.=X(.G.(.sX=X(.G.sXsXsX=X(.=XG.dXY.Z.D.D.Z.S.Z.V.S.D.C.N.M.M.M.M.$.$.' ` H &.H ;.$.=.=.U $.U F S S A A V V A - = 2 2 2 > 1 2 1 ; > ; > > s r . r > 6.j l : i < . < O : : n j j n :   y j u # @ O u f o O   O   c $ 8   s a 8 X w 9 N % t % q     0 + # M m o   o r % j T . ; e.l 4 O e ..N f 4 z z ^ q.^ {  .z / u.x / w.w.O.j.u.p.w.q.u.o.q.j./ q.i.( M ( 9.q.q.w./ q.M 4 e.z.i.9.4 N x 9.N / q.9.9./ q.q.^ / z /  .u.o.{ ^ O.w.w.o..... .u.w.w.q. .^  . .q.(  .q.o.q.q.p.w.i.w.p. .q.i.q.9./ / 8.p.p.p.p.p.8.q.p.>.p.o.w.d.!.u.a.u.d.+.a.d.f.a.+.| k.k.>Xd.j.u.a.a.+.o.+.o. .o.q.q. .q.o.u.>Xj.u.o.q. .( ^ x N / x.e.i.9./ 9.N z ..a.|  .w.0...0...0.w.0.T x.t...",
"M ^  ...x M ..t.w.0.t.T T g l Y 4 x f z M ..x...9.h.f u.0.w.u.j.| w.| +.| h.+.o.w.o.h.w.O.w.a.h.h.| { w.a...t.+.-.| O.+.I w.T | 6 X.{ I I { a.;.@.s.-.@.+.{ | t.O.a.w.| t.a.O.w...w...w.w.......x O.t.O.a.O.t.O.h.h.t...w.{ x ..X.X.I { 0.o.| O.O.w.| w.t.l x x B 5 k | w.O.w.O.w.{ x +.| { | x | -.| t.O.t.X.{ 6 I | w.I +.{ { { +.o.6 t.w.O.4 x ..0.x 6 x | 4 x x 4 4 4 x | { w.t.X...< { Y 0.T 5 0.L 1 T p 2 L R * R R E 2 I V 3 V V P P ~ C K ~ P ~ V V K * * 5 T 2 * 2 R 2 3 K V C S S =.A.B.J.S.H.H.Y.H.=XsXY.).Y.=XH.=XH.J.C.n.n.n.b.[ b.b.b.[ b.v.b.B.C.J.J.H.H.J.Y.H.=XY.J.S.S.S.B.B.b.$.N.M.M.M.$.m.m.m.&.$.$.m.m.=.$.` #.` G G G J J b.B.G.dXG.Y.*X=XmXG.).-XhXsXG.sX=X=X).G.=XY.;XG.*XG.G.G.*XG.Z.D.D.S.V.M.M.M.M.' M.&.&.$.L.$.&.#.#.#.#.=.#.P D A S P A A A V 2 V 2 2 < 3 p 1 2 , i ; r * i p . . i ; r ; > i j ; k r , T O , Y   ; u o % @ u O w j e r e @ c b e X   t y # t w X v + 0 X 0 o X N X + 4.+   c % % : , 0.O , 0.% & f 4 T x M q. .4 ( ( o.>.j.| 4 B q.q...x 4 x z { o.o.o.^ N p.B / z q...i./ f / e.h.9.q.z.z.f x / 9.p.q.q.q.p.p.q.9.8.q.( q.z.w.w. . .z o.x / ^ h.o.x q./ o.^  .w. .^ q.( o.( o.o.q.q.( q.q.j.q.o.q.q.w.q.q.9.q.q.8.8.p.8.8.( ( p.i.p.o.:.j.l.u.+.d.k.:.u.a.a.u.d.>X>Xj.a.w.d.:.i.a.w.w.u.o.u.i.w.q.u.h.j.u.o.9.h.o.u.x  . . ./ 9.h./ 9./ 9.9.9.e.X.o.x l.l...| i.w.o.0.w.w.h.e.{ ",
"x l M x x M 9.q.9.x ..l ..I x ..x 9.0.| x 4 r.z.l.l.4 w.w.h.w.w.| w.o.w.w.h.w.+.a.{ o.....x ^ 6 { w.u.{ x { a.w.X.{ X.w.6 w.{ T t.h.w.+.{ } +.+.} s.t.{ t.| X...I | | | w.w.{ ..x o.x w.w...w.h.w.o.a.o.h.w.| x 7 6 x l t.0.{ l.h.h.w.x I | ..O.I O.t.0.w.| a.z.O.a.O.O.{ I O.h.| | I t.X.{ X.l I 0.+.a.X.{ { O.w.| D { x t.O.+.| { 6 ^ | 6 x w.6 6 4 x 4 x | 4 { I { o.O.....x x T 4 x % g 5 X.R 1 P 0.3 R > 1 h R K 6.L L 3 R P 3 V C V C 3 * V V V 2 V K K 2 V 3 * Y L . E K ; 2 V 3 P W =.N.S.S.J.Y.Y.Y.J.Y.J.J.).=XdX=X=X).sXG.H.C.n.n.b.v.b.v.b.[ ] J J b.c.c.B.J.J.J.B.J.H.B.J.S.J.B.v.$.b.M.M.b.' ' $.N.J ` ! $.=.$.$.H H ` J G G J c.B.V.S.Y.dXG.dX=XG.-XH.sXG.sXdX=XG.).(.Y.G.=XY.=XG.=XG.G.D.G.D.C.D.V.A.M.M.V.M.&.&.' $.$.` =.` H S W F U W F S P S A V - 3 2 V - = 2 3 3 * 1 > < ; . p > ; r . p > r < > < O , ;   ; n   ; u r j r T #   O 9 T # t %   j   5.$ # # X b X # # b u X X + 0 X 9 0 0 M X   c w   e o b r % e.O r n   : & % q.f M N p.9.i.) ) z ^ z 4 q...../ | w.u.6 x / B B z ( ^.x ( B / f q.N x q.w.i./ z / ( B 9.i.( e./ N q.x.e./ q.( / N  .q./ ( / o.z  ./ u.9.q.x ^ w.x z z ^ q.u.( q.(  .o.q.q.p.p.8.q.q.z.p.q.i.( ( ( 8.p.i.q.8.8.p.8.p.p.8.p.u.h.h.u.h.:.+.a.o.d.h.Q.a.a.a.j.:.u.| O.w.i.o.^ +.u.u.w.u.i.h.p.i.q.o.i.w...O.h.z  .z ^ q.q.M  .q.f z z M M ..q.9.| x j.i.x o.0.0...w.x.{ X.t.z.",
"x z ..T x ..x T g x 0.X...n x 0.x z x  .w.T t.e.T e.M w.a.u.w.O.| | | w.w.+.| w.w.{ | O.w.{ w.....w.a.w.t.x | k.l.+.+.t.5 x T a.w.w.| w.+.s.a.a.+.s.@.{ a.+.w.{ { O.w.w.t.w.w.a.h.k.| w.w.{ | o.h.w.a.| w.{ { | u.h.k.h.T.u...h.w.t.a.w.O.X...0.O.| h.X.t.a.O.I { t.O.t.t.{ | | I ..| h.X.w.z.l.l.a.{ t.l.a.O.t.@.O.+.a.w.X.I 6 4 O.a.6 x { O.w.{ O...^ w.x w.0.^ ....0.O.| O.w.| ..9.w.< l k & I 1 2 r.1 Y ; p 2 E L * * L 3 E K 3 L V - V K P P P Q Q V * ; 3 2 p L L L * r.. 3 2 3 K E W H m.S.Y.G.G.=XY.=X=X=X=X=X=XdX).H.J.G.G.G.J.J.G.H.=XH.dXY.=X).Z.Z.G.J.c.J.J.J.J.J.c.J.J.J.B.b.b.b.b.' M.' ' ' H ' m.` $.! ' ! ' ! ` ' $.' &.B.B.H.=XY.=XY.dXG.dXsXJ.G.G.jXG.sX=X=XsX-X=X=X=X=X=X=XG.(.D.Z.Z.S.V.V.Z.M.V.M.V.S.M.M.&.;.A.$.#.;.$.;.#.#.F W U S S U P S P A A P L V A L A p 1 L 1 i > > > Y . ; ; . ; , > O j O r < O M I < n j : , . b O : $   b   w e $ b e d b   8 u 9 X   s 9 a 8 % 0 % X + f + N y X 9.e.o 9   o r ; 0.  < j % x 4   M f x z q.i.j.z z 4 q.w. .q./ ..^  .w.w.6 z ^ ( u.q./ i.z  .( u.q.e.z M 4 f & ( z f / N q.9.q.q.9.8.i.x.q.N 8.8.( 8.N ( N q./ ( / 9.w.i.p.i.z o.^ / ..o.( p.o.^ o.^ ( u.p.o.p.q.o. .( j.( q.h.p.q.q.( q.i.q.8.p.x.8.z.p.p.p. .u.j.a.d.+.a.j.u.o.:.j.+.h.j.a.| u.u.j.j.j.p.q.i.h.j.u.u.p.p.q.w.q. .^  .w.h.u.x w. . .h.q.9.w.M q.w...f  .9.{ w.t.w.{ I 0.w...h.....| x T { w.",
"x x 9.....M T w...T ..I T x z I x 9.w.0...f t.x.M w.h.w.q.w.a.h.+.O.| w.w.O.| t.h.w.| O.| ^ a.w.x h.t.{ | | I { 6 x { h.t.t.t.w...| I | | -.+.@.a.-.} { +.+.a.a.+.O.{ O.+.O.O.w.w.w...o.u.9.w.w.{ | u.+.+.x w.j.w.a.w.{ o.x 6 O.6 x I O.| x x X.x 6 | x X.w.| < | O.x { ..6 I z 6 l M ^ x | w.a.I ..{ I 7 & 7 { t.O.I 6 | I X.w.{ | ^ 6 | I { x ..o.{ ..X.{ w...{ 0.w.w./ 6 x x x 6 T I x x Y R T 5 h R h A L K L 6.E . L T.L V L V *.P V S P V V V P V V 3 K K L 3 2 L L * r.3 K K 3 3 P P F H b.B.B.B.J.H.H.=XY.H.).=XsXsXdXdXsX=XsXG.G.G.G.=XY.dXjXjXjX-XsXjX=XJ.).J.J.J.b.c.B.c.b.b.b.m.c.b.b.v.b.' m.] m.] N.m.$.m.m.$.M.&.$.V.S.G.H.Y.Y.=X=XH.=X=X).G.Y.].-X(.hXsXdX).=XdXdX-XsX*X=XY.Y.G.G.D.G.G.D.Z.V.G.M.S.M.V.A.] m.M.&.M.$.` $.&.#.F W F #.U U S F A V A 2 A A A 2 2 2 = * < p > < < ; *   . n p j . Y n < j ; < O < . Y : ; T j : m . r e w # y w # d   5.  o   y   t X b 0 w a a + N 0 X 0 9 v + 4.t   m c   d M 5.% y 0.  j n l < & % e./ f N M w.{ ( o.o.i.h.o.x z .. .w.o.u.u.z.o.o.q.( q.h.q.i.M q.i.w./ 9. .q.i.z.q.( i./ 9.z.q.9.q.M 5./ N z z 8.N ( / q./ p./ x ( ( w.( q.j.^ p.z ( o.i.q.o.( z q.( q.p.q.q.u.q.p.q.o.i. .q.w.q.8.q. .( ( 9.8.p.i.p.x.8.i.z.q.i.j.h.j.a.w.d.j.>.:.p.o.d.j.u.+.i.u.p.q.o.o.p.j.j.p.q.u.q.q.w.w.i.h.e.o.....O.x 9.w.x ..M ..e.e.w... .{ w.w.w.w.a.h.z  .u.w.....M 0.h.w.z.l.l.",
"f M ..T x x x 9.X.T 4 g X.0.T T x / T M x f i.t.>Xh.0.I X.w.h.w.o.w.w.+.w.+.+.w.O.O.O.{ | O.l.k.O.w.a.w.@.{ ^ a.w.a.x I ..T t.I x I ..O.O.a.-.t.:.+.+.+.| { w.w.j.a...O.w.w.w.+.w.w.O.O.i.q.....| | | +.a.+.a.t.+.| | { X.O.| t.X.w.| | X.{ 0.X.I X.O.I 4 4 t.w.l.h.k 4 X.x l.l.w.x o.I ..| T X.x } I I X.I x { t.0.I 6 @.{ X.X.I u.| x o.{ O.{ | { l O.x w.w.x q.w.| { 6 6  .9.0.{ T x T M , l.E I L R P L T L p 7.R * K R * * V 3 Q E L Q Q P V 3 K 3 * V K 2 E 2 * = 2 L 6.; 3 3 2 3 C W W ! B.J.S.J.Y.Y.=XdXdX=XdX).=X).).).=XG.=X=XsXsXsXjXsXfXbXzXjXfXsXhXxX].dX].].dXsXsXJ.c.J.J.b.H.B.S.V.J.C.C.C.C.S.M.B.M.M.B.M.M.B.S.V.S.Y.Y.Y.H.J.Y.H.).].H.=XH.].sX_.(.=X-XdX).=X=X(.=XY.G.G.=X=XY.(.D.D.D.D.C.V.Y.M.S.&.V.S.] ] $.` A.&.$.;.;.#.G W F W F U S A S A A 2 V A L 2 5 2 2 1 L Y L p h Y > Y > > . . . O , ; > , : j j r , k ; < r f O ; 9 : : w n m o r o 5.c $ 9 b $ 9 # m b 8 4.9 X v 9 8 0 9 d 9 M + X 9.e.o o # : O n 6.O 6.n T   & < 9.f l q.N z & ^ u.j.o.z ^ z z  .w.j.w.w.w.w.^ ( o.z z z N o.j.q./ / M q.q.i./  .x z i.w. .( q.N / M / 3./ q.8.x.8.q.i.i.8.q./ q.i./ q. .w.p./ q.q.p.( p.u.^ o.( p./ q.i.q.q.q./ w.o.( w./ q.i.p.q.w.i.i.i.i.p.p.!.i.z.i.h.z.h.h.h.h.j.t.O.d.a.h.d.d.h.z.u.O.q.u.p.q.i.i.i.i.u.p.O.o.p.q.q.p.i.8.w.h.a.0.x w.q.w.h. ...9...q.h.M f T 0.w.w.w.+.w.w.| h.h.T w.M ..l.h...w.T O.",
"^ ..q...| M 4 x M | x 9.9.x T { l x ..h.t.M t.x.e.4 &  .h.w.a.q.^ O.t.O.t.u.w.| | O.h.X.w.a.{ x a.O...| x w.t.a.I -.| t.l.I z.l.X.+.a.a.+.t.+.,.6 D { :.{ +.a.{ O.a.t.w.o...w.w.h.w.O.w.l.z.O.{ a.k.u.a.O.^ O.{ t.O.| | x { | O.I a.T x O.l.>Xh.w.h.X.h.a.0.>Xt.l | X.O.h.I w.X.h.I X...0.w.x { O.h.w.w.l.a.| I I a.t.+.| I | { 6 ^ 7 o.w.B 6 ^ ..{ x z ^ x | w.x T .. .^ { | { ..x w...x R k h.I R = r.T h L 2 2 R L 2 K L 3 r.y.2 U L V P L A V * V K K 3 2 E R > 3 R h 3 2 L ; p K 3 * P P G m.M.C.S.G.G.G.=XH.).=XH.=X).sX=XdXY.sXsXsXdX=XbXsXsXbXjXsX].].sXdXxXxXdXxXxXdXxXxX].sXdX).dX].dXH.=XG.S.S.S.Y.Y.S.S.N.S.S.S.S.Y.I.D.S.C.Y.=X=X).=X).).J.sXsX].n.G.-XdX-XdX-XjXhXG.=X-XdX=X=X*X*X(.C.Z.Z.D.V.V.G.v.S.] M.S.' &.&.` &.$.#.$.N.;.F #.S W S U U U S S A - - V A A 2 2 1 2 p , i * ; p ; > > > > n Y ; j j ; l O , < ; . R O ; i j # Y   r w r 5.y j # # M y M o t b c w 8 X c o 9 8 + + d 9 X 0 t v   0 a c o m $ o O n n O 9.$ X.< % % 9.< N N M q.o.| B w. .6 w.w.z ^ T o.{ o.u.o.^ ( ^ ^ u.q. .x q. .e.w.q.^ / 9.i.q. ./ q.N / z.e.z / 8.q./  .8.8.i.e.p.i.q./ 9.q.( 9.( q.N ( q./ ^ j.i.x o.p.( q. .p.( o.p.( q.u.( p.o.q.i. .i.i.i.q.q.q.q.q.w.p.i.p.x.i.^.z.q.z.i.| h.u.o.| k.u.!.p.o.u.k.o.o.u.p.o.o.p.p.p.p.o.:.p.i.z.i.q.h.i. .q./ ..q...w.h.w.w./ M h.^ M h...q.w.h.w.t.| o.h.h.l.z.h.4 9.h.^ T | T w.{ O.",
"x ..o.9.x M e.9.9.f T 9.9.g x 9.g h.w.0.|  .x X.x x h.h.w.o.w.w.| w.O.| w.w.h.| 0.a.w.t.{ O.t.t.w.....w.w.{ w.I 6 { x D | 6 5 w.,.t.@.{ +.} t.a.@.d.a.{ a.-.a.h.| a.O.h.a.O.w.a.{  .I O.| w...X.h.{ x | { O.I x ..I 6 | I w.t.{ | a.O.{ { x 0.......4 I l.k.a.+.= | X.{ t.| @.I { X.6 4 6 5 x ..{ 4 0...a.h.k.w.X.O.4 I 6 O.6 O.| | I x | x { x a.{ ^ { ^ { x { | x ^ | ..{ { z x x | l I I < -.6 A L R - L L 2 1 V R V P E 3 y.Q V P P S P 3 V K 3 K K K K K ; E p * y.p . p E * p L * 2 A A W J m.S.S.G.H.H.G.].H.J.=XdXdXY.jXjXsXG.sX].sXsXxXmXdXnXxXgXsXxXxXgXxXxXxXxXxX].].dXxX).sX].xX).].H.dXY.H.=XY.Y.J.G.B.Y.S.Y.H.S.B.G.G.G.G.(.=XsX=XG.).sX=XH.n.sX-X;X=X=X(.hX(.=X-X=X;X=XG.=XZ.*XG.D.D.S.H.D.S.C.Y.] S.M.M.A.&.' &.$.L.` $.;.W $.W U U F P U U U Z A 2 A A A 2 2 A 2 2 < 2 > > > p p g . 1 i r j Y . > n . j ; ; O T . 6.* g T % i k   n r : p u # p u b w o y $ t e w o   # 9 5.u   t 8 8 o o c 0 + @ m t   m d e b 5.w : : f l r g < e.& T M T ^ w...6 { / o.o.^ w.o.{ 4 ..4 ^ ..^ 6 o.w.o.w./ w.B B ( ^ z ^ f z ^ / N 8.( p.q.x.q.8.( ( ( 8.8.B p./ 8.( 9.q./ i.( / N w.i./ N q.q.( ( ( ^ q.p.( w.p.i./ 8.i./ w.w.q.q.q.w.8.i.e.i.../ w.i.w.0.w.p.p.8.p.p.p.8.8.8.8.x.i.i.q.p.h.h.p.p.o.p.( >.o.o.j.p.o.p.j.p.p.j.z.h.z.^.h.u.h.o.^ o.x w. .9.h.x.q.( e./ p./ q.| w.h.X.w.z.| 0.z.9.h.e.h. .x w...9.X.0.l. ...w.",
"z ...... .x ....9.x 4 x 0...M ..x | | t.h.x { X.O.w.x h.| x  .w.w.h.o.z.i.w.X.t.w.X.| | | l ..O.| w.X.x I x t.O.+.D { X.+.{ } a.{ -.-.-.s.+.t.@.X.+.+.@.a.w.a.k.a.a.| ..w.I +.O.O.a.O.w.| w.o.a.w.O.X.w.w.h.O.{ B ..w.+.x | w.{ | -.+.{ ..x | M g x x ..l.w.{ & ,.| { I +.7 6 +.I | X.| 0.w.0.I t.x X.{ 0.| 0.0.O.{ t.O.x | u.+.| w.+.{ { { O.{ w...| ..| O...{  . .o.| x ^ ..O.w.{ { 6 { O.7 X.L 7 5 } k L 6 2 L p R V K V 3 P P C V V V E V 3 V 2 K K K 3 K K R 3 * ; Y K 2 6.. i 2 3 2 L E W W $.m.S.Y.G.G.sX=X=X=X=XY.=XG.jXsXG.sXsXdXsXxXxXgXgXnXxXxXsXxXdX].sX].].xXxXsXxXsXxX].sXsXxX].dX].dXdXJ.Y.J.=XJ.S.S.S.S.G.B.H.S.C.H.G.G.G.=X=X=XG.=XsXH.G.G.dXG.-X=X=X(.vX;X-XdX*X=X*XD.*XG.(.G.G.D.D.G.S.V.V.I.[ A.M.&.M.&.` $.` ;.F #.;.H #.F W #.F P P S U 2 A 2 2 A 5 2 2 5 p 2 1 > 2 i p l h i : , b u O     # y . T i k k Y , i . Y i # O ; , Y O > Y 3 s y @ y > # @   9 + @   t   @ # 9 8 + + % + 9 y y c w b 5.#   # b : T e : b f j < ; & X.  6 x ..x ..^ ^ o.O...^ 4 ^ w.o./ j...x o.{ u.| @.j.h.w.u.h.h.q.o.( / q.p.p.i.p.8.8.8.8.8.z ( 8.( z 8.8.N 8.z / N z / / B N w. ./ ( q.p.w.q.( q.( q.( i.q.q.q.( 9./ q.9.q.q.8./  .q./ w./ q...e.i.i.q.e.i.8.p.x.8.8.8.p.p.p.p.p.p.p.x.i.8.q.( q.( u.o.q.q.o.h.p.p.^.i.o.p.j.j.p.u.p.q. ./ 9.q.9.i.z.M  .q.q.8.q.q./ q.w.i.O. .q.x 0.w.t.h.w.h.w.o.x I z.^ | w.w.h.w.x x w.",
"f ....x T z l z M T f N M | x T x { ..t.h.I h.z.| ..w.| w.w.w.a. .h.u.| t...w.....| h.O.X.I h.l.| t.I x t.| ..X.I | a.a.a.>X>X*.D { { { | X.a.+.+.} { | w.@.| { w.t.| { w.+.l.O.6 ..{ O.{ +.{ | X...w...6 { { O.| | | O.{ O.| O.+.+.a.w.w.t.h.t.x w.z.O.x x a.T.O.O.t.@.| = 6 6 { { T { | h.t.k w.X.I z x | x 7 | O.w.h.{ a.| | x { w.x x O.w.x w.I | x x w.^ ^ {  .| o.o.....| { X.| 6 l I L X.t.I L I X.L h L E 5 7.L V K K P Q V ~ L 3 P V 3 3 * 3 3 3 3 K 3 r.2 . 7.E * s 6.* p > h 3 2 L V W W H M.S.J.H.G.J.Y.H.=X).sX=XdX).G.dXsXdXdXxXxXxXjXxXjXxX=XjX=X].gXxXgXdXxXxXxX].].].].].dX].dX=XdXJ.Y.Y.J.Y.Y.Y.H.S.C.S.B.H.G.J.G.G.G.G.G.G.=XG.G.(.G.-X(.=XH.dX-X=XZ.-X*XG.D.(.;X=XD.(.D.*XG.S.Z.S.Z.C.v.M.D.] M.&.m.M.` [ #.` #.H #.=.F =.H W #.U P S S P Z A V Z V 2 A 2 2 1 3 1 2 2 > * > i * r ; b j y ; j j i ; b i ; : n * . ; < > n n r r j i ; > > s p ; j r O O o d + + t @ t # # 9 o   q t w e @ X b b y M o @ : y # T r % n < n g 4 < Y 4 x g T  .u.+.4 o.o.w... ...o.x  .z w. .4 u.o.B ^ a.o.o.u.^ i.u./ 8.w.j.8.p.8.p.8./ / ( p.N 8.p.8.( ( 8.8.p.N / 8.q.x.q.e.h.z.w. .q.e.i.p.q.8.p.q.p. .i.q.N ( / q.M 9.q.( p.8./ / 9.8.q.8. .q.w.w.9. .w.i.p.p.p.8.^.p.^.x.p.x.x.i.8.8.e.p.i.p.j.p.j.q.p.q.p.h.p.(  .o.o.o.p.^ ( o.( o./ 9.q.i.N i.h.M w...8.N q./ / q.h. .w.w.w.| w...e.w.9.7Xe.w./ l w.w.w.h...x i.z.h.^ ",
"B | x z z M N x x M f 9.k ..x T x ..O.{ | 4 h.w.| x u.I q.a.w...w.h.x w.w.^ | w.w.O.t.I w.w.l.O.I w.O.{ O.{ { a.w.@.t.t.{ U +.-.a.t.O._ { } -.@.{ 7 I +.w.O.+.+.| a.o.t.h.k.h.t.^ { ^ O.+.t.| | u.I 6 I x ..x I I 6 I x 6 x 4 O.+.6 ^ 4 6 I | w.M 4 9.{ I w.a.| 6 I +.6 { } t.} t.{ { I { 0.e...4 4 6 4 6 t.| x w.O.{ w.{ | 7 z O.O.h.{ x X.| 4 O.^ o.x { w.....^ |  ...o.o.^ x x o.| 6 = 7 I { *.D 5 7 X.6 5 5 1 3 Q K * V E ~ P V S P V E K 3 K 3 3 3 K K K ; K E K r.2 . Y K * p 3 h * 2 K 3 P W $.m.B.b.J.G.=X=X).Y.Y.dX).Y.=X=XdXsXdX=XxXdXxXxXjXdXxX).xX].).].sX].dXsX].H.dX].).sXsX].).sXJ.dX=XJ.).).Y.J.G.D.H.C.J.S.S.S.H.H.Y.=X=XG.G.=X).G.=X=XvX).=X=X*X-X-X*XdX=X*X=X=X=X*XH.*XD.(.D.C.D.S.S.C.M.M.S.M.V.M.&.;.` ' &.#.#.;.$.*.G ;.U F U S S L L P A A A 5 2 2 A L 2 1 2 1 p p > i p p O : . : r w O # : # : > n ; L 0.. i r O , n n : O ; p ; ; ; . u o : O # o $ d X w 9   @ a   @ 9 + + X X 0 y @ + b + t   u y @ o 9.# # T j j , < T x l = T ..x x x B ..o...z 6 4 z x w. .4 4 x w.6 6 ^ ^ 4 4 x  .^ ( N ( / N ( 8.z / / ( B / x.N 8.8.8.8.8.( q.i.q.9.8.p.q./ i.e.q./ ( q./ / q./ ^ 8.8.q./ ( ( 9.8.q.i.^ ( ( / q.q.w.i.i.q.q.8.q.q.q.q.(  .q.p.8.8.p.p.x.8.8.8.8.p.( p.8.p.i.8.j.i.i.p.j.p.i.!.q.o.i.j.p.w.p.i.o.B ^ o.o.o.^ h.w.h.9. .i./ x.9.q.N e./ / q.i.x z 9.w.h.I ..x 4 9.o.M x h.w.9.w.w.9.w.^ 0.4 o.0.",
"4  .x T f q.M ..M 4 B ..j 9.....| I | ..h.I w.4 w.w.{ a.| O. .| h.w.4 @.t.w.O.| I 6 T { I x I O.w.l.w.{ R +.l.a.t.-.I 6 } a.+.6 } } @.{ } X.+.6 @.X.+.a.O.| w.+.w.w.| t.w.| { O.+.O.{ X.O.O.| | t.{ x O.O.t.| | 6 x O.{ | u.+.O.| 7 { x ......0.O...w.h.T w.a.w.a.{ +.w.j.a.l.O.l.| O.w.X.......0.w.w.t.O.w...O...& x { 7 7 { I 4 7 | x x { O.{ O.x { ..| w.{ | ..^ z x o.u.w.w.I w.{ 5 5 I | I I D I A y.I L 5 L 2 R L 3 3 Q Q C V P P V V V V V 3 3 V 3 K K 3 * 2 L 3 E p ; > u ; 2 p ; K 3 3 Z ! $.$.M.N.C.G.=XY.H.Y.G.sXY.=X=X=XdX].dXsXnXxXjXjXdXgXxX].xXsXsX].).).].sXgXdX).Y.=XdXY.=X).Y.G.=XG.H.J.).J.J.C.D.C.C.V.C.C.C.G.G.Y.(.G.=XG.*XG.(.=XZ.=X*X=X=XG.*X*X=X-XG.Z.=X*X(.Y.(.*XD.D.G.S.S.S.C.D.V.M.S.M.M.&.&.N.' &.&.$.#.$.#.*.H =.Z S U U S S S P A L P A 5 5 L L A 2 L . > 3 * Y h =   ; y y n w ; u r r : > r . h Y # k . T o e > O j ; O Y Y s ; u ; : o o $ e 0 # 9 a   9 0 + 9   % 9 d 9 9 b @ w m y 5.w @ j b   0.% : j n , , k x 4 4 4 { ..l z { u.o.i.x ....i.w.w.M w.B o.h.4 6 w.{ / / u.k.u.q.i.w.p. .q.i.i.8.8.8.i.8.8.j.8.i.p./ 8.8.8.( q.8.i.i.q.i.z.q./ q.q.8.q.8.8.i.p.q.( q.( q.q.z.j./ i.8./ q.e.8.p.q.8.( ( 8.8.p.p.8.8.p.q.8.p.i.p.p.p.8.8.p.i.8.p.z.p.p.p.z.^.p.q.(  .( p.o.q.p. .p.O.o.i.w./ q.^ ( o...o.u./ h. .q.i. .q.M i.9.( N i.q.^ p.q.9.x o.z.h.T w.T  .0.N  .x ..q.0. .9...w.x i.w.z.w.",
"f ..M q.x 5.$ M M % 4 n x x e.w.x O.l.t.u.I w.a.w.| w.w.O.w.O.o.I o.u...{ 4 | | h.| { w.0.l.+.w.t.O.{ | O.a.+.I 6 { | @.t.+.+.-.a.} -.X.+.a.-.{ h.O.| +.{ X.+.| w.t.a.O.+.{ O.{ { | { ..{ x l { x { O.{ 6 | | | 6 6 { x { X.{ I 6 6 { +.t.O.......T ..t.O.w.| | O.I t.X.+.D { x a.I X.w.| T g { |  ...| X.w...{ | I O.{ { u.w.| { X.h.t.| ^ | 0.| ..O.w.w.h.w.| O.a.h.O.x 4 ^ a...w.| 5 I X.X.U L I X.I t.R T L X.K L Q K V E 7.~ P E K K 3 3 3 3 3 2 3 K V K V 2 3 * > Y > ; ; p ; p ; > 3 * 3 V S W H $.S.S.S.B.J.Y.=XH.=X).sX).=XsXsXdX=XxXdXsXjXxXxXmXsXdXsX].).H.).H.H.).G.=XJ.J.dXY.J.H.Y.C.C.J.M.B.Y.B.Y.S.C.V.V.M.Z.S.Z.G.S.Y.G.G.Y.G.=XdXY.=XH.=X=X=X*X-X-X=X*X;X(.D.*XY.G.Z.G.=XC.D.(.G.S.V.S.A.V.M.M.M.] M.$.N.` $.` #.H W H ;.=.*.C U W W U U A A A S L L A A V 1 = A Y 2 p 1 ; p i 2 r Y 0.i > # @ O o n O n r > T O ; ; i r . r p Y s s : m p b ; y r d $ % 9 f + o $ N   v   + c q t X 8 @ X b m 9 y @ b e # w % # e., < u x < g 0.5 2 k 0.B x h.l o.^  .x ^  .u.|  .^ x x  .9.& & w.o.O.j.6 x z B o.^ q.w.i.z.N p.( e.p.p.8.q.p./ 8.8.( ( q.i.i.q.9.8.q.M / / N N 9.8.^ / 8.( q.( q.q.i.w.q.^ q.w.N z.q.q.q.q.i.i.i.p.8.p.p.8.p.p.8.8.p.p.( 8.p.p.8.8.8.p.^.i.p.8.p.p.p.8.8.8.8.p.p.u.q.i.p.o.q.p.z  .^ B  .u.B  .o.o.( w.q.( z.w.x q.M w.q.w.q.9./ p.q./ i. .q.x x h...9.w...w. .h.i.h.N .. .9.q.9. .e.e.N M q.",
"^ M ..w.N x % f M f c f M g 0.e.w.0.o...w.t.o.w.t.x h.x ..O.x I a.l 6 w.| O.x x | | r.O.x w.I | O.+.h.T.l.u.+.t.X.k.k.@.@.l.a.-.-.I +.{ O.t.s.t.+.6 7 | O.a.a.t.w.h.l.O.u.t.a.| x { | | | { I | { I I 6 6 +.{ I { I | { x 7 { ..| u.| 6 { x x ..x I 4 x ^ { x ..{ { w.6 x I a.l.O.{ { I ..X.I w.w.w. .{ | h...I  .a.| ..| l.6 7 | | O.w.w.{ O.w.x { { ..| | | z w.^ ^ | a.h.w.w.6 w.| 7 l { } X.I P U 6 R 6 I L L V * Q P V K Q 3 ~ ! K ~ 2 K K K V 3 3 K K K 3 2 R * L ; ; K ; ; ; s 3 Y s 3 K 2 S P W $.B.B.B.B.J.=X=XH.Y.G.(.=X=X=XdXdX).dXdXsXjXjXdXsXsXsXG.dX].=XsX).H.G.H.J.J.J.J.J.Y.Y.J.v.M.C.b.B.S.B.J.S.S.V.V.C.D.D.C.D.C.G.H.H.Y.S.G.Y.b.H.S.Y.C.C.Z.D.G.G.D.(.Y.G.*X(.G.D.D.*XV.Z.D.S.S.A.V.S.V.&.M.;.&.&.$.&.` #.F &.#.F U =.#.#.U U W U U L A S 5 A A A A 2 - 2 2 2 2 > 2 > ; ; ; . ; i l . # j b : ; Y O p r : T p : < k   . r i 5.. i > > # s . r e 9 % o + 9 %   t X %   %   0 o 0 o 8 a @ 9 y 9 b w $ d d d # b 5.#   g 0.r < l I l 4 x 4 x w.x { 4 o.6  ...9.^ u.4 .. .h.M z.u.a.6 z u.6 q.h.u. .B u. .( w.( 8.( i.i.q.q.p.i.i.q.q.q.( ^ ( ( 8.q./ / q./ 9.x.q. ./ 3.e.x.q.i.q.p.o.q.( q.8.i.q.( x.i.q./ 8.q.i.p./ N / q.N p.8.8.p.p.8.8.( 8.p.p.p.p.p.p.p.p.p.8.p.^.x.8.8.8./  .9.p.p.q.( q. ./ ^ q.j.w. .q. ./ ..q.p.q.o.z.i./ .. .w.z.z.i.q.q.N q.q.9.q.q.q.^ w.i.z.h.9.i.M i.T w.w.w.q.q.N w.q.w.w.w.q.w.",
"x x 9.M x f 4 M x f x & x...X.w.{ t.h.| ^ t.w.T.h.| x | x ..{ w.O.x w.| { O.| x I k | O.I O.I O.{ t.u.O.I @.| k.X.{ t.s.@.D 6 { d.+.s.a.a.a.t.{ l.t.O.k.a.w.{ w.a.| I | { I 4 { { { I x { { { O.+.+.w.a.w.a.w.w.a.a.a.| | O.j.I 6 h.O.6 ......x ..w.x f I 4 6 ^ x 7 I B x { +.a.x x x 6 ..h.| e.x x { M ^ x 6 w.{ I w.{ O.w.t.| h.w.I | t.| X.{ w.h.w.O.+.w.h.{ a.O.a.j.+.O.w.w.I w.| 7 7 I L | I 6 5 5 I L T I * Y K r.K V V E 3 P E 3 K 3 V K 3 p 3 3 K K K K 2 K 3 K K 3 ; 6.> s K > E 3 s V * 3 S F J ! B.Y.Y.B.Y.Y.S.=X-XdX).=X=XdXsX).xXxXsXgXsXsX).jXsXsXsXH.).=X).H.J.C.B.B.B.c.c.B.B.B.S.J.H.C.B.J.c.B.M.C.V.C.S.G.S.V.G.V.S.S.S.G.C.H.G.V.*XC.H.Y.=XG.D.=X=X(.*X(.G.Y.*X*XG.S.D.S.S.S.C.S.S.S.V.M.&.M.M.&.m.` N.$.N.H =.$.F W U F F ;.A W F S A Z P A L A 5 2 - 2 2 L 1 * 1 ; < h 2 T i ; ; O ; : 5.r u y b : O p . I T O j   T y O : O . b . s w K s y u % % o o t N X N   X X 0 0 % + 9 X   t m t m @ d c @ y w r o O Y f . f T < g T T < x I O.< { w.^ .... .6 | | e.w.x  .h.h.i.w.^ 6 ^ ^ o.^ w.u.w./ ^ u.B 4 ^  .i.B N p.8.q.8.( q.8.8.q.p.z.i.8.q.e.z.i./ / h.i.w.i.e./ 8.p.8.8.z (  .q.i.q.( q.i.( ^ ( q.q.i.p.8.q.q.q.8.p.( q.p.8.8.8.p.p.p.p.8.8.p.8.8.p.i.8.p.p.x.x.p.p.p.p.q.p.p.w.w.( ^ / i.^  .q.^ ( w./ ..o.O.p.q.w.w.x x q.0.q.N x.i.q. .p.N q.p.x w.h.h./ f h.z.x.x h.0.q.q.q.9.h.z.e.9.q.9.M i.q.9.e.",
"0.N ..n M z e M x f f f X.9.9.X.| w.z.X.w.| h.I w.6 { < z.w.X.h.h.t.h.w.t.X.h.| O.I O.k.r.w.X.x | O.6 { O.-.+.l.-.@.O.{ t.a.t.t.I { 6 t.t.O.{ X.t.k.X.w.l.l.a.I 6 O.| O.X.I | w.w.w.{ t.| l.k.+.+.a.t.w.{ x 6 +.a.O.x | | x O.O.6 x x w.O.x x x | w...h.e.w.w.w.w.{ o.| w.w.| { { | w.O.....w.w.w.o.w.w.{ ..| h.h.O.w.t.x 7 6 x w.{ +.{ w.w.O.O.o.a.x w.O.w.w.w.| { | | +.O.O.l.| a.k = | I X.0.} D } L L t.R T P T y.P P K V E V K K P V E 3 K K 3 3 3 3 E K 3 K V L ; E 3 u R p ; ; ; p ; K s 3 2 - U U W $.N.I.Y.B.S.Y.*XH.G.=XG.-XsXjX).dXsX).jX_.hXG.jXdXdXsXG.).H.Z.G.S.C.v.M.C.S.B.V.V.m.[ M.] M.M.N.C.N.M.S.S.S.V.V.*XD.V.S.D.G.C.*XY.Z.*XG.*XZ.Y.*X=XY.C.=XG.D.*X*X*XD.Y.*XZ.Z.G.D.S.S.S.S.M.S.V.N.&.M.m.J &.` ` H L.$.W #.#.F F U U ;.Z W Z P A A S A L S 2 2 2 Z A 1 * 2 1 2 k p * L ; < : p p O   @ m ; T O ; 6.* O j r < O o Y y . # 5.u # , O ; Y o y : e o d N 9 + f 0 X 8 % 3.  9 9 9 0 @ c w 5.9 y a b $ d r y O m M f < 0.& l g w.6 x T I = | w.^ ^ w.w.x w.|  .{ { i. .o.4 6 z  .+.o.h...o.6 q.o.q...w.i.^ q./ p.z / B x ^ z ( q.q.( i.q.^ N p.z.( p.z.i.z h.i.z.z.i.i.z.( x.q.q.q.( x.( q.8.j.z p.q.( 8.8.8.( / 9.i.p.z.q.x.p.8.i.p.8.q.x.p.( p.p.8.8.p.p.8.8.q. .i.q.e.i.q.q.i.q.q.9.z / q.p.z j.M 9. .( ^ q.../  .w.i.w.q./  .9.9.z.( z 9.i. .w.q.i.( i.i.i.x / h.w.w.q.h.z.w...9.e.9.w.w.9.q.M ( q.8.i.q.",
"| M | 9. .T f f j f x j ..T T ..T x h.| a.X.w.4 | x h.t.O.O.O.{ x x = w.w.h.7Xt.w.O.0.h.x x O.t.{ 7 h.{ t.x { a.I X.a.X.+.X.O.+.-.l.t.} { +.a.t.6 O.{ 7 7 6 | 0.k.X.| { X.+.l.O.I k.X.{ -.w.I x x { 6 6 { | O.{ I x ..O.x 7 x | x @.{ ..{ { 0.| x T x X.....T | | x | | O.{ { x 7 x ..O.{ x ..{ w.| u.w.x w.x o.t.{ ..x O.a.a.{ a.| I x | ..w.w.I w...w.O.w.O.| | O.u.a.u.w.o.a.O.l.I 6 X.| *.t.R I X.{ I X.5 L L L T 2 V V V V K P E K V E K K K 2 K K 3 K K K V 2 K * K ; 3 p * ; Y ; p p s > p 3 2 V S W $.#.$.N.B.S.S.G.G.G.sXD.H.=X=XH.-XdXdXnXdXsX).gXsXsXdXsXsX).G.).H.J.C.m.b.b.v.M.V.B.B.V.] B.M.S.S.A.S.S.S.D.S.V.D.D.G.Y.S.S.V.G.D.S.Y.C.D.S.D.C.Z.*XG.;XD.D.G.(.*XG.G.*XD.S.D.Z.V.C.V.M.M.B.M.M.$.&.&.` $.#.$.H $.G #.H U W =.#.S U A U A S D A A A L A A 5 1 A 2 = = * ; 3 * * ; ; > ; g > r u r Y # u r u y i r ; r % % O ; O j > n r s > : s w   O O e # o % % 0 X 0 % o 9 X v   9 + X d @ X + 5.# e b $ u c y @ 4 , < $ , e.< k l T l 7 | x & 4 x { { ^ { 6 h.9.{  ...w.4 6 / h.w.| ^ z o.4 o.h. .w.^ ^ p.^ o.^ / o.q.i.i./ ( ( / i.p.^ p.i.p. .o.o./  .z w.i.i.x.x.p.q.8.i.8.p.( w.q./ j.i.j.q.i.x.z.^.( z 8.j.w.i.i.9./ z.w.8.8.8.z.i.i.8.p.q.p.8.( p.q.N ( i.i.9./ z.i./ q.q.w.9.z z 9.w.9.o.i.N  .^ h./ z z.w.x o.e.9./ i.9. .i.w.q.p.9.q.j.i.( ( ^ / / q.e.i.9. .q.w.e.q.9.w.q.9.w.q... .| q.e.q.e.9./ e.i.",
"/ N T M 4 T z l M x l l x T ..| x 6 w.^ O.6 | l ..I 5 h.a.k.h.w.O.h.O.| { & T I w.a.l.k.X.I ..w.O.| a.t.l.a.h.t.O.{ { x t.l.t.| | t.k.h.l.a.l.l.w.a.w.O.w.h.X.{ | O.a.O.w.I +.+.{ l.| I | X.x { | O.{ { O.| O.6 I 6 o.0.l.h.w.I | { ..o.w.| w.w. .o...| | ..w.a.^ x w...{ x x x x ..O.w.| x ..^ ^ 4 ^  .x j.6 | h.O.w.| h.O.| x l.t.{ I | ..a.h.0.a.w...| O.{ ^ o.| :.:.@.O.O.+.{ 0.4 6 R I O.{ A 6 L I l 5 5 R P h L 2 K P V K V K K V V K K 3 K 3 p 3 > 3 3 K V K 2 P 3 2 i > s p p ; E K s s R * * - P U W W ! W N.;.S.G.G.Z.Y.G.H.-X=X(.-XsXdXjXjXsXG.hXsXsXsXG.).=X).G.H.J.J.C.M.V.M.D.S.V.B.S.S.D.B.N.S.S.L.S.I.I.S.S.D.D.S.C.V.S.V.D.S.V.G.S.D.D.=XD.Z.=XD.*XD.Z.Y.G.D.D.S.*XD.D.D.S.C.S.S.N.M.M.N.M.&.m.$.$.$.$.;.! =.F =.U F W =.#.P #.Z P U D D S A A 5 A 5 Z 2 2 2 3 L 2 > p ; > Y > i . r < j r r j @ 6.: b n > , . % r f e   r .   p   @ # n u   y r O e   e o o 9 X   X X $ X a # X d + 9 @ + c b $ u m # b r e O : % < < g T < l I k k 4 X.| 6 ^ f | u.O.w.o.k.o...| 6 ..z x 4 4 B 4 ^ | w.6 w.>Xz.6 ^ u.w...>Xz w. .q. .p. .^ o./ q.^ B z ^ z z z  . .| M / z x 8.( B z N 8.( ( / q.q.q.q./ / ( 8.( 8.8.p.x.x.p.M N ( / / i./  .p.( 8./ 8.q.p.8.i.x.q.q.p.e.q.e.9.( / i.9. .9. .q. .q.M  .i.q.9.i.& w.i.z 6 h.i.q. . . .q. .9.( 9.i. .( /  .9.q.p./ q.q.e.w.q.( h.q.9./ w./  .x w.0.w.0.o...q.|  .w.i.q.8.M q.x.",
"X.....M % 9.T x ..x f 5 x ..0.X.a.x x I t.w.a.x X.O.6 l.X.0.0.t.| = t.O.| 0.{ 7 < x X.t.+.t.O.{ O.t.I ^ B I | { a.X.O.I { { I 6 { { { { I & 7 6 w.I I { | X.x { I | X.I a.| O.y.X.| | O.w.{ I +.D x +.| 4 = 6 x { x w.x { M x 4 I z 6 x | x z 4 4 6 M 9.w.....M x x T x { ..| +.{ ....o...x M ..i.T z { x j.x x ..6 ..X.| 6 I { w.h.w.w...| t.t.O.w.o.{ O.w.w.O.+.6 | o.{ { | w.{ O.7 I I I *.R L D D L I L T y.L 2 E L 2 K 3 3 K P K 2 K p 7.; E ; 3 3 K K K K 3 3 3 K 3 2 p * L R . u Y ; K p p . K 2 - - A ! N.$.K.m.B.Y.Y.G.C.G.G.=X=X=XsX(.G.sXjX=X(.sXdXdXdXsXsXsX=X).G.G.H.C.H.H.S.H.C.M.S.D.S.Y.Y.V.S.G.B.D.Y.G.S.Y.Y.S.S.S.S.D.G.G.G.C.D.G.G.C.Y.G.C.S.C.(.Y.D.*XD.D.C.S.G.S.S.S.V.V.S.V.&.M.$.N.' $.$.$.` W J #.H $.F $.U F F Q D W y.Z A U S S A A V A A V 2 2 A 5 2 2 > . i * * Y * p . ; j y O : O w T : : i 5   O O . n : # e.O r @ ; Y # O O u : b % : # 3.+ o % B   % o X o @ + X X   + 8 X o w t 9 m + b o o d o , k f l T 4 5 I x I | I w.6 | a.a.a.+.h.+.h.O.u.h.o.O.| { w.w.+.a.^ 4 w.z.q.& | B O.o.6 B .. .{ ( u.p.z.^.o.p.w.q. .o.p.q.u.u.i.o.o.j.w.o.o.h.i.z.8.p.8.8.8.( z ^ o.z.j.u.N z ^ f q./ 8.z ^ q.z.i.i.x.e./ B N N N N / q.x.e.8.q.q.f / e.q.8.i.( 9.q.q.M i.e.8./ z / x / u. .x N x q.9.f M h.9./ 9.9.x  .q.w.9.w.i.9.w.q.q.q./ q.^ ^  .^ q.q./ z.x.w.M z. .q...z.u.w.O.0.9.h.9./ e.h.9.q.e.p.9.",
" ...o.9.4 9.T x x l g x T O.X.{ ....| a.t.w.+.w.h.t.x h.4 | t.= 9.>X..t.O.I 0.I X.X.I | O.w.| O.{ & { ^ t.k.0.I | x O.O.X.I | X.I X.| | | +.t.h.l.| X.T x I x t.+.I 6 I { ..I 4 | @.{ I O.I 6 t.a.x ^ I { w.{ { 0.| t.X.w.0.e.9.a.w.w.x | o.0. . .x ..z x x w.0.M { ..x  .| { w.w.| ^ w.w. .w.w.O./ z / { w.w.w. .{ w.w.| O.l.t.| w.t.| { w...{ t.u.w.| w.u.{ x +.{ +.o.| +.+.O.+.t.4 I I T O.R I A X.I R X.L E L L 7.E K P V V p K K p K 2 6.3 Y * 3 3 K s 3 K K 3 L V K p E 2 * 0.; 2 > ; p i ; ; j 3 * U A C ! H K.$.' M.S.Z.H.G.(.G.=X(.hXdXG.hXjX-X).-XjXdXsXsX).).).).).H.=XG.G.G.H.H.G.H.).S.M.C.H.D.G.Y.C.G.Y.G.S.=X*XC.G.G.Y.*X*XY.G.D.D.*XG.C.D.G.C.*XG.*XG.D.G.D.Z.Y.S.*XV.V.S.N.C.S.S.M.N.M.S.M.B.&.$.$.H H H F W H F S U #.=.Z S -.Z S U A P A Z A A L A 2 5 2 2 2 L L * h h ; Y ; < i > Y w . r u O u r ; 0.n ; 6.:   N   : n r 5.. y Y : y   @ # u u . w M # $ w v X t o # y @ w d + 8 8 d 0 # $ d y m t j $ @ 5.% : x j x T l l l 5 x | x O.7 6 +.@. .^ o.6 ^ 7 ..h.| w.| ^ O.w.u...^ ..i.^ ^ h.z.w.h.w.w.l.w.w.z x o.( o.u.z o.j.i.u.d.i.o.o.u.u.j.u.u.j.u./ u.^  .^ q.( ( p.p.q.q.z ^ / q.( 4 8.^.p.8.q.p.i.8.N z / N 8.e.i.z.i.q.8.N N 9./ ( z p.9.i.i.i.p.x.i.9.q.p.( 8./ /  . .w.w.9. ...N x q.z x w.9.o.w.x M i.0.x 9.z.q./ 9. .w./ / 8./ p.w.o.w.8.i.i.p.i.x.z./ i.q.w. .h.w.t.w.w.0.h.9.T  .q...9.e.9./ ",
"..T ..T 4 / x f x x x x 4 I | O.x ..I O.i.0.I O.O.X.6 X.x ..t.| X.5 | t.| h.t.| +.O. .w.| T { w.a.{ w.T | 6 { O.l.U X.X.w.X.O.w.{ w.X.t.+.w.| I w.6 { X.X.| 4 I I X.w.t.l.T.+.| | D X.{ { I { { | O.l.u.I u.0.h.z.w.h.e.h...T ..w...w.{ 9.| w.h.{ x .... .x q.z | 9.O.w.w.w.^ x | | x | w..... .u.u.u.w.q.| h.w.| { | a.| | w.@.6 x | 6 I w...6 | | ^ | w.i.+.o.{ @.a.@.o.a.+.x O.X.7 A I U X.I U 5 X.U 6 X.< 2 A 2 L 2 3 K 3 3 * 2 3 3 > * E ; 3 ; p > 3 3 3 K K 2 3 3 * i * ; 2 Y 2 > * p 3 j i > * = - R 2 C P P N.N.B.S.S.S.Y.J.G.*X-XJ.sXhX(.jXdX-X).=XvXjXdXmXsXgXdXdXsX].sX].sX].H.H.].).).G.J.H.G.G.Y.G.G.G.*XG.G.G.(.G.*XD.G.G.D.S.D.C.V.C.C.D.D.C.V.*XG.Y.Y.S.D.D.S.Y.D.G.V.V.C.V.M.V.M.' $.' $.#.$.` ` ! ! $.H F W H F S U #.y.S D W A D U A D A A 2 A A 2 A 2 - - * 2 p * p L . u ; * Y l j r : j O . O y . e.. . Y $ f f   o   : e # y   . 6.#   y . r . s y   d m +   0 + + a w 8 o X +   + b o X   # y #   + # 5.. < k x 5 , , l ..7 l g x { 6 x | +.a.| a.{ { z a.a.x 6 ^ { { | z ^ u.6 j.^ ^ ^ ..| w.o.z  .w.6 o.o.j.u.a.( x ( z ^ ^  .^ o. .o.p.^ ( ^ 4 w.^.>.q.u.q.q.( z p.8.z ^ z ( / q.q.( q.q./ N / B N / i.q.i.8.8.9.q.i.q.x.^.i.q.q./ e.x.q.f 8./ B e q.x.9.q.p.8.e.8.q./ q.i.q.M 4 z  .M ....9.../  .9. ./ i.u.q.9.w.q.w.9.8.q.9.q.q.i.^ ^ ( p.w.i.e.q.q.p.x.q.h.9.9.q.O.X.w.| w.| h.| h.w.q.w.i.w.w.w.",
"0.x ..I l M x ..T x x x 7 x O.0.x O.w.T w.I I h.w.X.& I t.a.{ I t...X.x x 7 6 O.O.0.O.t.I 4 4 7 X...7 { X.x I { 0.x I X.I x O.t.l.w.| a.a.+.| w.O.I w.t.t.t.t.h.w.a.-.| j.t.6 { I B +.t.{ | | 7 4 x { I x { ....0.o...T x f 9.l.0.z | w.a...O.h.9...w...9.T x.x  .w.9.w.u.h.| w.6 ^ x x ..x z 4 x z  .{ ^ x ..o...x | t.a.| X.t.X.| w.| h.h.h.O.w.t.^ O.O.O...{ ^ @.+.{ { u.O.{ +.| l 6 } R I I X.5 X.I 5 R R I L 2 L L 3 P P V K 2 p p 2 > Y 2 3 p K K 3 s 3 p 2 K 2 K * L . L L 1 < 2 2 h 3 p i , 3 5 2 - * S C S H #.$.N.M.v.C.C.H.H.G.Z.(.`.).dXsXsX).sXdXhXsXxXsX].gXdXdX].`.).].G.H.).=XH.G.=X=XY.=XH.Y.G.G.=XY.=X*X=X=XG.=XD.D.D.G.D.G.D.(.G.*X*XD.Z.n.S.D.D.G.D.G.D.C.D.V.G.S.M.V.M.V.M.M.$.' m.$.' H H ` H H #.S S =.S F U F U ;.D U U A U A P P A D A 7 V A V 2 - = * 1 L * 2 i * p 1 > 2 k ; n u :   u 5.j * 5.s . :   5.f e O @ n u r ; o # @ O w   @ s O : 9   d M 9 w % e @ # w   8 + o d t t @ b u o b t : r @ T . < n x < O = 4 0.I 5 6 I { { O.{ +.a.{ +.{ +.@.6 { { { +.{ 6 x { l ^ B h...x ..^ w.4 6 w.{ o.x u.w.o.o.q...u.u.o.i.u.u...u.u.o.a.d.d.u.o.o.^ 6 w.p.q.( ( z 8.q.o.q.q.i.o.^ q.i.( / i.z p.p.z.i.i.8.i.q.p.8./ p.8.N z N e.^.q.9.i.z.i.x.i.i.8.z ( z q./ B q./ 8.9.N  . .q.e. .w.x  .0. . .x ..e.e.w.9.9.i.i.q. .w./ 8./ 9.q./ 9.^ ( ^  .w.i.q.i.x.q.j.x.z.i./ h.w.X.O.{ w.O.h. .w. .x w.w.N ..q.",
"X.x ..x ^ I x 0.o.T I T 6 X.X.O.{ O.o.4 a.x x w.x | 6 O.0.t.x = T.| 7 a.0.t.w.t.t.h.t.w.+.l.t.I 6 x | 6 X.O.4 x O.x O.O.| x I 5 6 7 = 6 | l I { w.{ I I x | | I | 6 | { O.5 I a.+.x I 6 I 6 6 { t.a.x x w.I O.T 6 x f ..0.w.h.| h...0...i.9.| w.{ I i. .u...h.{ h.z.w.o.O.u...O.| u.u.w.a.w.O.w.h.o.w.o.o.{ x ..| o.{ 4 a.| | +.....O.{ t.{ w...{ w.{ h.t.O.o.{ { | | { @.u.+.l.l.O.{ 7 I I 7 = I - I U 5 I t.X.2 2 E E 3 E K K K > p K ; > K p > p K 2 * K 3 3 3 3 7.3 E L * P 3 L p ; i 3 2 . Y p . . E 3 3 V 3 P S ! ` $.$.V.C.G.C.D.H.=XdXG.).-XdXdX-XhX=XsXdXxXdX].gXdXxXdX].].sXsX].].sXdX].].].H.sXG.dXG.Z.=XG.G.G.(.dXD.=XG.D.S.G.D.D.Z.*XY.Z.V.V.-X*XG.G.D.S.S.*X*XC.I.] S.V.V.S.M.V.V.m.&.` $.' $.H H =.#.! #.H H =.F S G S S *.S U #.P #.Z D A S S A A A 2 7 - 2 2 2 2 1 ; ; * . L i r   k . b . # p # 0.u   . y.. . , N : o r o j s . # u w @ u o y u > : O #   w w o t   t u   3.+ X c + 0   9 9 w m   t t t o   y o e k n 4 T g = k I 5 | 6 I x { O.+.d.:.k.u.:.u.^ { o.{ | ^ z ^ w.o.4 B ..w.^ o.h.w.^ o.O.4 i.w. .p.z o.( w.u.x o.u.o.^ z o.u.{ o.^ ^ @.+.B B O.u.p.o.^ ( z ^ ( B z ( o. .o.( N N ( 8.q.8.z 8.8.8.( q.q.q.q.8.q./ q.z.q.8.w.z q.^ 9.( i.9.q.q.8.p.8.x.q./ p./ q. ./ q.M q.i.f  . .z M / e. .9.h.h. .q. ./ e.h.9. .N i.q.i.i./ q.w.p. .8.i.i.p.x.i.q.i.p.q.i.x i.a.w.w.X.l.w.t...w.e.M u.h.9.e.w.",
"| Y l 4 0.I 6 { O.{ 4 l { x I w.9.x w.4 w.t.w.h.4 I 4 l.t.h.6 { h.{ t.t.-.| X.a.s.I @.I { 7 7 { +.t.+.| 6 l.k.O.l.R 6 4 5 +.7 { @.| t.{ O.I X.X.& t.x I x O.| 5 6 X.+.7 7 | -.I 7 7 | { | X.O.I +.| x I t.| X.t.h.w.x O...w.T & x  . .x i...q.w...f { x T ^ | 4 x o.4 z | z x & o.{ @.w.u.j.a.a.a.o.u.o.u.w.+.O.u.u.| @.{ { { w.4 x w.I w.o.w.w.{ h.a.w.a.l.w.I +.a.t.j.+.a.+.,.t.X.O.- t.6 P I X.= D - A I I y.2 2 R R 2 2 U 2 p i p K s 3 3 p p p s 3 ; Y K 2 V * E 3 K 3 P V * L 2 2 ; L 3 > K ; p 2 ; E 3 2 E 3 - U F F &.N.M.D.D.G.G.dXsX=XH.dXdXxXH.dXdXjXsXdXjXjXnXxXjXdXzXsXxXxXsXgXxXjXgXdX].).jXdX=XsXH.dX-X=X=X(.mXJ.=XV.=XG.G.C.G.G.V.Z.H.Z.(.D.*XV.G.G.G.D.D.C.S.Y.V.D.M.N.M.&.S.$.M.$.H ` H &.$.#.#.G G F W F S F F F ! F S F #.*.Z U D S A L S - 7 A 7 = A = = * 1 * < 1 ; < k h * T   > i r . r > y * ; . ;   ; m % : w O i O r   y w s : @   : . i ; :   i @ : # @     @ @ # o o o 0 % $ o m # @   M 5.#   # r b o f f < r 5 . 4 L 6 I x I = I d.a.{ { ) 6 6 ^ w.B ^ x 4 z w.& & o.| ^ 4 +...| ^ x h.w...j.| q.q.z q.z.q.u.i.h.j.6 o.:.!.>.d.j.o.p.>.6 ) ) @.!.k.q.^ o.( q.o.p.( B ( z B q.i.N 8.x.8.8.8.8.8.x.p.8.i.q.p.( p.q.8./ 8.q.N ( z  .q.q.( ( / M ( / / q.w.( 4 ( / ( B i.x z M x f x 9.h.w.9. . . .( x  .q.9.^ q.i.x / w.w.q.9.9.w./ i.M ( q./ q.i.q./ i./ i.z.w.N / a.w.w.O.l.e.h.w.w. ...w.w... .0.",
"....x I O.6 6 l X.{ 6 I { I I x I o.0.i.x q.9.T.h.4 | ..T w.| T 0.t.X.a.a.{ I ,.6 7 6 I | } | t.t.{ +.R +.{ t.{ O.l.U a.O.| | t.O.+.+.a.+.a.w.6 6 w.I X.@.| w.s.t.h.a.t.O.t.a.{ 6 +.t.{ } { X.{ D { { I t.{ { | | w.O.t.4 { w.j.x w.w.| 9.x ..q.X. .g  .w.z w.9.x ..6 ..a.u.O.{ | 6 { | { 6 6 x ( ^ { ^ O.o.| ^ { ^ x +.| x 6 a.O.| w.o.O.x t.k.t.a.O.{ | O.+.+.+.+.@.O.I @.{ X.@.a.l.= I I R U l.- X.*.l.R P X.U 5 E R 2 2 p * L > > p > > s 3 3 K K p * 2 p p K 3 V V * 3 2 2 E E ; R K 2 ; 3 L 2 L p * > * Y E 2 - P W F #.` %.M.V.G.S.G.J.J.).sXsXsX=XsXdXsXcXbXbXxXxXxXxXgXnXgXnXxXxXxXjXxXxXxXgXsXjXsXsX=XsXdXG.*XdXdXmX=X=XC.G.D.(.D.D.Z.G.Z.D.G.*XV.G.Z.G.Z.D.G.D.C.D.Y.' S.$.M.B.$.N.$.&.;.$.$.H ` H F $.W W #.H W W H S S G U F *.U #.- F S L A S P 5 2 5 = = < < < 2 1 < ; L ; , * < < * < ; . T . ; p . p s . Y . # > b : n y w   n u Y b 5.  ; O   # i u   ; u y ;   @ y n @ X o m %   : $ f c m e y y y c @ y M : e 4 j M O , < k k T 5 = 4 | 6 6 { O.| | { 6 { o.w. ...|  .x T z.O.6 x u.u.x z o.q.w. .h.M e.h.z.B ^ j.o.p.u.( d.^ !.u.) a.,.Q.j.d.:.>.^ ) >.:.:.+.d.o.^ ( >.^ q.j.B o.u./ p.q.q.q.p.8.8.8.N 8.8.z z ( ^ / z  ./ p.8.8.8.( w.N (  .q.( / q.i.h.( z z x q./  .x q./ h./ 9.h.w. ...T .. ...q.9. .x /  .q.o.q.q.i...q.q...N w.i.i.9.e./ 8.i.i.x.i.p.i.i.p.z.w.q.i.T.w. .T | z.w.w. .w.| 9.e.w.x  .9.",
"T ..{ | O.I { 6 X.I z I x T ..x w.9.x ..T 0.h.h.0.4 e.x 0.{ 0.a.l.h.| h.{ I w.{ a.s.h.a.X.| t.+.t.{ w.} t.I +.-.w.l.{ t.-.I t.-.6 w.| 6 | O...O.X.O.I O.X.x 6 U { X.{ X.6 I { B 4 { O.X.w.O.| I 7 I { { +.{ | O.I | I w.{ | O.X.w.h.w.x o.h.h.O.h.h.u.w.w...{ ..w.o.q.w.h.h.o.| o.^ o.u.u.+.{ +.+.o.u.{ | o.o...) | | o.@.o.| a.| a.w.O...x O.w.z { | { | @.{ | o.@.| O.+.a.a.k.+.s.-.x 5 L 2 5 X.Z U X.r.} U U 2 5 L R P 2 2 2 Y , s 2 ; 2 p p 3 p 3 > 2 p ; i K 3 3 L 3 L 2 2 R V p 7.Y 3 2 2 E ; . p p Y ; ; > * 2 V W Z U ` ' &.M.S.Y.=X=X=X=XsXsXsXdXdXdXsXxXxXxXdXcXjXjXjXxXgXbXgXxXxXjXsXdXxXgXsXdXsXsXsXdXdX).G.G.-XY.Y.=X*XG.(.(.D.G.D.*XZ.D.*X(.V.Z.D.H.D.D.Z.S.C.C.S.$.S.N.N.S.N.N.$.$.$.&.$.$.H H H W $.;.H F F U F H F C H U *.Z S A U D S A P P V 5 A 5 - < - 1 < 1 l * h . i . 1 O = < < > Y ; . Y . > b O b ; # y Y   < O w . :   Y   p r   5.6.  r u r   # : # @ o u w   9 @ o d o o 0 d d m @ w $ @ y   w O # o o e k w T O = I L x l 5 | I { I @.O.+.o.| u.o.h.^ z w.h.e.w.h.{ ..w.O.^ ..w.O.l.^.O...q.o.h./ ^ ^.p.^ u.z o.o.^ ^.:.@.f.a.a.:.:.:.) { >.:.{ u.o.:.u.o.z ^ o...u.o.q.i.z z / ( 8.( 8.N v N 8.p.8.8.8.q.q.( w.8.8.8.p.8.q.j.w.w.p.z.z.q.q.q.i. .q.i.e./ x x z q.z w. .q.w./  .w.i.w.9.o. .u.i.u. .( q.p.i. . ./ w.w.q.N x N M  ./ q.e.q.( p.i.e.i.8.e.^. .^ w.h.w.| .. .z.q.w.0.9...9.w.e. .i.w.",
"| L 6 x I | | l O.I { | I I | l x x M x x 4 z...B x | | | x | I 0.l.I 6 6 I { I I a.t.l.I X.| l X.X.t.@.X.{ X.t.y.@.X.{ a.w.t.a.7 t.a.@.t.| { t.t.O.I { t.t.+.| I 6 @.I I +.| X.k.-.{ X.l.t.+.a.a.+.X.+.w.I { O.x { ..w.O.w.| ..I h.O.x ..t.w.9.0.q.w.{  .t.q.u...x o.o.w.{ z x h.{ 6 ^ { o.O.a.w.u.a.+.o.+.+.a.o.u.+.@.+.a.a.w.^ u.{ w.O.+.a.O.| a.s.O.| +.O.@.-.+.a.s.a.s.a.a.l.l.| U 5 *.7 7 I A I I U I R X.I L L U R A 2 2 E > K p 3 p K p 3 p ; 3 Y p 3 K V * 3 3 2 3 V 2 3 p 7.L 2 L Y L K 2 > K K Y p 3 2 2 2 - U - S S #.&.&.M.B.S.H.H.H.dX].gX).jXdXgXjXmXvXxXnXxXxXxXxXgXnX].nXbXxXxXxXgXsXsXbXbXhXsX(.sXdX=XG.mXdX=XS.(.Z.G.Z.C.C.D.G.D.G.D.D.S.(.Z.D.Z.D.S.S.V.M.M.' S.M.v.M.&.m.$.$.H $.#.$.` $.#.F $.=.W F F H U F H S S W W A U A U P L L A A V 5 7 I = I . 1 = ; ; > . h 1 h Y . g . * Y > ; ; y 6.. > > p n . T g   w . w r : r b . e.# # b y : T . r T b   ; 6.u d @ $ 3.m X e v   9 t   m   b b M 5.o y   b j d 5.l ; T T I g 5 5 I 6 I 6 x @.O.+.u.+.u.+.^ u.o.u... .4 ..w.a.i.{ ^ 7 u.+.x | x 4 O.h.z.+.u.p.p.i.q.p.>.u.{ j.@.+.j.a.>.{ o.!.u.>.>.d.u.o.f.:.+.j.:.B ^ o.( z.p.x p.u.z q.q.8.N 8.e.8.p.8.e.8.w.9.( / ( q.N 8.8.8.8.N q.8.8.z z z ^ ( q.q. ./ i.i.q.q. ./ q. .q.x ^ o... .w.9.| w.w...q. .o.q.q.q.w.z.( ( 9./ 8.h.i.z.i./ q.i.z.i./ e.i.p.q.8./ e.HXi.e.w.w.w...w.O.h.0.i.w.h.q.o.9.9. .e...",
"t.T | I x X.I 6 t.I 0.t.O.4 | 5 4 q.o.0.I 9.z.I 6 x I | x x t.4 I T x X.0.{ X.l.t.w.6 I 4 t.z.h.O.t.a.l.a.t.+.X.+.6 t.x O.{ I | { { I +.4 { { T I R { { O.t.| I I 7 w.{ { { } | t.| I { a.I 7 6 O.I 4 L I 6 6 I | { ^ I 4 x x ..4 6 4 | k.0.x  .u.0.O.z.h.O.h.q.w.( w.q.a.u.p.u.u.| u.a.j.k.w.w.| o.+.u.o.@.| :.+.| { @.+.o.@.@.| | 4 o.{ { | { { :.l.a.-.w.+.{ x { @.+.+.:.+.+.,.a.} I 7 l.R U *.} I *.-.7 A I *.R 2 A R L 2 L p ; L p ; p 3 p ; > 2 K K > > E R 3 2 * P 3 L P * K r.3 2 L > K E K p Y 3 p p s Y p 3 * Q V A C G H $.N.G.Y.sXG.H.fX].dX).jXdXjXjXjXcXjXxXxXxXjX[.gXbX].xXxXgXxXxXdXgXsXgXsXsXsX).=X-X(.G.hX=X=XH.=XD.(.G.G.*X=XG.D.*XS.D.D.G.C.G.S.C.S.S.S.S.S.m.V.M.m.M.;.&.$.#.H H H #.H H #.G F F F G S F H F ~ S Z W F U =.A A A A A A V 5 1 - I = h . < < . > ; . L < > ; ; i ; . i > . , * x.* ; u p e.# y O O j : o > u #   . O   T b # s ;   . b O y . m   @ o 9 + w $ X N o $ e   9.$ y b b w @ @ y r #   n 6.O g , . g 5 4 6 5 { 6 6 { { @.^ { o.{ 7 ..o.o.^ h.w.w.x 4 6 & ^ O.a.{ ^ | x k.O.h.6 ^ u. .o.>.p.^ :.a.o.j.@.:.j.@.+.:.:.j.{ ^ 6 | a.a.o.:.u.o.^ { o.o.^ u. .u.B  .o.o./ q./ q.i.( 8.8.q.8.p.8.8.( q.i./ 8.p.x.p.8.8.8.8.q.8.3.( / N ( N 8.N N 8.i.8.N x.u.q./ ( w.o.w.a.o.o.i.h.o.q.o.w.q.o.o. .i.( i.h.9.q.h.i.h.q. .h.i.i.i.q.x.8.e.i.q.q.i.z.i.w.w.w.i.q.h.0.h.0.i.w.e.w.9.9.9...w. .",
"O.x X.x 4 I 4 x h.| +.O...4 | T l  .x ..x h.z.6 ..{ w.x T X.w.0.x ..0.x T h.z.T O.X...t.| t.t.R O.I X.O.t.+.X.{ a.t.t.a.+.X.O.+.+.} @.a.O.t.w.X.| O.h.t.{ { I { +.I { O.t.= O.| | I x 7 x 6 I { { I 6 { +.u.t.t.h.w.O.| | | { O.e.| x w.z.O.x x O.z z x 6 ..q.o.j.o.w.o.i.w.a.w.w.o.w.w.w.a.h.h.j.u.w.a.u.u.O.a.+.:.a.a.a.:.a.a.a.d.+.a.+.+.+.+.@.{ | @.@.o.-.a.,.l.+.,.@.+._ { } { -.X.7 *.} X.-.*.U X.*.U P I R U L U R 5 2 R i > Y L 3 K p K 3 V 2 p K 3 2 E A * 3 3 2 3 3 2 2 ; E 3 K K * L K s * K K p s ; p K ; * L V A Z P F H ` B.M.H.J.G.sXG.).sXsXmXdXmXhXxXjXxXjXxXjXxXxXbXxXnXxXxXnXxXbXnXxXsX].dXjXsXG.=X=XG.G.H.*XG.*XD.H.C.G.G.Z.*XC.D.Z.D.D.S.V.I.D.S.C.V.V.V.M.' &.$.$.` ` ! H H $.#.H H H H =.W H W W W F F W H F *.S W A U *.U A D V A V 2 A 2 < 5 2 1 = 2 T ; h ; * h ; > O < l < < O ; Y ; r k s p ; ; b * O j f . i u #   u n b . n ; 6.u ; ; y y O O Y # @   $ O w   $ 9 % c d o e o 4.9 w e e $ M   e.y f # : x.: k 5 g g 5 h T I R x x +.a.u.@.+.u.:.u.u.o.^ /  .w.h.w.o.u.| ^ w.u.u.h.h.u.o.| u.:.:.| o.!.@.>.^ u.j.+.+.a.O.a.@.+.a.+.>.o.@.{ a.d.d.a.w.+.^ ^ q.j.i.z p.o.o.i.o.z z p.8.z 8.q./ 8.8.e.8.8.p.8.q.i.i.8.8.8.8.p.x.p.8.8.p.z.i.i.9.8.w.q.p.q.8./ 8.N N 8.z x ^ z x z x  ...x x z B  .( q. .( q.( q. .i.i.i.i.h.q.e.q.i.HXN 9.e.( q.( p.z.h.i.z.x.w.w.w.x.0.^ q.x o.9.w.M x | ..9.i.M e.w.",
"w.T O.| x X.I X.t.| I | l 6 ..T q.T T x ..e.z.0.I 0.w.x w.4 4 0.l.x.l 0.7Xw.0.l...0.a.h...t.i.X.t.| X.O.t.| t.w.w.+.| t.+.t.a.t.:.a.t.x a.O.t.l.w.{ | I 5 { I a.t.| D w.a.4 h.X.7 I | { @.X.| | | | { -.O.a.t.t.I | w.X.| ..T a.{ x w.a.0.| h.l...{ h.h.q.h.x 4 >Xu.^.i.i.u.o.o.o. .O.w.O.o.| w.O...{ o.{ +.o.a.{ :.a.o.+.+.u.u.| u.a.a.:.d.k.a.a.a.l.k.s.a.a.,.a.l.a.k.+.k.s.k.a.-.T.-.D X.-.*.X.-.-.} X.X.} X.I U R R E - 2 R p 3 E K 3 Y K K K 3 3 3 K 3 K L K 2 V V L K 3 2 K * 2 2 L K 3 L 3 p ; E Y s K s s K p 2 2 3 3 V A Z G G H ] S.G.J.=XG.G.sX=XdXjXxXgXbXxXxXxXnXbX[.xXxXxXxXxXxXxXbXgXgXsXjXfXdX_.-XH.).dXdXG.G.dX=X*X=X*XC.*XD.C.*XC.G.D.D.S.V.V.D.S.S.M.V.M.&.&.N.m.N.&.$.$.$.H ! $.! ` F W W H F G G S Z Z Z Z W S ! F U A A } R A P V V 2 2 A 5 = = 1 > > > r.* h i . 6.O r.j < L * 1 > ; 6.. p O ; p p # . s : 5.r o g j y . . u O j O # M   . b O   u s # O # d o # w @ @ # % 0 d   d o d o @ o $ b m   5.e O e f z.k j i L < 5 l R I x 4 I { +.+.x @.u.o.u.k.q.u.a.o.O.w.{ ^ z 6 +.j.a.o.{ +.| @.+.a.6 d.k.{ @.>.{ @.f.) @.a.a.@.a.a.+.+.@.{ +.@.+.j.+.{ a.u.@...| O.u.j./ q.>.z u.w.i. .8./ N q.x.8.e.8.e.p.8.x.8.i.x.p.8.8.8.8.8.p.8.8.8.p.e.8.8.q.9.q./ 8.i.x.q.p.N 8.8.( o.o.^ w.w.w.o.^ / { ..^ i.( o.q.q.p.q.o.q.i. .i.w.q.q.p.9.9./ 9.i.8.3.p.z.z.z.x.q.z.^.z.x.z.^.h. .h.w.w.i.i.w...w.M o.h...w.9.",
"0.I 4 k 6 { x { R | x O.6 x l 4 t.z f N X.h.x.w.x 9.T w.h.l O.w.5.l.I i.e.X.l.a.| { 0.O.I a.h.0.a.w.l.t.O.{ t.+.t.t.k.l.t.O.X.{ x +.+.+.t.w.O.{ I 5 x I x a.I 6 z.t.O.t.t.{ { 7 a.t.t.w.t.| O.I { I 6 +.X.| w.w.w.O.w.{ x 6 4 O.t.l t.h...g l.w.x x z | q.w.o.h.i. .HXh.u.u. .w.u.{  .w.w.w.u.h.O.a.j.k.u.a.u.h.:.+.+.o.u.+.a.d.:.+.:.a.u.:.+.d.j.d.d.+.+.a.d.u.a.k.a.>X-.OXf.oXqX>XGXI 7 y.l.*.A U X.#.U D A *.R I 7 - L L L *.i * p ; * K 3 2 E K K K K 3 K R L 2 2 * V A L L V 2 2 V 3 p L 3 3 Y > K s > K ; * p s 3 p K K V V V S S H [ M.C.b.sX).sXH.sXdXcXdXdXbXzXxXxXxXxXxXnXxXnXnXxXnXdXxXxXxXgXgXsXsXsXsXH.G.(.hX=X*XG.S.J.=XY.C.G.Y.S.*XS.I.D.D.S.V.V.S.S.V.S.V.N.M.m.M.` &.N.H $.$.J #.#.F H H $.H S U W ` U W *.#.=.F S U S S D U W U - A 2 A V 2 P 2 & < < 2 . > 0.  R   Y ; ; i * ; , O * , h . > ; i ; # p : . 5.O , . Y j o n j j j b   O 6.# # n . j ; . O 5.p @ 5.  w d t + t   % X X 5.o 5.o b e e d   M b O j n . j j k r < h | l 4 l w.{ x | -.o.6 +.u.o.u.a.i.w. .z.w.o.w.{ +.{ ( B { @.^ +.+.@.u.{ +.@.{ ,.:.:.u.>.o.+.d.k.:.l.a.@.| O.a.d.+.| +.O.a.+.w.| w...^ w.z  .h.i.z o.^ i.p./ / p.q.8.p.z N / 8.8.q p.p.i.p.N N N 8.N 8.8.8.8.8.8.8.8.p.e.8.8.i.x.p.8.e.p.8.8.8.^ o.h.o.q.w.w.a.h.j.h.u.q.!.o.i.z.j.i.9.( q.i./ q.e.e.i.w.q.z.x.q.p.( 8.p.UXp.9.j./ i.x.q.9. ./ w.T z.i.9.x  .9.9.w.f  .z.9.w.9.",
"0.x 4 I 6 4 T ..I x I | ..7 x x M ..x z x 0. .w.4 ..0.w.X...I ..w.T x | h.w.{ I | O.x { 6 I ^ x 7 O.{ +.t.h.w.6 O.O.| ..6 | +.{ O.t.O.{ 6 x ..I ..w.a.w.I { 6 O.w.X.| O.X.h.l.| w.O.X.+.t.t.+.O.t.t.O.w.+.x x { | w.O.| 6 | O.O.w.w.6 l 7 4 x ..O.|  .O.w.a.u.a.h.^ z.i. .h.o.u.w.q.x / O.h.h.z.w.a.w.O.a.O.a.a.| d.a.a.~.k.a.d.u.l.:.o.u.a.:.+.k.a.a.j.l.k.k.a.l.j.a.+.+.@.+.7 6 { } | D } } U U X.D U *.I A } P I 2 U 2 I 2 I K Y K i p 2 2 K V K 3 V 3 P L V V 2 2 2 K A 3 3 L P P 3 K E 3 K ; 3 K ; 7.O s p O K Y ; p 3 2 E 2 A - C #.H J v.Z.G.).(.sXsXdXdXsXdXbXgXnXgXxXxXgXxXxXxXnXxXxXxXxXbXgXgXsXxXH.sXsXG.).C.nXG.D.G.G.Y.(.Y.D.Y.G.S.D.Y.I.S.S.D.S.A.A.M.V.M.M.A.A.&.&.' &.$.H H H H H W H $.S ! H S F H #.W S G G W S U W P W Z A U R - - L V 2 2 2 2 < 1 1 * < . 6.i > p i p ; > Y f < h g ; l * . ; i Y . . ; 5.; f r . ; < O ; O O . 6.o o ; o 5.Y O u   , : b u w O $ e w 9 @ # $ 9 o   f %   c r e y w 5.y u $ k o % T r ; g x 1 l g < x g 0.4 | O.w.{ w.+.a.p.o.w.| o.a.h.^ o.| u.w.O.{ +.j.{ { ^ { +.,.{ ,.a.k.d.,.a.@.a.a.s.l.:.a.X.+.l.t.d.u.{ a.{ @.a.j.a.w.^  .{ x  .^ u.^ o.h.4 ^ o.^ o.o.q.i.q.x.( i./ i.8.p.x.8.p.8.p.p.p.x.8.8.p.x.x.p.i.i.8.8.p.p.x.x.x.p.8.p.x.8.p.q.p.p.p.j.i.h.o.w./ ..q.i.^ / q./ i.( z ( z / 8.p. .i.p.z.i.q.q.i.i./ q.e.N e.i. .N q.x./ / q.N / 9.N w./ i.h./ w.q.0.9.q.0.i...",
"w.T I | x 5 | | t.O.= x T & x g T 9.x x f ..T O.M I x T M ..x T x ..l x h.6 & O.{ { 6 { +.+.O.a.X.k...4 7 O.w.{ 6 w.l.k.{ | t.t.a.+.{ | X.a.h.X.X.w.I x I w.I 6 7 = 7 4 6 = I | 7 6 I | { x L I ..t.X.I { I { I 6 { x 6 7 o.| 6 w.I | 5 { { o.X.x h.h.6 o. .x x h...o.u.w.z./ { ^ ..o.9.o.w.9.| o.| ^ 6  .^ O.O.x u.| x ^ { o.+.@.d.j.:.+.+.:.u.+.+.a.d.+.+.a.w.-.a.a.s.d.+.T.k.-.P.>XD 7 } X.I } *.-.7 X.I } L } D 5 U U E 2 A 2 > E > 3 K 3 P K K V K V V 2 P P V - 3 2 K V K L 3 3 V P 2 3 K ; 3 p > 6.; > s ; 6.6.> K > 3 K 2 L 2 A W F G ' &.D.Y.Z.G.Y.dXmXjXxXgXjXgXxXgXnXgXxXxXgXxXmXxXdXjXxX].sXdXbX].].=X=XdXC.-XH.J.G.=X=X*X*XS.G.C.C.Y.D.S.D.D.S.A.M.A.M.N.M.$.&.M.$.H H $.! H #.! H #.F S #.S F F #.W S S F #.*.U W S H W A U V A P X.V A 2 A 2 K 2 1 5 = < ; 1 ; T > > . p . i ; h 1 . r g   < i r . , Y y u s i . r k j % O o k y b j   p n u j b i   # ; i # : O w o   y + 9   o c   o d t o 9 c # X d % 5.$ d r d % e n f n 1 ; R k I 4 T I x = w.O.o.{ o.^ o.u.o.o.o.o.^ ^ ^ O.h.h.+.O.o.o.@.6 @.a.,.{ +.,.d.,.:.@.@.,.,.d.a.+.a.@.d.t.d.a.@.| +.@.a.O.u.a.u...| ^ ..O.o.w.x ^ { j.p.u.o.z o.( B /  .p.z.q.j.8.i.8.N 8.( x.8.x.8.8.x.p.x.p.p.8.8.e.x.p.p.z.8.8.8.8.8.8.z.x.p.x.z.h.u.q.w.q.i.w.p.q.q.o.i.q.8.q.q.p.( ( i.q.z.^.z.i.z.i.e.q.e.q.f / 8.i.e.p.z.j.i./ w.z.i.w.x.i.i.i.i.i.q.T  .M o.9.w.w.9.z T ..",
"0.x x T I x R { O.O.7 x T ..T 4 x 9.N l { ..T 9.w.| ..9.I o. .{ ..f o.w.x I a.| w.+.6 x { { 6 O.x w.+.w.a.a.a.w.x O.a.l...O.+.+.{ +.| O.{ X.+.X.4 I 6 I | w.X.I x X.a.{ t.| O.I T x 6 I | O.w.w.O.O.{ w.a.t.t.w.| { { t.O.O.| +.O.I ..| w.z.0.7 { x I z j.z.z.w.z u.w.z.u.j.9.M x w.w.X. .w.h.O.+.o.O.| h.O.j.u.| u.u.d.j.a.u.{ o.+.a.:.@.o.o.| { ^ { { { +.a.+.t.>Xk.k.s.a.k.s.k.a.k.X.} X.I D D } y.#.} U U *.R 5 A A R A L 2 L ; K ; 3 K 3 K ~ K V P V V V P P V V 3 V P K P K 3 V 3 K E V K K > 2 i 6.; ; ; ; K p 3 Y p p K p 2 V V A Z Z F $.V.C.M.Y.=XsXmXsXxXdXxXsXxXsXnXgXxXxXxXxXxXxXxXgXxXjXxX].sXH.sXsX).dXG.-XY.=XG.G.=XY.G.C.G.S.V.D.S.S.A.S.V.M.] A.&.M.&.` ` $.' $.$.&.#.W $.W H H H F U S S H W W H W #.U W F W S P S U S I A A E A 3 5 2 3 2 2 1 L = 1 < > > p > i i > . , g i * g < , . > ; i ; > i p > s * ; O < < j . r y : . r O r j   r 6.u ; ; u O # u y O c y # $ $ $ + 0 % 9 f d   @ M w : y o d # % r # : M g < l < g L < T 4 X...4 x w. .| x { z o.w.o.o.:.p.o.| w. .a.u.{ o.a.u.u.O.+.a.u.@.@.I +.s.,.,.,.k.k.k.d.,.k.:.g.a.a.+.{ { u.a.:.u.h.a.i...O.o./  ...u.M ..u.j. .~.w.^ u.( u.i.B N q./ q.^ 8.8.N N N p.N N 8.p.8.8.p.p.p.p.p.x.p.x.x.x.8.8.8.8.8.8.8.8.N N z 8.q.p.w.p.w.q.h.z.i.q.j.i.j.j.^ ( q.q.i.q.j.z.z.q./ M z q.8.z q.p.q.w.( w.e. .e.i.x.w.M 9.i.e.9.q.i.e.p.e.w.9.e.q. . . .T w.w.",
"9.I x T { I O...6 l I 4 I h.g T f ..x x  ...M ^ x x ..x g x T x l x l x O.x x +.X.l.@.{ { ^ I w.O.O.{ O.O.o.w.t.a.w.w.w.| a.u.| +.t.t.u.0.O.w.| t.0.4 x I ..I 6 O.0.{ I w.t.X.O.I { R | I x 6 I ..X.X.O.| g 4 ^ I t.h.w...| { 6 x 6 I X.I a.w.| I x h...{ & ^ { q.a.4 9...| i.z. .h.q.x ..0.x.w.M | k.w.+.6 w.w.h.+.z { w.+.u.a.>.{ o.u.+.+.a.a.a.h.a.O.| O.a.w.+.a.O.+.a.k.k.t.-.s.U.+.D D - F A 7 } t.U I - r.U 2 L L R 2 2 L r.Y 3 K L K V E P K V C K P P V L V V V P E K K V V P V V Q E 3 * 3 ; 3 p p K ; p 5.p i E p 3 p 2 2 2 A A S Z S ` m.V.M.dX=XY.sX=XdXgXdXxXdXgXxXsXjXxXgXxXxXxXsXgX].sXdX).].H.Y.=XZ.C.G.=X=XY.G.G.Y.S.D.C.D.S.V.D.S.S.S.N.&.M.A.m.$.&.&.' $.$.! H #.! H W $.S J W W ! W F W W H C F -.W Z H W #.W W F P U P A L I P 2 R p P 2 L < T * , > < 2 > > > Y > * 1 T 1 ; Y ; 5 i p . O p > O > ; 5.. s : O : g .   j 9.w g O   Y O j r   ; : u # n ; O b : O   3.9 9 w $ % o X M w 9 e b m $ e e c u b f f f n Y T j k k < T < k 5 & T ..{  .4 .. .u.u.i.o.{ / ^ ^ h.o.o.{ ^ ..O.u.a.+.@.+.{ { ,.d.k.a.-.:.d.d.,.a.a.a.a.{ +.O.{ O.+.O.:.a.O.O.a.q.u.o.o.q. . .x q.^ o.w.o.o.>.o.o.o.w. .p.p.q.q.N N / 8.!.x.p.p.i.q.8.x.8.p.p.8.p.p.8.p.p.p.8.8.8.8.8.x.x.8.8.8.p.8.8./ 8.( ( / / ^  .z x ( o.i.o.8.( ( p.x.p.p.q.h.q.^ 8.p.i.w.i.9.( i.^ N M M / w.e.x.9.e.z.z.e.e.i./ e.i.8.i.i.q.9...9...| w.i.i.9.",
"T M ..I x 4 O.X.{ 4 k x x X.& e.l ..x x T x z f n ..t...T I w.x x B z ..x z x 6 O.z.a.w.+.{ 4 6 x ..O.O.o.w.O.x { { ..^ l | ..+.| +.k.w.X.6 t.h.  g T t.| I | I { O.| < x k I X.O.| | | R I x I = 6 x 5 I o.{ I | I | t.+.x I | O.4 x O.O.6 w.w.4 O.w.4 a.| | l | 7X9.l  .i.>Xt.4 0.X...h.h.9.0.w.x .. .h.w.i.6 6 O.h.h.o.^ o.i.u.:.a.h...^ | { O.w.w.9...0.o.{ | { 6 6 @.O.@.} l.-.t.D 7 F I t.U 7 X.U *.*.5 D U L I E R L 2 V Y E 2 L 2 V K Q P ~ V 3 ~ P P S V V C * V ~ K K V V E K K E V V 2 K K p p K Y * Y K ; p L 3 < L L 3 2 K L L P S C #.M.N.Y.H.G.dXsXdXxX=XxX].xXxXsXgXxXsXxXdXdXsXxXsX].sXsXxXdXsX).H.G.Y.Y.Y.G.G.G.Y.G.D.C.S.S.M.S.V.A.V.M.] m.A.$.$.&.$.` H #.H H H H S #.$.F F W S S S H S S S S S W S S #.W U *.P Q V U - U L A 5 3 L 2 5 2 K * h * 2 , < i < ; > ; i . Y h * l g < 1 * i r . > i ; u > T . y r   ; < Y e l < # 0.r r $   r ; u ; O O O e.O # # @ w y 9     3.f   $ t c o m 9 o w   @ @ w   @ $ r . k n f > ; l 5 k f l = & O.6 4 M B x |  . .u.u.q.u.q.z x 6 u.o.O.u.{ o.+.@.{ w.@.+.d.s.O.@.+.+.a.,.@.@.a.d.O.@.a.a.O.u.a.a.o.a.+.+.u. .q./ / q.q.i. .q.^ ..o.| >.( o.( ^ i.z ^ z.q.x.p./ q.v 8.8.9.q.i.x.i.8.8.8.8.8.8.p.p.x.x.p.p.8.8.p.p.p.8.8.z.^.p.8.p.i.i.q.( / q./ 9.N N z z N N 8.i.p.q.q.z N q.p./ 8.p.9.8.8.9.( i.p.( i.z.z.9.e.w.0.h.z.M B e / q.e.8.9.( i.9.M q...e.w.e.w.e.9.X.",
"..I { g g 5 O.I { I x I I ..4 x z f M 4 f x x ..x M 0.f x x 0.x 4 e l N B l x B { ..6  .w.| z { ^ ..O.o.w.t.u.O.I  .a.w.{ o. .u.| x D x w.X.0.l 6 X...X.| O.X.6 . I t.6 +.w.l.O.O.I 7 h | w.+.O.w.X.X.{ O.t.O.X.w.+.w.{ { O.+.) a.O.{ t.t.O.t.| 6 +.{ 4 O.t.h.x | 9.4 z w.= 0.i.q.z.9.N 0.w.l h.h...x 4 l x h.w.x o.|  .w.w.o.6 4 ^ o.o.^ w.u...o.| ..{ o.w.0.^ O.a.l.O.w.| +.+.k.| | D t.X.*.X.} L } A U t.5 L R U 5 2 R R L L 2 p 2 3 3 Q V K K V V ~ S V V P P K ~ V K ~ K ~ ~ K E ~ ~ P V V 3 ; > > 2 . ; . K p . > p 2 2 L L ; 2 2 V V V S C H ` m.S.G.H.dX=XsXdXsXdXdXsXxXsXjXxXsXxXdXxXxXdXsXsX].).).H.Y.=X=XdX=XG.=X*X=XG.Y.D.G.C.D.V.M.M.M.m.M.&.&.] $.' #.` $.H H $.$.$.W $.W ! =.W S $.W W W W W W =.W W H F W W S F S F S Q A A V A L L L 2 L 2 K L * 5 < = 1 * i < 1 p l 1 * 1 1 . > , < < . > > > . p u i O u . p O O . . . f e j r r r . O : #   n s ; O . Y # j e u # o y t o # 0 o 9 d M   e d $ r y @ e @ : r % n % M g < k g g f , x T 4 l 9.9...q...w.w.q.u.i.i.u.w.j.j.z.>Xu.^ O.a.+.| O.a.@.,.+.-.+.6 I s.d.a.d.a.a.+.a.+.+.:.w.+.{ @.+.| +.:.u.+.>...q.q.q.o./ q. .q. .o.u.:.{ { p.6 ^ +.u. .j.^ w.i.^ ( 8.8.N / 8.p.i.i.8.8.8.8.8.8.8.8.p.8.8.8.p.8.8.p.x.p.8.p.p.8.8.8.8.p.i.q.( q.9.q./ q.i.q.p.p.i.p.w.8.p.q.p.w.i.p.q.i.9.p.h.q./ q.9.(  .M q. .h.x. .4 9.9.x.e.9.q.8.q.8.3.e.8.9.i.q.w.9.q.w.q...q.",
"O.T T 4 { ..a.x T { ..k I 0.T g z 4  .4 f ....0.l x x 4 4 T ..x T N f / M N 4  .q...4 ..o.M 6 ^ | { O.w.a.w.+.| x ..w.w.| w.I +.| O.| w.w.O.O.T x { h.h.X.X.T I X.x O.x X.4 X.x I { O.0.0.| | O.4 I 0.| I x I h.k.O.{ x ^ 7 7 B 0.u.O.o.x | a.z.O.| 7 { | w.t.{ ..l 6 ..z.....I & x X.X.9.h.x h.x.0.w.h.o.{ 9.4 4 w.o.q.w...^ ..^ o.u.O.| u.w...q.w.o.^ x x / | B I d.| +.+.k.a.t.s.k.-.t.D R - A L A X.L X.= I I R 3 * R R 2 P K E K 2 2 7.K ~ V 3 V V ~ V V E C V V 3 V V V V K ~ ~ K ~ E V V 3 3 2 > L > p 1 R X.2 2 L 2 5 2 h < 2 p p K 3 K V Z C ! M.H.C.H.H.sX=XdXsXdX].sXsXdXsX].dX).dXsXsXsXsX).sXsX).sX=X=X(.G.G.=XY.G.D.G.C.C.V.S.V.M.A.V.M.$.&.M.&.' ' H ` W ` H #.H $.W =.#.S W H C S W F C S S S S S W F S W W G *.A S C *.- U V A 2 L 2 2 2 2 2 L * 1 1 . h . g , > h 6.> g   2 < * < j ; > > * > . r ; > O . . r O : . : : 0.% ; n   5.  : j ; : # i ; u   :   r m O @ $ c o o o c e   X e.o + % O 9 w   e @ r b f e   , < , L , T g 5 T T , 4 I ..M 9. . .w./ q.(  .o.o.o.o.x / ^ 6 ^ | u.o...j.{ a.{ { +.l.k.k.d.a.a.a.j.a.a.O.:.a.u.a.+.u.a.a.:.+.a.:.o.o.u.p.i.( / x  . .p.u.u.u.^ o.u.{ o.o.o.^ z.q.8.i.^ q.p.8.8.8.8.q./ ( 8.p.p.p.8.8.( ( 8.8.( ( 8.8.p.8.8.8.8.8.8.8.p.8.( 8.q.N z N ^ 8.9.q.e./ q.8.q.8.q.( p.i.i.q.q.q.( q.q.q.8./ 9.q./ i.9.q.x.w.w...9./ x.9.e.i.e.3./ x.9.q.8. .q.i.x  .z ..t.w.M { ",
"x k x 4 k I w.I 0.6 X.4 x ..x ..M 4 w.l 4 x N ^ < x 4 x 4 T x  .T N $ f 4 M x f x T 6 M ..........{ w.|  .w.h.o...{ O.| | w.^ u.t.t.{ w.x ..| X.| 4 I w...| { a.t.{ w.I I { l.w.{ I x { { ..I I 7 x { x x ..6 6 | I { 6 { +.+.{ t.{ w...x 7 7 w.4 | & { O.O.x 4 w.o.| ^ w.x 0.h.o.0.e.X.& ..f t.t.| e.w.x M i./ w.w.| w.z.q.^  .w.u.h.h.o.^ ..| w.w.0.w.i.w.0.o.| I h.X.a.X.a.w.-.+.X.a.s.7 I X.D } X.X.t.*.A E A R L = 7.L = 1 Y R 3 E 3 K V K V C V C C V P ~ V V V V K ~ V V E K K V K ~ V K 2 p K 3 p ; 3 . Y 6.> 2 1 L L * p 3 L h L L > L 3 A S $.H M.m.C.G.=X).).sXsXsXdX].sX].dXxX).dX).).sXsXG.).sXH.Y.G.G.=XY.G.Y.C.D.S.S.M.M.v.M.M.&.M.M.&.` J H ` ` #.H #.$.$.#.#.H F S $.W S H W F W S W F ! S Z F U #.F Z U #.S U P A P A L V U L A R 2 E 3 Y 3 p = < 5 . L ; L k * , l 2 1 * < 5 j . T 1 * > u O ; ; ; s s ; O < O & <   j < . e g g Y i   r r u : Y . ; . u r r o w @ e   t 9 + 9 f c e M   y w y d 9 $ r y # o : % < n % O , g R f f L 4 < % x x 9.w. ./ h.i.x./  .u.w.x  . .a.o.:.@.{ u.+.6 +.x t.@.+.w.-.O.s.u.:.a.a.l.d.j.a.a.a.+.h.a.u.o.w.u.o.k.i.u. . .o.q.q.( 9.w...q. .o.:.o.+.( u.h.p.o./ p.i.q.i...p.x.8.q.p.q.q.q.q.8.x.x.p.8.8.8.8.8.p.8.8.p.8.8.8.8.8.8.8.8.N 8.8.p.8.8.z 8.i.q.9.p.q.8./ q.( ( q.p.8.8.^ ( q.(  .9./ / ( / / i./ 9.z. .i.9.q.e.i.e.9.z.e.i.9.q.8.i.i.8.i.e./ 9.i.M x.../ M 9./ ..",
"T x T x l x O.6 +.I I x 6 0.9.x T x ^ x 4 x < M 4 f x T l ..o.....4 4 f z f N f x l x ..z ..e.X.^ o.w.| | w.a.| | | w.o.| h.M w.o.| | O.{ 0...I { 4 O...6 w...x 0.{ z.X.w.I { x ..t.l x O.X.x O.w.O.+.o.O.o.w.{ 0.O.| | x O.O.| { 6 5 6 4 x ^ w.h.| 6 u.| w.7  .w.o.h.x x x I 6 & 4 7 x x l.x 6 x g 4 x w.l / ..q.t.w.w.z 4 / i.i.a. .| x ^ { |  .o.h.X.w.w.O.O.w.| a.{ { ^ @.@.a.a.+.+.s.= 6 *.I } U D t.6 2 2 2 R L L 5 R 2 5 L L 2 V P * Q P 2 K P V P V W V 3 - V V V P P ~ E K V P 7.K V V K * Y K K * K ; p E ; p > E < 3 h 1 p p 2 Y 2 p L A 3 y.S =.B.H Y.G.G.H.sXsXH.dX).dX].].G.dXsX].dXJ.sXJ.sXG.G.H.*XZ.=X*XZ.*XD.D.C.Y.M.A.&.&.M.&.$.&.&.$.K.;.N.W *.=.F #.#.F *.W #.F $.U S W H S H H H H ;.F F W F =.A F } - S A U - I A L A L = 1 L 2 R 2 h 2 2 2 1 = * 5 * 5 < < 1 . k , i < p 2 > r ; . . < i : O i 5.i > b ; : # g O : O , : : w Y w > y o r.; < ; g . k j r . m @ # t   0 + o m 0 M 9   b 9 d M @ 3.@ e u % f < f j < r i = 9., = M 4 & f 4 M / q.q./ / o./  .p.z 9.o.z.q.w.| ) u.>.+.u.6 +.u.+.{ | ) +.d.^ o.>.o.u.@.d.u.+.h.h.w.h.w.w.w.w.u.+.o.j.i...o. .p.q.i.q.q.i. .q.u.^ :.o.( >.q.q.z j.q.q.( u.p.u.u.p.o.p.q.p.q.p.q.p.( p.p.p.p.8.( ( p.o.p.q.( ( o.( 8.( q.8.( 4 N 8./ / p.i.9./ q.i.8.p.q./ 8.( p.8.8.8.e.q.i.9./ e.( e.p.i.N 8.i.9./ / 8.p.p.e.8.8.9.e.q.e.9.N i.e./ i.i.e.q.w.9.M / w.h.9.M  .",
"l l I ..| I | { +.x ..6 5 ..T x x 6 l M x T x w.4 = 4 f x t...k g x f 4 f I T f x x N 0...T X.o.| ..| @.o.w.w.w.q.I O.w.w.z.w.w.x w.| ^ | h.o.o.w.x | I x t.| x x 4 w.I O.x w.X.g I x X.t.O.L { | I { I ..X.q.x ..T O.0.} w.l = w.{ 6 x x a.o.| o. .h.h.I x z l.h./ q.^ w.h.w.{ { w.+.w.6 w.4 f q.h.h.q.w. .x.h.h.9.4 N ..9...^ 4 6 ^ O.o.+.|  .w.{ x 4 x { | 0.& 7 @.x o.@.+.{ 6 +.{ } +.4 7 6 7 } X.A } L I I = I R - 2 r.L - A L 2 L * E 3 K P 3 K C P A 3 C C 2 3 3 V V V V V K V P P 3 3 2 * p p 3 . p ; # p Y . K 1 Y * 1 p 2 1 1 p r , 1 p 2 V *.C S K.N.S.H.S.G.J.].J.dX].xXsXsX].G.sXG.sXJ.sXH.Y.H.G.Z.(.C.*XS.V.D.F.D.S.I.M.S.&.&.N.&.` H F H W Z F F #.#.F #.=.U #.W F S W F S U W S F Z Z F F F F #.Z } Z U } A I A I 2 2 - 2 L P L L I * L * 2 2 L = L 5 = 5 . 1 < 1 h < 5 * 1 < < , < < ; ; . ; < , < : i > r i r ; . O O : r j O r : n o b ; O x.r ; . i , k j     j   e w y 9   d c   f j m e o e d # n $ r u e   O r < . , g O T g < T < o k k  .x  .9.h.i.w.N  . .q.i.( 4 z u.>.) :.o.u.a.@.+.@.+.+.o.{ o.j.o.:.p.p.{ h.o. .+.O.w.a.h.w.q.w.w.o.u.a.j.q.O.i.j.p... .^ q.q.q.i.h.u.j.) p.p.^ q.( z.^ o.^ z o.u.q.( ( 8.q.( / ^ ( ( / 8.8.8.q.( p.p.p.q.( ( ^ p.o.) ( ^ ^ ) o.q.N 8.N z z z N 8./ q.B N p.q.j.z.i.q.z.q.i.q.i.i.q.i.( q.e.z.8.8.i.e.i.i.x.8.8.q.N 8./ N 8.q.w.^ / 9.N / N z N 8.9.9./ e.w.w...w.",
"M ..x ....{ | O.t.6 @.x 4 { ..x x 6 x w...x x 4 f 4 T x x w.k 7 l x 4 4 l 4 z 4 f x l  ...x x | X.| w.w.| { w.a...w.w.w.w.O.x t.| { w.w.I O.w.+.w.I { x ..+.| ^ { x O.I | l O.| x { { w.t.t...x O.x 4 x 9.h.w.I w.| t...6 w.x X.| t.O.I B x x ..x 6 q.I  .t.i.w.h.u.i...6 x | O...I 4 x 4 w. .l.O.9.9.T ..4 ..f f M x  .9.q.M  .O.O.h.u.| +.{ { a.T | | O.w...x a.+.{ 7 | a.d.a.t.a.+.k.l.| 7 I D X.X.{ L 7 5 L 3 * U 3 V X.P L A E 3 P 3 L K E 2 3 K K V 3 3 V V L 2 K V P 3 3 V E V ~ K 3 3 p * 2 p > 6.p ; ; ; Y ; p ; Y 1 1 1 2 i 1 j > g 1 p * 2 A V S #.W S.V.V.D.B.).H.sXH.xXsXG.G.H.=XG.=XG.Y.Y.G.H.=XS.Z.C.S.v.V.S.V.S.&.A.&.M.&.$.&.#.;.$.#.W W G W #.F W F #.W F W W W S W W F W #.W H F H #.` U W U Z U A U D - F A L 2 2 5 2 5 h 1 5 L = P h 2 5 h . I - 1 L 3 l 5 1 g < , . 1 < < ; ; O = ; O ; ; ; O O O . u . : u O   < % j j   u r : O ; 5.w Y < O . * , . : % j O   @ d $ 9 o $ v $ 0   d   o 5.u # t t c X   ; < f , f < r , T Y x T < % .... .9.w.q.9.N / ^ q.w.j.^ ^ / i.q.o.^ :.>.j.u.| ^ @.^ | u.a.u.o.:.p.>.@.>.u.+.w.h.z. .| w.w.w.q.i.i.u.u.p.u.j.j.w.p.^ w.i.i.9./ / ^ >.^ ( o.O.p.( i.i.q.h.u.o.z (  .^ o.^ (  .p.p.q.i.q.8.i.p.q.q.q.p.q.( p.( ( o.( ^ o.q.( ^ ^ o.8.i.i.i.q.z z x q.p.B z ( z / 8.i.8.z.9.p.q.q.9.q.i.( 9.q.h.q. .w.p.i.e.q.i.i.z.i.i.i.8.9./ 9.N  .w.q. .q./ / 5.T q.x / x 9.M 9.",
"f w.g 4 5 x I X.+.4 I I 4 ..X.l ^ ^ 4 x g x 9.x 4 ^ w.X.4 { 7 l ..o.= z ^ 4 x l < x g x l z l | w.| O.w.w.w.w.o.u.| | | x x w.z.O.z O.w.x ..O.....| ..| O. .O.X.| | .. . .I t.w.w.a.t.0.{ 0.| 6 6 x { { x 6 l x X.x w.x 6 t.x +.l w.w.w.{ w.x 6 O.x ..{ | { ..T q.j.h.w.x q.0.| X.O.w.j.w.h.| h.w.{ z / w.M w. .w.w.q.w.w.w. .a.w.^ | { ..h.w.u.a.h.>Xz.l.l.z.k.d.k.>Xk.>Xd.+.a.>Xk.l.k.T.a.5 7 6 X.U X.X.I E I R 2 R R - V 3 U P P 2 A E 2 E 7.* V V K V 3 C * 2 V 3 V 3 P 3 3 K 7.K E 3 3 K K p . p 3 y.* ; > . E > ; . L 1 2 2 > i 2 p p g i h * T A A S W W B.$.B.S.Y.H.G.G.J.dX=XH.).J.=XG.Y.J.J.G.C.V.G.V.S.C.V.] V.D.&.V.&.V.$.&.$.$.$.H H #.F G U U W S F W F W W F F F W G S U F U F S #.F W #.S _ S S A U A A 2 - I A L 2 5 2 L = A * L L < T P ; 1 1 . E * < 5 < L L 2 < ; 5 ; , ; h g , , < , , < > p O * > i 0.*   9.n . : O , 5.j O : # y   e.y   g 1 f < l   r n 9.: @ @ t X + 0 + 0 f q   3.9 9 5.$ 9 u m 6.y w : $ < , r : < , f < g , &   4 4 f / N x / q.9.w.q./  .x / w.h.w.^ ^ o.@.a.+.o.6 x ..a.^ o.+.(  .p.o.( i.j.p.w.q.a.w.o.^  .j.u./ p.u.j.p.o.q.( p.i.N q.9.8./ i.z.( d.( p.q.o.u.( i.w.j.i.u.j.6 ^ ( ( q.q.( ^ / / ( 8.q.8.p.8.8.q.( p.o.p.j.u.o.^ q.o.O.o.( ( o. .N / / 8.( N ( / f ^ z / / ( q.q.q.( i.( e.q.q.q.9.w.q.q.( q.q.( 9.9.N z ( x.z.z.i.e.x.p.z.9.q.h. .q. ./ i.e.e...i.x.9.9.9.h. ...",
"<  .l x ....I O.O.4 6 x 7 ..w.x x | { | x x 9.& g x 0...I X.x I { 0.B 4 ....9.4 4 ..T M I ..I h.w.| | o.w.w.w.O.I  .^ ..j.w...w.| | | x w.h.O.I | 0...| O.I ..{ ..| I | O.{ t.w.X.X.O.| x +.X.O.x x ^ ^ | ..{ M 9.x O.{ ..h.x | | O.I x 6 x .. .o.0.o.x 4 I 6 = | q.^ |  .i.9...i...4 g g ..4 x ....X.9.w...i.X.| .. .w.i.h.i.z.:.+.~.h.{ +.u.h.z.k.k.a.| O.t.{ a.s.u.+.z.k.Q.7Xd.k.>Xl.T.k.@.= I t.X.I } I E - 3 2 U E V A Q Q L L P K 3 E 3 K K K 3 3 2 3 V * V L 2 V 3 P 2 2 K K 3 K 3 > K K p ; p > K s K s p Y 3 p ; 1 2 L > > p 3 ; T > > L . U = 2 - Z C #.F N.N.S.M.S.C.Y.dX=XY.=XC.G.H.G.S.C.Y.S.S.Y.C.V.A.M.M.V.A.] &.M.;.&.#.$.$.$.H W #.#.F #.#.*.S F W H #.H F F F #.D F U S F S F U G F U Z U D U D U A S 2 - L L 5 5 5 2 L 2 L = E L = 5 h = L L = R 2 2 1 * 5 1 < = 5 h < < * 1 , < < O . . . . . . Y Y . p . r . . . j r . f .   ; j b   ; ; w j , O < n . < # d b d y   t + o t X 0 X X 9.d 9 a % c + + t X   o 4 % : & j , , T < T : f < f f x i.i. .x ^ /  .4 x ( i./ / o.h.u.u.u. .+.x { 6 z.{ x z o.^ z w.o.( ( ( z.o.q.i.( q.h.i.i.i.o.q.p.o.p.( ( 8.o.p.p. .p.8./ z 8.q.4 ^ ( ^ o.p.^ z.i.h.w.o.^ o.q.w.o.^ o.z.w.q.q.h.i.^ p.p./ q.z. .o.j.q.q.p.q.../ ( q.w.q.o.o./ z 9.q.8.q.q.M / / q.q.q.w.q.w.i.^ o.q.p.q. . .u.i.w.q.q.w.8. .q.q.q.8./ q.q.i.8.8.i.q.i. .i.9...9.i.i.9.M i.i.z.i.e.z.h.x.z.h.9.{ ",
"f T k ..w.X.I w.+.L 7 6 6 | t.x { | x 6 6 x t...x ..O.| { O.{ +.{ x = x 0.....4 4 4 4 x x 4 4 w.| O.w.O...{ O.w.| ..a.w.9...0.w.|  .t.O.O.w.w.w.a.w.| w.w.w.w.w.| | | | w...| | O.6 x I 7 4 = x 7 z { x  .M X.w.a.0.O.T { 0.I | O.| x x t.w...4 0.h.| ..O.z.w.{ |  .4 x x { { 0.w.T 4 I  .i.| ..w.w.w.h.a.x o.......h.h.| ..^ t.z.+.h.a.a.j.l.a.w.w.O.u.a.z.k.O.{ l.>XW.k.@.{ { w.a.l.{ w.O.| 7 6 X.D L T 5 I I A V *.L P - Q V V A K 7.V P 3 p E s K 3 2 K 3 3 * p 3 K 3 K 3 3 K K 3 p 3 2 K > > p K p ; Y K ; > 5.s 3 2 i , 1 2 i h > ; T 2 < T ; L 2 5 A A U Q F F $.;.A.N.M.m.S.S.C.S.M.C.M.B.S.V.S.V.M.M.' ] V.A.M.N.M.&.&.` $.$.H #.$.;.#.#.W F F W S F S #.U U F F U H U *.W #.*.S U #.=.U G U F D } U U A I L I A 7 L R - 5 5 L L 5 6 1 I 5 = , 5 1 h I 5 A - 5 L h h = < 1 L , < g < < i g i 1 < 2 , , Y . r h O T j p ; : $ r :   r r r n .   j 5.>   T Y ; 4 l O f   % e y w @ 9 + @ t + B + X 0 X % + 8 M 0 8 m c d % f % n < n r g T < M & f % f 4 / q.q.% N 8.i.q.z q.q.w.^ q.q.o.{ o.u.o.u.w.h.u.k.^ ^ 6 w.o...p.z ) q.8.p.( / ^ / w.w.(  ./ ^ i.( p.>.( o.j.p.q.q.( ( ^ / ( z.i.>.u.u.w.o.o.( z.h.w.q.o.^ O...q.w.q.^ o.z h.u.q.j.i.e.8.q.q./ ( ) ( u.( j. .j.h.!.p.q.u./ ^ ..q.( M z ^ ^ ^ i.i.q.q.q.q. .q.u.(  .p.q.p. .q.w.w.q. ./ ( / ( ( 8.e.i.i.i.q.z.e.i.i.q.i. .x.^.z.j.z.z.i.e.e.9.x.e./ 9.q.q.w.e.q.9.",
"M M g x X.x x | +.{ 7 { x T l.| { o.^ x { x { 4 6  ...O.{ { { w.O.x 6 0.h.T x < x x x ..x x x h.w.| { | O.O.X...4 w.>Xw.w.w.| j.0.{ h.a.| { w.t.{ ^ { x ..O. .| | { O.{ w.| | O.w.x | O.X.+.| k.w.{ ^ 6 w.| ..x M X.M x x 6 4 4 5 I ..5 o.6 ..| | ..4 w.t.X.6 h...| x w.h.t.w.q.w.h.i.h.w.w.w.x.T.h.o.w.i.o.w.h.i.w.x.h.{ h.i.j.h.o.a.u.o.| a.O.O.j.a.l.+.+.a.j.h.d.+.o.+.a.j.a.T.j.y.+.k.-.t.I X.t.R X.r.= 5 R A * R V U V P P V V V T.Q 3 E K 3 3 5.3 3 p i p > L Y E K Y p K E ; K K s 2 p 3 3 ; s 3 ; ; s ; ; Y i > ; h 1 ; > h > 1 > > h , < . h L = - A *.P A Z U $.;.N.$.M.A.S.S.S.D.M.S.S.S.V.M.A.M.' $.$.$.&.$.$.' ' H H H #.F #.$.=.#.#.W W U R S } *.W F F F F U F W #.P U #.U U *.U D A *.D U U Z 5 5 A 5 5 L 5 5 T = 5 = x L 5 5 4 L 2 1 5 L I 5 L I - 5 5 I I I 1 2 < h < < L < 3 < , 1 < < 1 < , L . ; , ; h > h . , < < ; O # ; > n : : # j n w j n % r     r O : @ @   d # + $ 0 v X 8 0 v 9 v t c v d @ t 9 o : % O n O : : g n r e < f o f f f / o.z 4 / i.w.z.i.w.w.z.h.h.i.^ ( w.o.o.| O.w...g o.w.h./  .z.p.( ( N & z p.( q.^.p.z q.i.j.j.^ p.p.p.q.q.8.8.p.p.( q.p.q.q.8.( o...u.o.x j.w.i...| q. .h.x x x o./  ...^.h.w.h.z q.i./ q.i.^ i.z.z.i.w. .^ o.h.w.u.l.w. ... . . .o.w.(  .o./ o.q.q.o. .x / q.o.q.p.u.w.h.p. .z.h.i.z.z.i.i.i.q.i.i.w./ x.i.z.z.z.x.q.e.z.h.9.h.i.w.i./ ^ 8.z N 9./ 9.9.q.w.z.",
"x T M j ..x ..I | { & 6 6 I l.X.| I 6 x  .x { / 6 { x { ..6 I X.| x I w.O.x 4 & ..T x x 6 { ..l.| x { w.t.w.O.| w.X.h.x I w...T ..O.O.x 0.O.| w.M { w.O.| O.| | w.| O.x O.{ { t.+.| { 7 7 I x w.{ x x & ..4 x l o.h.x ..| I | | I O.w.x t.x w.0.x 0.{ O.t.w.I O.x w.q... ...9.......< z  .l.w...i.z.h.h.z.l.l.i.h.h.>Xj./ h.j.z.u.:.k.k.a.o.z.>Xk.k.a.k.a.w.+.a.h.a.+.j.k.d.f.u.>Xk.d.h.7Xk.k.= L e.X.T t.2 I R L V r.A V P U Q P A V K.3 K 3 3 ; E E * ; ; E 2 3 V p * . * 3 p K * K p 3 > ; > ; 3 ; 3 . ; ; s ; > * > p , ; < * h * p L   k , 5 * < I h L 5 U . 3 U U *.A =.N.$.H m.B.m.S.' ' $.$.$.G $.N.$.&.&.` H #.` ` ` G #.#.=.H #.#.=.F W #.U S W #.=.W W W F F F W U U #.S U U #.=.U - U D } - D I - A A 5 2 2 L < 2 R , 5 - * 6 = R I I 5 h h l X.5 h I - R 5 - * 2 5 L = , * , g = < , 1 , < < ; * . k * ; > k j ; , ; b % O . n : r Y   : r : O 0.O . j O k   O j : O y   o w t     X e.% X + t X v + 0 m v + t t d o % f l . , j j f x O N N   z B & z z h.9.^./ B  .z  .z i./  .o.{ ^ o.^ l z 4 x | x  .M h.j.i.z 8.^ q.( i.i.z.( / q.N 8.^.q./ p.8.p.( >.p.( ( ( q.q.N ( ( ( p.i.^ o.o.o.u.o.w. .w.h...w...z.h... .o...|  .w. .q... .q.q.q.w.z x / x u.4 O.^ 9.o.i.w... .I w.o.o.u.q. . ./ /  .x / w./ q.j.w. .i./ x q./ o.i.h.z.w.u.h.j.j.p.q.o.p.i.i.z.p.i.i.^.z.z.HXz.i.z.h.i.z.w./ i.q.i.e.9.q.w.M q.q.q./ w.",
"k T l z x w.4 x | 6 B D X.6 +.{ | ) 6 ^ { { ..w.x / / x 6 X.t.{ x { x o.| g 4 4 T ..9.x l x ..t.{ { +.O.t.| I x | w.z.t...0...{ I x w.x w.w.{ { { | w...u.a.w.h.a...^ 6 O.| I { O.6 { 4 w.@.I { 4 ^ x ..{ M w.z z. .% { w.t.t.4 | 4 | w.{ x T w.w.M w.I { X.w.X.I a...w.h.i...9.0.i.q.i.9.x x { w.o.6 6 a.z.z.o.{ o.w.j.^ w. .^ h.| d.k.a.o.a.a.+.h.>Xj.T.>Xk.k.>Xk.j.k.~.j.:.:.a.+.j.T.k.w.l.X.= t.k x X.5 R L 5 L A 3 V P V V C 3 V P 3 K 3 K 3 K s 3 K . K p 2 2 2 p ; * 2 h K ; K ; p 3 3 > p p * ; ; > ; K ; p > > * : h * p p 3 > Y * , L < , 1 L 1 5 * R * R P L U A W #.H #.! #.$.` ' ! $.#.$.M.;.' H #.H #.H $.H F $.F W ;.W W F F W U #.*.U W S U *.#.C #.U Z U W F #.U U U A y.A y.I *.- D 5 I Z I I L = L 5 7 2 2 I h A 5 2 I 2 R 5 I 2 1 R R 5 R 7 L 5 A 5 5 A . A I * 5 , * = , = h O 5 * , 2 * > ; < * , ; 1 , l < O < ; : j : < j O i O n . n 6.. # n n % : .   e M # o % $ 9 # N a X v   q 9 $ 0 + m v X X 9 $ .   f k . % k m 5.g o 9 f % f f z q.q.h.N i.w.M / / i.z ^ z w.z z u. .B h.h.4 6 M w...4 q.x N / 8./ 8.i.i.8.( !.i.B ( 8.p.( i.i.N ( 8.q.q.8.8.( 8.8.( 8.p.8.8.q.( w. .^ w.q.x h.o.z.0...^ o. . .o.o.& w./ | h.....q.^ 9.w.x x M x z 4 w.h. .h.o.w.z.>Xl i...h.T M z. ... .w.o. .^ / /  .e.i./  . .q. .o.w.o.w.h.w.i.p.q.z q./ q.8./ ^.z.i.z.z.^.z.x.z.i.w.l.q.M w.w.w.z.q.q.i.i.8.9.q.q./ w.9.q.",
"% x 4 T ..T 4 5 I I 6 ^ | 5 O.O.{ ) B 7  .o. .h...| { x { w.l.O.I 6 l x 6 4 x 4 x o.T I 4 x t.h.{ h.t.6 | | ^ u.| O.T.>Xa.| ^ h.w.{ x l.w.0.h.w...| w.| x 4 {  .o.{ o.O.+.{ ^ | w.| O.{ w.| { O.x o.{ o./ x q...w.0.w.w.....a.O.{ ^ t.O.z x  .h.| ..w.| | I t.O.O.o.x | | | 9...w...l 4 { o.w.w.x  .j.| 0.q.7Xo.....o.u.u.h.j.u.h.+.i.u.a.d.z.d.u.O.k.a.:.h.>Xk.a.a.u.d.k.k.k.>Xk.d.k.Q.l.a.l.O.7 T x L R 5 5 I A A L P 2 P P P V C E P V 7.3 3 ; K K ; s K Y K L p > 3 ; 3 2 K s * p s p s s 3 s 3 . ; ; s ; s @ s u K > ; l ; l 3 . > T ; , k h < Y I . L 5 h 5 I 5 L X.L A R U F H #.! $.$.$.H H W #.=.W F $.W #.#.#.#.F =.*.F W F *.=.=.=.#.*.U U =.#.U S *.W #.U F F #.U *.A *.W D U - *.A A A X.L A 5 L L 2 5 I h < < < L l I 5 2 5 5 X.5 L h 2 6 X.- R P L A L A L I - L L * = 3 1 h L < < = Y < 1 < i l > g 1 i ; g i p g : j r , j ; : O j : p # u O n o : % . % % e : # d   $ + # m   4.% X t % 0 + 0 + 0 5.d X 9 M m < % k M f n j f f d : B % N N N / B / 9.i. .p.q.x i.4  .z q./ ..^./ x w.x  .x q... .x 9.( z x q.q.8.8.8.8.p.8.8.( 8.8.q.i.p.p.p.( 8.p.p.( ^ 8.p.( q.( 8.p.q.( q.o.x o. .o.z  .~.9.w.~.B l z ..x h.w...w.~.x q.w.w.q.q...f / i...x u.x ..  u.q.4 h.x e.w.q.t.x w. .w.^ ^ M  .o. .x q.h.j.i.| x ..w.q.w.q.u.w.w.w.u.x z u.i.q.( ( p.8.N z.z.q.9.q.i.i.h.h.z.~.z.j.z.z.p.h.q.q.i.q.e.9.i.x.q.i.i.i.",
"f X.l z.t.T O.x I { x { | x X.O.D 7 ) ) 6 ..h.w.o.q.| x x O.h.X...l x ..f 4 I 4 T w.M | 4 ..h.h.| { O.| x | w.l.z...h.w.x x x a.O.t.l.6 O.t.w.w.a.O.x  .h.u.x z ..| ^ { x ^ | w.| | { | | x ..{ x O. ...{ M q.0.0.....T x x O.{ ^ x x 6 I h.q.B 0.i.0.O.O.I +.X.{ { +.k.^ x 0...x x ..x h.z.t.w.h.{ w.z.o.x w.w.u.u.h.w.h.o.h.w.O.u.!.u.w.w.d.z.a.+.k.j.j.k.>Xk.l.k.l.k.Q.k.d.k.k.d.k.h.a.s.a.X.7 h I 5 5 I 5 L E - P R 3 A P V V C E P 3 K 3 K K K 3 K 3 6.p > E ; 3 ; ; 3 * p K ; p K 3 p p ; p 3 ; s . ; ; ; u p ; K g ; l * p ; * 2 Y < r 1 T ; 1 T 2 h 2 T L 2 < 1 X.L 3 U U A S =.F W $.P G U H F W F S W #.H #.W y.H #.W S *.=.=.W -.*.U W Q F U U U A *.R U U } U U U U A *.A L U R y.A = 5 X.A = 2 L 5 L 2 L 5 h L < L 5 L 5 I h L R L 7 *.A I r.= A I 5 5 A A 5 I 1 L L = 5 5 1 1 5 1 = < I < 5 * 1 5 * , 1 < . > , < ; < 1 1 r l : l , k > O r p O   . n r   d o w e O o b e o e m + f o 8 e f 0 X v d f M $ + w y %   O < % : j f : c d o + X N e v M f ( / q.q. .z / / ^ B o.o.z z o.&  ./ x  .x x M ..x i.9.h.w.z / / 8.8.8.p.p.8.( ( ( x.i.8.q ( z.i.q.q.p.!.p.N ( 8.p.( ^ ^ N q.i.q.q.q.w.o.u.z. .w.M B t.9.N x T ..0...w.o.0.x o.T x  . .z 4 q.w.q.z.h.h.h.h.0.w.h.T w.T 4 { h.h...^ N z 6  . .M  . . .4 z / w.w./ ^ w.i.w.i.w.h.9. .^.HXj.p.i.p.UX/ 8.i.^.z.i.h.w.w.w.o.O.w.w.h.j.w.i.h.z.x.w.j.z.i.i.x.j.8.z.",
"x M < h...g { 4 o...7 I +.T { @.7 6 { ^ 6 O.j.o.^  ...x x ..0.| | 6 x ..x B 4 f x ..x ..x O.l.w.4 x x { w.O.x a.h.l w.....w.0.w.w.h.X.h.| w.t.a.w...w.w.6 x u.w.O.h.| O...O.w.| I { 6 T I x I x 6 ..z x  ...9.O.w.^ x / I 4 x x j.+.w.o. .....x / ..B 6 x { I 7 a.{ a.l.^ x h.i. .x.h.q.h.w.w.h.l.o.| u.z O.a...o.q.o.o.u./ u.u.~.h.j.h.Q.i.a.~.>X~.>X~.7X>Xk.h.~.~.Q.Q.<X~.k.k.d.u.d.a.t.s.w.t.< I X.x 2 t.{ I I 3 L r.2 E P E P 3 E E P K 3 7.E s s K ; K 3 3 K . * > p ; . p Y ; 3 p ; K p * Y > ; > O ; ; O ; b ; s i > k . < 1 i > < 1 i > R > * L 5 2 < R 1 p p 2 R X.2 R R - A y.U S =.S U =.W U #.W F *.=.F U S =.F U W U =.#.U A U W A F U U D U #.S *.#.S W W U A S U V *.S I 2 - U 5 L h A 2 , A 5 2 L 5 2 L E I 2 I L 2 2 R L A L I 2 T.2 5 r.5 5 L 5 A A L A P 7 L 7 1 E L = = 1 L h 3 2 < l . < < < 1 1 1 ; 1 h < i ; g * g < . ; . r b . Y r i r   N n % m o % % + o m o   @ $ X X % X % 0 %   z % 0 m o e m m % % l b % e j f M 9.N % B e N B N q.9.p. ./ h.q.4 /  .p.u.o.z h.q.( / h.4 .. .B 4 j.x & N 4 9.q.i.q.8.( 8.e.8.( 8./ ( 8.i.8.q.8.p.i.p.p.i.p.8.N N 8.p.i.N ( z ( i.i.w. .w...w.x  . .h.x x B M q.x { z B 6 | z.w.& 9.{ i.w.x ../ 4 l ^ h.o.x w.^ x / w.4 l M 6 i.0.B x h.i.9.4 / e.w.9. .e./ 9.e.9.h./  .w. .x M w. .o.M p.8./ ( q.p.i.e.p.z.^.z.z.^.h.z.z.z.j.h.w.h.j.h.i.h.i.i.w.x.p.e.i.p.q.q.q.",
"T x 6 0.x x { l t...7 I w.| { w.7 @.6 ) a.j.q.o.z x z x x | e.0.{ x x x ..& 4  .x M ..x x { w.{ 6 O.{ { +.w...w.| x z.t...| | O...R O.X.w.x w.x B l.o.o.| T h.^ x ..6 ..| | O...| w.x o.| | | | | w...^ / x x f 9.x T 9.t...|  .{ u.j.u.z z / 9. .0.M | w.a.{ +.a.{ { | I ^  ...w.h.i. .u.x | h. .o.w.w.w. .w.^ h.u. .q.h.w.p.q.h.o./ ..u.{ ^ a.a.a.+.+.d.u.a.a.a.a.:.:.a.a.,.d.s.:.d.a.l.l.a.l.= x T 6 = R U I 7 * 2 I L L 2 L V * C K E V * K ; 3 E K ; K p K p . 3 3 3 2 . K K ; ; p ; 3 K ; K ; ; u ; s u ; ; s . ; s 2 Y * . ; , ; * > 3 . 6.3 1 L * 2 E L 1 5 k = l T = P I = - y.U P *.S S W U F W U Z W *.U P Z W D U =.#.S - S F U D U D U U U U #.- U U S P V U Z L U L } R P A 1 R E E L A 2 1 L 5 1 2 I A 2 5 L 2 L E h - T A 1 5 U A T.. * Q } L 5 A - 2 D 2 5 - 5 5 - 5 5 1 5 2 5 l < = 2 L < 2 1 = . < 3 * * 2 * <   <   k i > < i Y j j i O   i O $ b o e % $ 9 # 5.d @ e   j o e m   % f e % e + M 0.8 O e w   . f d $ < O   : f 0 % t q X 0 8.( z 9.z f M ( q. ./ ^   z.u. .h.p.z / ^ ..q.< z ..../ w...N z 9.B q.q.i.p.8.8.z.8.N ( ^.^.^.p.p.i.8.8.z.i.z z ( 8.( / B z  ./ /  .4 z w.x / x u...B q.q...x.e.x x { x w.h.z f w.h.i.i.f   ..w./ w.h.z.h.4 h.T z h.& u.h.g h.x x 9. . .z  .f z 4 f B % / N 9.h.e.w./ 9.q...x  .w.w.w.i.w.8.q.8.i.p.N p.8.q.( N o.l.h.z.h.z.z.z.k.j.h.h.u.i.p.q.i.q.x.8.q.z.q.8.z.",
"I x g { 4 ..x 5 w.T 4 x { { { t.{ ) ) { k.i.^ o.z ^ f f T 9.9.I M ..T T w.< f X.M x T 4 M M T x { 6 ^ I 7 6 x 0.a.I l.O...T g ..| x | | X.| = h.7XB x  .u.w...u.w.w...o.w...x | X.w.{ I 6 x 6 ..4 x ^ x M ^ M { 9.q.q.{  .x x 4 & 6 ^ ^ ^  .9.x  .w.h.w.O.O.{ a.l.a.a.+.a.o.{  . .9.^ { h.| w.u.w.z.h.^ x  .u.q. .^ ^ o.o.q.q.w.o.o.u.o.u.o.o.d.u.O.a.j.u.:.>X>Xu.d.k.d.d.d.d.Q.k.d.d.T.d.j.a.l.I I { I 5 I R X.X.A L E Y L 1 K P V V P E K 2 K 3 3 Y 2 3 K p K p 3 2 * * p 2 ; 3 ; K L p 3 K u ; ; 3 ; ; ; u ; s s . > p > , < 2 < < 1 i Y 1 1 E 2 > p ; p Y L 1 , 5 < 5 5 = k L 2 = y.L P R A V A A S U S A W W S S F #.S S U U A S U U W S F S #.U F F } D S F A Z - U L U P 2 - 2 = L 5 L Y 2 l T , 1 L L E = E 5 2 3 U L A A L A E L A 2 2 = y.* C E R A A E A D R A 5 A A 5 - 1 2 1 A < 5 2 5 L = 1 5 L 1 h * 1 g 2 < g ; h . g . p < >   i r . j i i . Y r   :   % e $ o   5.%   t o @ @ o o   % o #   e o o w 9 o : % : $ < e 4 e e $ f 9 f e f 0 q 8.8.z N q.i.z / ^ u. .q./ h.h.q.u.q.B x h.u...x  .w. .0.w. .h.i.q. .z j.i.( ( ( p.p.N i.x.N 8.8.e.8.x.8.^ 8.q.^ ^ N q.8.z ( / i.^ ( z.N q.q.B z q.^ z 4 ..B g z i.u.x | x h.w.x 6 w.......9.u./ 4 M ..z h.h.i...x x f 6 ..h. .M t...& / / 4 9.N ..x N x / 9.M x 9./ w.9.q.M x  .M x 9./ i.8.8.8.8.q.i.p.p.8.q.q.h. .w.q.k.| w.a.k.z.j.u.h.u.h.h.h.z.z.i.e.i.e.( i.z.",
"x X.4 T I ..l x X.x 5 x x | { O.>.) { ,.u.{ / ( /  .l z M M l 4 x T T x e.4 j z f j l 4 X.....w.x | { x w.I x >Xt.6 h.O.w.w.I  .O.T h.I w.w.7Xh.x h.o.{ w.6 q.{ 4 z x | h.w.M w.o.t.O.x |  .l .... .9.{ z x f z 4 M ..f x g q.w.o.^ z O.w.x / p./ w.q.w.I x ^ -.,.,.s.{ 6 4 6 o.9.^ z z w.w.a.a.| ^ M h.j.q./ w.i.w.h.i. .o. .w.w.o.u.w.j.j.i.u.j.u.k.~.a.+.j.k.+.a.d.!.k.k.j.!.j.d.d.k.t.t.a.t.O.T I 5 5 7 5 x I = 5 1 P h p L 2 P V V V E 2 K 7.3 p 3 K K 3 2 3 K 2 * * p p * ; i K K K * p 3 ; s p > * . . ; p u ; u i ; O , . * ; ; > L * > p p ; 3 L p K Y L < 5 5 l 5 5 T I T 2 r.E A E P D A A P U S L #.Q A S P y.A W - S U *.U A U A U Z } U A Z W } S P D P P P *.Q A 2 L R V L 1 < 0.1 5 E 3 2 1 L R = P 5 A 1 X.U A 5 Y P I P P - L 2 *.L P I 5 A 2 5 7 2 I - - - 2 2 5 h A 1 5 1 L 2 h L 1 < L < < h * 1 2 < 3 5 . =   g ; ; r i . , i > p > # . b f o o o e : % o o c d   y M   y % # m M % $ % n n o O b % e o O % . : % % l m f B 0 0 % X z 4.B % N z w.B 9.x /  .z w.w.z./  .^  .p...& q.B { & q.z x x h.q.9.q.o.o.B & B ( p.8.p.8.8.( i.x.8.8.( i.z.q./ ^ q.p.z ( ^ ( ( ( N ( / z 9.z ^ ( u. .h.z.q.N z i.z.% M w.u.o.4 w. .w.w...^ q./ / i.9.x x x h.w.o.w.q.x ^  .% { x z ..T i.M l 9./ z.e.9. .N N f f e.e.M / 9.x  .w./  .x.w.i.9.p.8.x.z.( ( 8.8.p.8.u. .q.x j.O.u.j.a.a.z.h.z.h.h.x.i.e.i.x.p.8.e./ q.p.",
"4 o.4 ..| ..x T ..x x I T t.X.x @.) { >.@.o./ x 4 / z z x f l M ....9.x T x | x M w.x x  .4 g g 4 7 | x O.| O.a.o.T >X0.O.| x t.| 7 t.6 X...4 t.h.6 | 4 u.w.^ ..| a.w.z w.w.^ | 4 ..x x w.t.x ^ w.|  .^ x .. .x w.O. .x t...w.| ) >.o.o. .^ / x  ...4 4 l 6 { +.+.-.j.@.{ 6 z ^  .x x 6 x o.x 6 u.^ x z w.x w... .6 w. .^ o. .w.w.o.w.|  .| +.a.+.u.O.a.k.+.a.k.k.k.a.u.j.f.a.:.+.:.w.k.@.a.k.t.l.t.O.5 I I D L R = L 5 I i Y 2 2 V * K E 7.K 3 p K K 3 2 K 2 K 3 2 3 2 p 2 i 3 3 3 > ; K * p 3 p p s ; s s ; ; * ; s * : > * r O l h > 2 Y 2 p 2 p p > 3 K Y = h 2 1 5 5 h 5 h 1 L * T L 2 A L P Z C A S Z A U U Z U A *.C =.U W P U U A U S U P U A } U D D A S L S U * L R A 2 5 L 1 L R * R 0.L L < I 2 L R 2 I L R - A L L U L 2 5 L 5 2 *.R U 5 A U - U I A S A U 7 5 A 5 5 5 A L 5 A - Y A 5 L h 1 R = 3 L < i 2 < > L . , O Y h . , , . p u . , s p > > e f X o 0 o d m o d o X u d   o O   e.f o e o % % $ f j   b r . % o m j % c j o e % v v   N z % N f B f B / i.q.x  ./ i.q./ q.h.u.o.B w.h.. ..w.4 4 q.g x f  .w.x x ( j.p.( p.8.p.( 8.i.8.8.p.N 8./ z ( q.8.( z ( 9.( ( p.z q.q.B q.q.( q.z & ( j.w. ./ i...c 9.h.q.w.& w.o.M h...w.z 4 / ..9.q.w.w.N h...f ..^ B h.w.h.| / x u./ h. . .9.M z.T ..M M 9.h.9.i.N w.9.q.9.9.9.f 9.p.w. .e.i.8.p.8.8.8.8.p.w.q.w.h.~...h.6  .i.w.h.j.u.^.u.o.i.i.p.q.q.i.i.i.q.i.i.",
"f ..x M ..I x I x I { I { t.| ) { 7 >.@.+.o.O.z 4 z N N k % N M 9.x z f ....X.4 x | M T ..x 4 X.....O.x 7 O.+.| { a.O.{ | X.| { t.k.t.6 6 h.{ x x 4 | 4 ^ 6 { o.x {  .o. .x w.....w.....0.w.{ 4 O.+.x w.| q...g h...w.0.w.| ....| u.4 o.u.w.w.w.0.| ^ x O.O.| { k.-.-.+.@.) o.^ / o.^ z ^ { { x h.^ ^ o.h. .x { 6 O.a.w.{ w.o.u.o.o.w.o.o.@.a.d.j.@.k.u.j.w.d.j.u.u.>.a.j.k.a.j.f.h.Q.a.l.+.k.l.O.+.I = 5 { A I t.2 5 Y L p L h 3 3 p 2 2 2 7.* 3 p 3 p 3 K E 2 3 3 3 3 K 7.L K 2 2 3 1 * 2 3 p . , 3 > Y . * ; ; # s ; ; i > > * * Y ; ; k ; L ; p ; p . ; 7.. Y 1 5 1 = I 5 < < h > 2 T 3 5 V D U - A U Z A U *.U D A *.- *.A U P U - *.L V - R U U R A R - = y.5 L I - L X.I A 2 L = = r.- 5 h *.L 2 5 L 2 A 5 E - 5 L 5 A U = *.L - L 5 - X.U I 2 A A L I A U I - A L I A 5 A A I F = U - U 5 2 I Y = 1 * 2 > = p * < ; * g ; . g < , ; O > > > ; Y 6.@ . u e.e % o 5.%   j r   o O @ X + @ :   e @ # e % % @ o + % % w f o $   4 % % % u + % d + q % N N t B 0 ( B 8.q 8.8.& ( B & z x { | B z u.z...x / h... .h.q.q.j.q./ / N o.( ( j./ p.( N q.^ 8.( ^ ( ( 9.( q.q./ ..u.^  .z.z q.z u.q.4 i.q.(  . ./ ^.h. .x ..u.M f 9.w.q.w.4 h.^ ^ 7Xi.z o... .w.x ..e.x  .9.M w.x z x i... .i.e.x ..f & N M w. .x 9.& N f ..h.9. .T q.e.9. .9.x M ( q.q.w.q.q.9.8.q.8.8.p.8.p.8.p.8.w. .i.q.w.h.z.w.q.( | q.h.q.w.w. .i.u. .u.w.^. .",
"4  .x T ....x k X.w.{ 6 6 t.@.6 @.7 { ) | ^ { x z z B f M z N f d 4  ...^ f x x ..x 6 x T 4 , x = 4 z ^ x | | +.h.d.a.a.l.| { +.a.t.| >Xa.4 h...4 ^.6 | z. .o.4 w. .T ..w...o...X.| ..| w.w.{ { O.+.o.| x x ..x i...^ z x w.w.{ B i.+.u.O.o.u.O.o.a.j.h.k.w.+.w.+.f.7Xk.u.o.a.u.u.w.+.j.k.u.+.h.h.j.j.i.@.6 +.k.s.) { a.k.t.{ a.u.u.k.d.j.d.k.d.k.a.Q.d.>Xk.k.t.:.!.j.j.u.Q.Q.7Xk.l.k.a.s.h.s.@.T.t.& I A I I A X.L U R R 1 h 2 * ; K L ; * K ; 2 3 ; 3 3 K K 3 3 K E 3 3 L P A U 2 2 1 3 p > ; 2 3 ; 2 K ; * s ; ; > . ; i > i ; O h ; > h . > . ; 2 . i > r.. l 1 Y 5 < T l h < 1 > 2 E 5 A U U U - G U Z - A A 3 2 2 U U I 2 3 I r.2 L A P 5 X.U 5 P 5 r.I A L R 1 2 I 2 * r.3 . A 5 L X.= 2 2 U 2 = A D 2 L A U 5 - D A L X.- U 5 = } L A U U A U 7 A A A - A D Z L A - - A Z A P U C U C R A = A A 2 U 2 5 = 1 < * O * > l < O f . ; O * > ; s s * s ; s O j o o   f   o j r % w   c :   O % 9 $ % e c :   T %   M w % o f f % : % e y y o 9 % d f % q X N B q q z.z N N ( z 8.z ( | i.4 z B l | w.6 ^  .:.{ x { w. .z % & i.( q.q.^ ( z z ( ^ ( p.q.q.z 8.x  . .q.w.^ ( q.( o.8.) ^ o.( / N 9.w.z.w.M / z.q.f e.h.& / h.4 4 ^ w. .4 ..i.h.h...x | x u.../ i...o.x  .z.9.x q.h.x M w.w.M x q. .h.....M f  .x  .M x 9.x 9. .9..... .w.q. .o.q.p.p.8./ q.i.x.8.p.p.p.8.p.p.8.i.( i.i.9.i.q.9./ N  .q.q.o.q.u.o.h.u.o.a.o.j.:.",
"  x x x T | ..X.X.t.x 6 6 | +.I @.7 @.) | 6 ^ f f f f 4 N f N f 9.4 x M o...x x h.I x I I f M x x x 6 ..o.| x a.+.| | t.k.| | w.l.h.l...t...4 h.h.4 o.x { x h.w.a.w. .^ w. . .{ 9...{ { ..{ x x B ^ o.+.x {  .^  .I o.| z 6 x o.o.o.^ o.w.^ ^ ^ ^ u.h.x O.w.+.x 6 ,.6X<XQ.z.k.w.o.o.j.w.z.o.^.h.u.~.j.k.j.k.~.l.j.W.7Xt.k.7X7X>X7X<X7X~.j.d.f.a.f.k.j.a.t.a.z.>X>X7XQ.7Xj.j.a.~.j.a.k.k.u.k.t.k.z.X.5 x x } X.I R U 2 5 R 1 1 1 > p i L E > K K E K K 2 > K ; 3 K V K K 3 3 2 L P 2 3 2 3 p 3 ; p 3 ; ; p ; > i ; ; u . O i ; ; > ; i < 1 j ; 1 > p Y < < ; Y g < ; 5 1 * 5 = , < p > 2 P h L U Q *.D D #.Z S A *.A U 2 A *.A A V L Q 2 A L E - E V L X.2 } U 2 I L 3 I r.L * r.L U y.5 2 P L I 5 U A 7 L L Z I A I A 5 L U A U D U D I *.I D U U A r.- A L } 2 } U A A D 5 S U F A D U A S Z U A 2 I I 1 A 2 5 h L * g < O > T O % < . > p s > ; ; ; s . ; ; # O # o . o O O d d % :   b e   w   M y + @ % f % m e % 5.r r O d % % f : w % d e 0 X c 0 B q X z N B X 8.B ( / z ( q.i.z / w.x | +.o.o./ 4 ( { o.z q.w.i.x z 9.w.p.z ( q.z N q.^ 8.( ^ ( ^ ( ) p. . .q.w.u.( o.w.p.o.p.o.p.( / p.( /  .9.z z N x & q./  . ...4 z.x o.{  .^ h.o.& z z x o.x o.h. .i.9.w.4 ..o.z g x i.q...x N ^ 9.x x i.N N x 4 M x 9.X...N x 0.T M M 9. .i.q. . .q.q.w.q.9.q.i.p.p.8.p.i.i.( 8.i.>Xe.w.j.i.z.q.q.N x  .9.9. .q.h.w.u.w.u.h...u.{ ",
"& z x g 9.....O.k | 7 I ^ I @.{ @.) +.) 6 x ..z 4 N M z z 9 f N i.f  ...0. .{ | a...x T 5 x T l x x 6 x w.w.6 u.{ { { { w.{ { ..4 6 |  .{ 0.h.x z z.e.w.z.p.u.w. .q.^ ..w.o...|  .../ x q.h.w. .| +.o. .{ o.w.x h.q.w.h.u.w.O.h.p.k.q.o.O.w.h.h.h.a.w.^ h.t.h.h.j.a.a.a.+.u.u.o.O.o.o.z.j.h.a.u.u.j.>.a.a.j.>Xk.k.l.>X7Xk.+.{ ..u.o.i.a.u.u.Q.j.Q.k.+.k.d.a.a.+.u.u.^ a.u.:.{ +.+.a.l.k.+.+.O.+.T.t.O.6 5 R I 5 X.R = 2 r.1 > p 3 2 * ; Y 3 s > > p 2 2 3 K 3 K 3 V P K 3 P K * 5 2 2 1 * i i K h 5 > 3 ; > Y 3 * > ; ; * s ; ; 1 ; < ; > , * i = ; 1 < * < > Y < ; 1 5 5 5 < g i h 2 > L V A L U W S F U Z F D U V P L - X.Z U U A R U L A I A I A U *.5 I E - L R R I   A *.R R * L 5 I 2 - L 2 R P 2 A A 5 L A 5 P A I U 5 D L 5 A A I - A U R - *.5 5 P U Z I D A Z U S D A U D P } A D A W A A U E = 2 2 5 < 1 * ; . * < > . , , ; p b p > @ ; * 7.u s ; p : O . e   j % w d # # : $ O @ y   d 9 o o e b   % % e % % % % o & O f $ % o b j e o 9 % q N q B q / B 0 q.X X j.z.^ (   ^ { x ^ z B z ^ 6 ^ z z & x B 4 & / w.q.i.^ q.q.( 8.i.q.8.( p.8.q.( ( ( i.q. . .w.^ ^ ^ ( ^ u.( q.z z o./ z x N z / w. .9.^ B / w.w.x ..q.o. .w.z.u.o.& 0.u.w.z.w...i.4 ..q.9.N  .M z q./  .M x x / ..^ f z M z ../  . .M N  .q.M ..i.9.x ..9./ q.^ ^  .i.w.q.i.i.i.9.e.x.p.8.8.q.x.i.8.q.( 9.w./ N f q. .^ q.q. . .i.h.i.h.i.h.^.u.p.o.",
"x x 9.g e.l x I 4 ..l { x 6 | x >.^ o.6 4 ^  .N z z N f N v N f 9.% ....o.w...T h.x 0...x 4 ..x z O.w.O.a.u.I O.O.O.X.{ O...O.X.O.{ w.| w.l. .z.e...h.M 9.( N x i.i.w.q.w.w. .q.w.e.i.X.9.9.o.x :.+.u.+.u.h.q.z  . . .u.u.z.u.w.j.j.w.u.i.h.k.h.w.w.i. .h.w.h.j.d.+.+.+.o.q.i.i.~.i.o.z o.u.z.o.u.j.u.f.:.{ @.@.a.g.O.a.k.T.Q.u.d.w.j.j.d.a.k.:.j.Q.a.>Xk.z.j.| d.~.k.!.a.~.~.<XQ.>Xl.j.k.T.7Xd.l.z.l I L I R I L *.R L r.1 2 L i p p ; L . p 3 K Y p K ; K ; 3 K * p E K 2 3 3 2 2 K K ; 2 p p p 2 h 2 ; 3 Y s # p ; O ; p ; > h p i > 2 ; * , > , l < l R p , 1 ; 1 Y T 5 , k > h 1 3 h L A U U #.W F F Z F S U S L *.D *.S F U V } *.L V U L R 5 2 U A R X.- 2 L L E L X.R - 2 5 y.L I A I A - } X.V A L U F A - D D I U A I X.I L U R A U R t.P t.*.U *.I D 5 F } U *.D D - =.U U U S A A U A 5 A L - V 1 2 * A T * ; L k < O l g ; > > > ; * ; ; s ; # * u , O o f o d % O O w   w   o @ e # # d d o r e   5.r % @ : % o f % % $ $ e e 3.d   e 0 t X v 0 B N N z / i.q.q.4 ( N ( u. .4 B | w. .o.( ( ^ z ) ( ( ^ i.i.^.i. .x.q.z.8.q.p.p.( q.8.p.q.p.j.p.i.O.o.| o.i.o.q.:.u.u.i.p.u.u.o.p./ /  .q.q./ w.z.i. .(  .i.i.9.w.| ..i.w.i.x w.M z.i.M h. .i.h... .i.x ..q. ...q...M z x / 9.q.M 9.q./ M ..z w.e...x M 9.M 9.i.q...9.9.x ..z M q.i.q.( q.9.q.9.p.p.i.i.q.( q... . .| h.q.q. ./ w.w. .0.q. .9.w.z.z.i.p.i.z.h.^.i.",
"z z  .f w.x x I 7 { I { x I | { :.{ O.O.x x x z b t N d N m N M 9.z ^ x ..w. .x w.x w.I w.< T ..x w.w.| ..| x { O.O.| +.O.| X.w.w.....h.q.x % ..x q.B z.8.i.q.z.w.w.9./ q.w./  . ./ w.q.w...q.| u.o.o.^ ^ w.i.w.w.i.w. .^ q.w.^.i.o./ p.z.w.p.q.o.j.^...i.h.~.u.a.h.j.~.h.j.u.o.h.p.o.z.i.q.o.h.j.d.o.j.k.d.>X>X>Xk.,.>X>Xa.a.u.j.+.d.a.u.u.f.u.a.~.k.k.a.<X7X~.j.a.:.u.l.>Xa.a.O.:.u.k.k.{ a.u.k.l.| 7 } { -.X.5 X.r.1 0.L h i ; > > ; s * p * 3 6.; p p 6.K 2 K K K 3 2 E K 3 2 3 3 p ; p 3 ; 1 * < 2 > . p p > K ; O > ; ; > 1 k h k h ; 1 1 > ; < ; ; Y . ; > * < 5 I = * 5 1 l p > 5 L A U F *.W #.` S #.#.*.F Z Q U W S - U - E U I P U U A A A D A U U 2 U L A L A - R U r.- 5 A U - A 5 = S I - 2 - 5 5 A 5 A S F U U U U D A U D A 5 - *.A A U - U 5 S D F U U *.#.#.A *.U D U F A A D A A P U - 5 5 L * . L * > < ; . * T f ; ; ; 3 > ; p u s ; w ; > %   : % % o % .   e.o : O o # # e   5.n   O % % e.f   r f M . : < % B : : % n y + f   d B N %   f z f N 8.B N / z z z o.o.| O.w...( o.) ^ ( o.o.) ^ ^ ( B N 9.i.8.q.i.q.8.p.q.o.q.w.p.!.q.p.z (  .q.u.u.~.i.k.k.u.+.p.>.o.) { i./  .q.( o.( 9.q./ 4 q. .4 x q. ./ h.w.x M x ^ f < B { z.z.h.i.M 9.z.M ^ ..9...z x  .9. ./ x ..9...w.9.9.9.f 9.q. .M M  ...0...x T .. . .w. ./ ( 9.p.q.q./ p.q.i.i.( e.i.w.i...o.u...q.I q.w.e.w.w.9.9.....q.9.z.e.i.i.i.i.p.i.i.",
"4 z ..g 9.T M | 6 L x | x ..| O.o.{ O.w.{ x f e f f N N N z N e.9. .q.^ x T t.w...x T l 0.k M M 0.o... .{ w.+.w.O.+.| w.I x M ..z.h.q.t.w.e.z.z.9.^.( e.p.8.8.e. .9.q.p.p.z.x.z.w.q.z.i.i.9.w. .o.o.a.o.o.o.w.q.o.q.u.z.u.u.z ^ / q.j.i.j.i.^.z.j.i.h. .z.q.h.j.u.u.i.h.q.z.^.h.z.i.^.z.^.i.z.7X^.z.^.7X<Xj.j.XX7Xk.>X>Xk.+.+.Q.>Xj.k.j.j.d.k.k.j.k.k.j.l.>Xl.u.+.+.~.j.k.a.a.7X7XQ.k.k.l.x k.7X~.l.l.4 6 } X.I I l X.= R T h 2 > > i 5.p p E > > 6.* 3 ; p s * K 3 3 3 K K p s > 3 * > 3 K p p 2 * 3 1 p * p p p 5.; ; p ; ; ; . 1 > h g < i p < ; ; l . Y , R > > , , l = < , p I L 2 2 D V #.U W W ` H H $.#.$.U S U W *.=.#.*.Z U Z U U R U - U U I U A P A 5 A L - 2 D t.* A 7 U L L A U A I R U A U U U I U A A I D P U U U W I } L I Z - *.U - Q Z U L W U F - Z U #.U D U F D F U F U F D P I E - 5 A 2 L * 2 l 1 ; ; ; O T , ; 3 > u p ; p . b . s > # O # : . o O % O   e.# $ j o :   M # j y o r O $ d : # % f 9.O o % 4 9 : %   m e   f 3.M o X X z f N B % 0   N / B B  .4 B z a.u.^ ^ q.o.u.o.( ^ ^ p.i.h.p.i.j.q.q.q.p.p.8.q.q.( ^ ( z o.^ p.^ i.a.u.a.u.Q.w.:.o.u.o.:.{ o.B ^ u.o.( / z  .q.u./ q.q.q.^ z u.q.B f i.9.f x  .N  . .^ z.9.w.x ..M q.w. ./ M w.9.x / ..M ^ 0.M  . .M ( w.w.w..... .x q... . .9.M M ....9.9.h.9./ ^  .i.q.p.9.i.w.e./ q.h.i...h.w.o.w.T 9.{ x X.9.9.9.9.9. .9.9.N h.i.i.i.j.i.p.p.q.",
"x T / z x { k w.T 4 6 0.| I 6 w.x x  .^ 4 / / k N B N N v t v e.M x T M ..w.h.O.T a.{ x X.t.T x z...x |  .t.O.x { O.x O.x O.w.i.z.o.h.M q.x.N 9.q.M / ( ^.x.z i./ q.j.z.q.i.q.i.i.q.h.q.h.w.i.^ h.p.~.u.p.u.h.j.j.z.h.j.h.^.u.u.~.p.q.w.i.u.i.i.j.i.i.o.j.q.i.i.o.u.q.w./ p.i.z.^.p.p.9.z.z.p.h.z.p.u.u.j.w.u.!.k.j.yXz.>X7Xj.a.k.h.d.h.k.d.l.j.l.u.~.~.j.u.+.j.~.j.>Xa.z.HX^.>Xa.u.a.l.>X7X>XO.w.a.7 t.& D I } I - y.Y r.L > 1 > i p r.; > n i # 7.; p ; K K p * p K K 2 K 3 3 K p > 3 * p p K 2 A p p K ; K p ; K ; ; Y > > 2 . p < 1 i < h j < 2 L * < i h > . , 1 = 5 5 h g 1 Y k 2 - L - *.=.;.#.$.` ` N.#.F F $.F F F } F =.D Q A U Z U *.A *.P D } I P D L D I P R - R A U A A U U 5 U A D A S A U D A A U U Z U U D U D A } D U A F D A *.} A *.U U A D #.} F *.*.F G U F U F } #.*.*.#.U A - A - A A 3 = 1 3 h * 2 p * & T < ; > ; ; > s ; > ; ; n 6.  : : . O   b : : r T   f n   n   f o b d $ % o r r % f O j 5., e : : O % : o b O $ $ M e B f 0 f f N B q.^ z / j.z ^ q.j.^ { 6 z ^ z ( ( u.p.o.p.o.j.( u.p.8.i.N ^ ( / q.z ^ q.8.^ ( u.o. .p. .o.j.u.| o.!.a.:.( @.u.o.o.^ p.o.o.w.6 ( .. ./ o./ ( x z w.o. .z  .x B ../ q.w.w.../ M z.q.9.w. . .h.f ..x ^ 9...x w. .x / i. . .9.9./ i.9.i.w.z M M h.e.....w...t.0.q.0. .9./  .w. .q.N 9.9.p.^ x i.9. .....w.x x w.x | h. .e. .x / 9.e.9.q.e.z i.x.p.q.e.p.q.q.q.",
"/ N ..l N | g ..T ^ l { x x 4 w.| x q.^ 4 ..9.z N f 8.3.0 N N 8.e.4  .x x.w.w.{ h.t.x I w.w.x 0.z.T x ....x { 4 h.t.w.x I h.h.T.l./ i.i.e.0.i./ i.e.z.i.z.x.q.z.z.z.i.q.N q.p.q.w.q.q. .w.9.q.q.o.u.u.p.u.u.q.p.i.u.i.i.p.u.i.p.h.z.w.p.^ q. .( q.^ i.i.j.i.h.q.o.i.z.i.^.i.p.8./ q.i.p. .p.z.p.q.i.i.i.^.j.j.z.a.j.l.a.o.h.a.+.a.k.j.k.a.k.j.j.h.k.~.k.h.>Xz.a.a.+.u.+.+.o.u.:.j.O.u.@.j.k.O.{ { l.>Xk.I 6 U I r.7 r.h X.L > Y j ; 3 x.j 3 Y . p 6.. p > K Y K K p 3 p K K K 3 > K K 3 3 p p > 2 * L L L n ; p ; p K ; E b ; p O 1 , L i 1 h 1 > i > 1 < < L ; i 1 < = 1 R 5 , h h h L 2 A A U &.=.$.#.M.A.$.' #.$.F #.F #.` =.#.} U A ;.S F U U *.Z I ;.Z E } A U R X.U A r.U A U U U Z 5 D U U C A A W #.A Z U F A F A #.*.} *.U F U D A U } U *.D *.S U U W #.S _ #.} #.} #.F #.U U U } A 7 D D A V V A A 2 A 1 3 h * ; > * > h i , 1 > 2 > > i * . u > Y u % . f : % >   e O x.O ; n   j u # O e b : e O r r j e f 4 5.< < % & % f : e : r o d d r f $ o B N x f q.M q.M  .x z o.^ 6 ^ ^ 6 p.u.p.>.( ) p.u.8.( >.( ( z q.^ p.z ^ ^ 8.p.j.o.p.p.u.( o.i.w.u. .{ @.{ @.>.u.+.@.6 :.^ o.u...^ o.u.u.^ ..{ ( ^ ^ ( 6 z  ./ u.q.h. .N x  .q.z M i./ q.w./ 9.x ( ^ z  .N  .w.z z 9...x N i./ 9.9.q.M w./ x 9.^ ..i.q.x  .| h.e.e...0. .q.w.q.q.^  ./ q./ /  ./ / 9.9.w.M M | w.w.{ o.X.9.i.9.9.e.e.9.M h.M q.N i.i.e.i.e.p.8.e.e.",
"w.f x z x M < ....T 4 ..x I 4 o.| 4 M ^ z / N f f N / 4.B N v 4./ x q...q.I O.0...| z X.z.g 0.0.h.| x w.o.w.| 6 a.w...O.w.I t.w.x h.h.h.z.9.z.z.x.z.z.8.i.q.p.q.p.i.i.z.i.i.i.z. .9.h.w.i.i.w.h.u.u.u.p.q.o.( q.^ z ( ( x p.i./ q.q.q.q.q.z.w. .( N i.q.q.( p.p.q.o.q.q.z.e.w.i.h.i./ / / u.u.q.z.h.8.q.z.j.i.p.~.h.j.z.>Xz.>Xk.k.d.a.a.u.u.a.~.j.k.z.k.u.l.j.~.~.u.a.k.k.+.:.l.7Xk.k.a.+.w.+.u.k.{ +.O.t.7 7 7 I 6 X.I L p p h L p : T > i 6.> u E p ; * p p ; K K 3 * K E K s 3 K s s > K p 3 L * p L L K 3 2 p p s ; p > . 2 = i 1 Y 1 i h i 1 h h 1 ; < k i Y Y > , = X.5 = Y 5 Y L L I Z #.#.$.N.&.&.&.&.&.&.&.$.=.=.$.#.$.U #.#.F -.U U U Z *.*.U U D D P V U U A - A -.P - A - U D F U U U U U D *.U P D D #.A F U D #.D } D U } U U F A W *.U U D *.} F -.G F F U #.$.%.#.U F #.#.F F F S U S D A - - A L L L p ; 3 2 p * k Y < ; > p ; ; > ; u p . w ; f ; . , r O O :   e..   e o T c : #   % O d : d % :   . o j X % : % O e o < u y o e % f f f : x x x T q.z ..z  .i. .o.^ x ^ o.| i.o.( ^ ( ( >.^ ) 8.( ( ) q.p.( / ( p.j.q.^ (  .^ q.q.^ ( u.o.^ +.{ ( a.u.j.>.@.>.) u.) o.x  .u.o.O.z o.o.( o... .u.i. .B & ( z q.z.w./ ../ x q.x x 9.^ f / x / z x h.w./ ^ z 9.M  .q./ ..B z  .q.4 M / /  .z 9.M ..0.9.q.i.w.i.x 9.0.w.0./  .M q./ 9./ ( e. .M w.i.h.w.w.X.w.t.w.t.h.h.l.w.l.z.z.e.M e./ w.9.w.9.q.8.q.q.8.p.p.",
"9.f ..z x x f x M { f X.M x x x  .4 x M z M z 0 f 0 N N 0 f N N w.M 4 z w.w.w.O.l.w.x ..t.< T ..M x 4 9.q.| x 4 h.t...| w.7 o.w.T z.i.w.z.N x.z.8.i.q.N e.i.x.e./ i.q.q.i.h.q.x.i./ q.9.9.q.z q./ ( (  .u.p.q.9.z.p.q.q.w.q./ 8.i.q.w. ./ i.q.i.i./ q.8.q.q.i.i.p.i.p.8. .  B ( h.z.i.j.q.q.o.j.z.z.i.i.i.i.z.i.z.j.j.u.h.w.w.o.@.o.l.d.k.h.u.~.k.h.h.j.u.a.u.+.| d.k.+.h.>X~.+.O.{ a.z.a.+.h.>X<Xa.l.+.s.{ 6 I 5 L L X.1 2 l i i i ; p ; i Y ; p ; p * K K > 2 * E L 3 Y E 3 3 K s 3 3 K K K 2 2 * A K p i s K p > p ; K 2 * > ; 1 < i ; < 1 , > i h ; * < 1 h i h < 1 . R 4 = l 3 Y = L D - F $.&.I.S.&.&.] M.&.&.$.&.#.#._ _ H =.#.U *.*.#.F Z #.-.U A *.D A L D *.U D 5 U *.U =.D A S U U U Z U D A U D U D A Z G A D Z U A F U U D F #.U F F U #.F U ;.#.F =.F #.` &.#.F - F %.#.} #.U F F D S A S V - - A 2 3 2 * * > * * * , = . * * > ; i s ; ; ,   < O r . X 4 , & : % . k # : j # O     $ r : % $ . j f j , j j T % r : : : : # O u y r y   e M n f : M B f 9.x 9.^ q.q.^ w. .u.^ ^ ^ o.o.8.p.o.p.q.z ^ q.( ( ( p.p.9.B z ( q. .^ ( :. .^ o.o.+./ ^ u.k.o.{ a.@.o.^ ) { ) | ^ o.| o.o.^ u.^ o.{ ( o.^  .w...^ i.i.u.^ z.h.z ^  .9.q./ z / ..x 4 / / q.q. . .^ z  .^ B  .^ / / e.M 9./ q.z x / 9.( x i. .6 q.o.w.x.w.q.T w.....9. .9./ / z / z ^ w.M x q..... .w.h.a.h.w.a.h.h.w...w.9.9.^ / 9.M q./ q.N / / x.x.8.p.q.",
"N f 9.M f g f x I | f 9...x M 4 9.^  .N f ..M k f z v z B N N / M q.x x M x w.z.q.X.0.w.0.T x x T / N T x...| x ..^ t.{ ....0.h.h.w.e.| i.i.e.e.0 q.i.w.i.8.p.p.^ x.q./ / / 4 z / x  .q.e.z...q.u.i.k.z.j.p.p.i.q.i.i.q.i.j.q.i. . .i.q.i.i.w.i.z.q.q.q.w.q.q.9.o.p.w.( ( z q.h.z.i.x w.j.~.z.~.z.x.i.j.z.z.^.z.o.q.h.u.h.h.z.T.z.Q.>X:.k.k.a.a.o.a.j.h.p.k.j.j.k.j.h.z.7Xd.h.k.>Xj.w.a.+.k.k.o.x o.>.{ 6 { 7 X.} I 5 0.5 1 R T i i ; Y Y > h 2 2 Y T.; ; K > K * 2 p 2 3 Y s 2 > 3 ; 3 K > 2 p p * 2 2 p 3 p K p 3 p p i p ; ; > 1 1 i < 1 1 1 h 1 k 1 1 Y i h < ; 1 5 * k 5 * l 5 A = L U - -.;.&.L.Y.C.V.V.&.&.;.&.;.$.&.$.$.#.;.#.#.#.;.-.#.#.U *.U S } F D U Z U } P Z Z W - } U S U D A A A #.F S F S =.#.*.Z *.F F =.F #.F #._ Z F F F *.;.#.U.=.=.=.F H &._ #.F =.%.;.#.F ;.;.#.H } U F S A Z A A A A 2 A 2 I 3 K Y 2 ; , 2 . . > > i 2 p p > ; : : y O O . j ;   r % O O O   O ;   ; j O : r : d d . O O : % f j j & : e : % : O : : : : r . k g % % 4 9.& x ....w.q.w...z O.^ w.z ^ ^ ( o.o.q.^ ( >.p.>.q.) ( o.q.( ( 8.8.( ^ ( q. .( z ^ ^ ^ ^ ^ ^ | @.^ +.k.+.@.{ ) q.>.{ u.+.u.o.x ^ o.a.{ o.| o...o.j...B ^ B z ..z N  .h./ z / x / /  .M M  .x  .x ^ q. .z M w.q.q.N N / 9./ / z f ^ q./ x z z h.w.z M  .q.h.0.{ | x...x 9. .w.9.N z  .M ^ q.^  .x. .x x X.......T I O.0.O.M q.| x M e. .M 9.9.e.9.i.8.i.q.8.x.x.",
"/ 4  .N z & 4 ....9.l ....z  .x ..z M 4 % x z z f N z N N N N N 9.q.4 x  ...w.9.g 6 0.w.T x l M 9.9.N x | x I x | { T.w.w.t.O.{ ..z w...T 9.z i.i.e.x f / ^ q.z.8.i.M / q./ z i.w.h.e.9./ i.0.q.i.q.o.q.i.q.p.x.z.q.x.p./ i.x.p.i.p.h.w.i.i.N x ( N  .w.i.i.i.z.p.z.w.8.w.w.i.i.9.i.h.i.j...( 8.p.z.UX^.i.p.j.^.HX7X^.7X~.j.h.>X<X>Xk.a.7X7Xz.l.z.z.z.j.u.z.a.o.u.h.a.O.w.+.a.a.j.a.+.k.a.j.j.{ :.+.+.+.+.+.7 t.I 5 6 T 1 2 P Y , , * T L > p j K . E 3 K 6.3 E V * 3 2 * K K K 3 p E K 2 * K E P * 3 2 K p 3 > K p p > * p > . 1 1 1 h < g 1 1 g 1 l 5 , k 5 p 1 * n h 5 5 5 , 5 Y 2 - L D Z =.L.M.S.I.F.D.V.V.&.&.&.M.&.V.;.A.%.<.$.;.=.;.;.-.#.F #.U } A #.} *.A F S S W U D - #.U F *.F F S S #.F } U F #.*.;.Z W F G =.Z F _ #.W F } ` G %.H F L.F F #.G _ #.#.&.#.;._ F Z F F F F F S Z G U F A S A D A V = 3 T 3 3 i ; 2 . < . . 2 1 p . > 2 > ; i ; < # O % T :   , < . r r j e o O O ; O : : o r f $ d r f < f j f ; f % B % e ; r w o n r # k T x r 4 w.4 / { x ..^ o.z z a.o.h.{ ^ z p.o.>.p.( ) ^ ) >.p.B q.^ q.^ ( ( 8.p.( u.p. .p.u.p.w.u.j.h.h.j.w.+.a.k.:.| >.@.j.+.6 u.^ ^ | h.o...+.O.w. .+.j.o.../  .i.q. .x 9.w. .^  .u.x ^ q.o. .o.q.w.z ^ q.z ^ o.o. .( z 9.4 N ^ M / 9.N x ^ / x q.i. ...9./ M q.x o...M x w.0. ...f / 9./ z 9./ M  . . .X.q.o...X.x I x { x I { ..x o.M e.q.9.N / w.e.8.q.e.M p.i.i.w./ ",
"/ f M M ..f l M x 9.x 9...g M 4 w.x ^ / N ..N N B N f N N N z z x  .f M ..T O.X.h...T x ..& I M g N : z l N 4 z O.x / x I 6 { 4 x T  .z x f < i.x.h.q.8.h.x.p.q.N i.i.i.i.q.M 9.f N x q.e.q.M x q.o. .p.i.q.N N x.i.q.8.z.z.8.z...e.9.q.w.w.w.i.x.q.w.q.i.p.p.z.q.i.p.q.i.i.i.h.h.z.z.l.k.u.>X^.z.z.z.z.z.!.!.i.j.k.p.k.z.>Xz.>X7XOXh.a.h.w.a.z.~.l.k.z.h.j.u.u.| +.a.a.j.w.z.~.a.w.h.d.{ o.a.d.Q.a.u.a.l.-.6 { D I r.X.1 g Y T * p ; Y > < p 3 p Y 7.; ; Y 3 > 3 * L E ; K p p ; 3 p ; 3 * 3 p 1 * 5 K 2 2 > L ; 2 K > ; Y 2 * 1 < , 1 = h , > 1 < h 1 * < 1 1 Y < T 1 k = h l < T 1 5 A L - } ;.;.S.D.S.D.F.V.] M.<.A.&.<.&.$.$.;.$.L.;.-.#.;.#.W *.} ;.D s.U W D Q *.U U F U U #.A Z D G S D F U F F F F G S *.W F #.} =._ F ;.%.#.F =.%.Z #.%.#.L.F #.L.<.K.&.&.#.` ;.$.A.A.-.#.F G #.-.-.} S F F A A A A A 2 - P 2 3 p K p 3 Y 1 i L 1 L 2 p > i > ,   O : % < e f : < j ; f . < O # : y 5.# $ d @ % O < n ; r % r f : O % : : O : O y u ; : ; r f <   . f 0.< x x x / x ^ o.o.w.^ ^ ^ | | o.( ^ 8.( ( o.>.) o.) ( ) ( ( q.( ( o.q.q.( z o.w.o.^ u.u./ { O.d.+.t.{ o.{ +.o.o.+.a.k.h.q.u.a.+.a.6 O.+.+.h.h.| ..{ x ....o.q.O.q.u.w.w.u./  .p.o./ z ^ u.z z ^ ^  . ./ q.q.o. .z ( 9. .q.e.q./ 8.q. ...q.(  . .q./ w.x 9.9...0.....9.w.B M ( / /  ./ / o. . .........X.o.h.X.h.a.w.w.q. .q.q.q./ / /  .e.q./ / p.x.i./ 9.p.x.",
"N x / k 9.x x f l T f ..0.z z 4 ^ z N x z N B N B 3.z N / N N f l N x { ..^ w.O.w.| { x X.g T z M N M M M ..x { O.x = O.w.6 a.w.t.o.l x e.h.i.9.N q.w./ / N f / f M M z z e.z.z.i.N ..9.w.M 4 / M  .( z 4 z 8.x.9.f x.i.q.z.i.4 ..h.q.h.i.q.q.i.z.p.q.8.q.x.i.i.i.z.z.z.z.e.e.h.z.z.z.z.~.h.^.z.p.z.i.^.z.j.!.^.j.!.u.>.h.k.w.+.O.a.a.z.j.@.a.>Xh.z.7X^.w.+.o.h.+.a.k.z.z.a.k.k.o.d.>Xa.j.7X~.| w.u.a.+.k.t.-.| 5 R X.R 1 < l Y ; Y 2 6.2 Y K ; p 3 p 2 E Y K K . 2 E R K Y * K K K K 3 L K P 2 2 3 L L 3 2 3 6.* > K i 3 Y 2 ; L 2 1 1 , L 1 1 I 1 h Y > 1 T < k > l < L 4 h L i I I 2 U U Z F &.A.D.F.D.D.C.F.2.P.A.A.;.<.&.&.%.A.%.;.<.=.#.;.-.#.#.#.s.U y.#.G A #.y.U Z Z #.F U U F *.U #._ S W F W F } S } F F S #.H } #.F ;.%.%.F #.;._ $.A.=.;.#.#.;.$.;.` #._ ` $._ _ F F #.F 7 D $.} Z A S D S A A A A L - 2 2 * 2 L 2 1 L ; h p * i > Y i > ; > # ; < < O . < f , j j y . r b j :   : : O : % r : % w & f : d k : < % $ < % % O j y ; n ; j r l f 4 f { 4 4 ^  .w.o. .^ ^ ^ / z o.^ ^ ^ ( ( o.^ ) ) B ^ ( ( z ( ( p.( ( z ( ( ( p.o.i.o.i.w. .o.O.o.^ ) ) { { ,.o.| { u.+.o.^ x { o...O.a.6 @.O.+.w.{ 6 .. .6 q.0.| o. .^ ^ q.x  .q.h.z.w.w.w.o.h.q.u.q.w.h. .x w. .9./ / i.w.N N N  .q. . .N x  . .M q...M o.q.e.o.o.z...M ..w.N w.9.9.9.9.q.q.w.w...9.o.T x  .w.z.x X.| o.| 0. .w.e.M ^ q.w.q.w.q.q.i.e.i.i.z.z.z.w.",
"M f x f 9.< f  .....4 l 9.x x M x M  .x f / N 3.z / f v z z f f / x N x M ..w.O.4 T h.T 4 k 4 M T f 9.f x N 4 4 x x ^ 7Xz.x | T O.{ i.l.| w.h.f M M / 8.e.w./ i.q.q.i.h.9.9.q.i.e.w.z./ M w.i.z.i.h.i.q.e.p.i.i.i.N 8.z B ^ f / 9.i.4  .T /  .9.q.p.i.x.z.z.x.z.8.i.i.j.z.z.z.z.>Xa.w.a.h.j.!.j.x.^.^.i.j.p.( ^ p.p.u.u.~.k.d.k.>X>Xd.7Xk.u.k.z.h.h.i.h.u.~.~.k.u.k.j.a.a.+.k.u.l.u.z.j.a.+.| a.u.d.j.a.k.+.+.I { X.I X.l 1 Y R 1 T 3 0.3 Y Y > 3 p E 2 K 3 K K P L 3 * 2 7.3 5.3 > K 3 2 ; K A L 2 * K ; L ; K ; > p 3 . i ; 2 h < < , < L , > T < < L h h I   L h l < L L h 5 5 h R = L #.7 S ;.L.I.D.D.'.V.n.V.S.A.M.&.A.A.A.;.L.;.#.A.&.%.;.*.#.#.*.=.F #.;.U } U *.S U U F A D F F F Z *.*.F F } S S $.#.=.#.F -.F H #.#.$.G F &._ F &.` %.;.G ` ;.&.` G ;.#.&.` &.A.$.$.#.` %.&.$.%.` F F H S A G S S C 2 V - L E . * K > 1 T < 1 L i h . p > > . > r ;   <   ; . O , . n j , r ; : i u : : o d , % . : l . r < < g % e 4 $ e : : O y r O :   k % g < < < 4 4 x ..M  .^  .^ 6 z o.6 u.o.( ) z ) ) ^ ( p.( u.o.^ / ( q.q.z p.( ( ) ) q.^ ../ o.^ x { ^ o...{ { { O.a.:.| @.O.{ ^ O...O. .a.{ 6 { O.a.| x x o...w. ...w.o.B B w...q.h.i.p.h.w.^ q.j.q.o.^ o.:.z o./  .q.f 9.q. .9.q.q.q.M N z / u.w.q.i.h. .w.x ..x o.h.| 9.h.X.w.O.w.9.z.9./ q. .q. . .w. .x  .w.o. .a.>XI 6 | w.9.w./ ..w./ / q.e./  .M q.e.9.i.w.x.i.e.x.",
"..< M k 0.f 6 ..9.T f 4 ..M f  .z ^ w.4 z x f z z z f x M N f N x { / x 0.w...w.x w.x T g z I x N z l f & w.x x I o.f h.O.x | X.t.l.l.7Xh.0. .w.h.z.e.e.w.z.e.h.z.9.i.p.e./ i.i.z N /  .^ w...q.M q./ p.9.q.9.( w.p.p.e.8.p.( ^.~.j.q.i.i.i.p.q./ 8.i.i.i.^.x.i.q.^.^.z.z.z.z.j.p.i.h.j.7Xa.a.w.h.i.u.o.p.z.~.z.j.h.u.~.>Xh.h.>X7Xz.k.h.i.j.j.a.a.a.| w.w.z.h.d.{ a.j.j.j.j.a.w.d.{ u.+.a.+.o.+.a.i.+.u.+.+.| { a.I | k l & 1 T : 0., > ; L * . K p K 3 K V P 3 V C P L * C K P * * E K * P 3 V R * 2 E * 2 p p 3 i ; ; * ; i > , < 5 l < h < 1 h ; 2 1 i 1 i ; L 1 L 5 L 5 5 1 * L 2 A = U U U $.U.Y.A.D.D.D.V.C.S.V.A.&.&.A.A.A.<.%.&.&.&.;.%.%.;.#.<.=.G =.;.} F #.F } #.U G F F F G F U #.F F F #.H _ #.#.H #.F F #.#.F #.#.F &.G - ' _ F $.#.%.&.A.$.M.G &.` #.A.&.` ' _ ` H G ` G #.F G F #.Z F S S S A - - 2 2 p 5 * * 3 g * 1 * h 3 2 1 2 1 2 < ; ; ; ; , O . O . . > g i O b # o w # y . % o % < ; r , O < < , < & < f f r   f y r e % o :   O 1 g n & { 4 { {  .z u.z ^ 4 o.o.w.w.^ B { +.o.O.O.w./ | u.o.w. .z q.( 8.i.8.i.8.o.u.o.u.^ O.6 | ^ x { x @.^ o.| ^ O...a...^ o.^ o.x @.+.7 @.>.| u.| w.O.x o.i...M x ^ x w.w.{ h.h.u...^ o...+.o.o.z ^ o. .o.^ u.^ ^ x x i.M 9.i.9.N / 9.o.9. .{ 4 ..w.| ..o.w.o.O.| | O.w.o.{ ^ i.o.( ^ q.^ u.o.o.{ w.u.{ :.k.+.h.o.w.i./ 9.9.q.i.w. .9./ e.9.i.f i.q.q.e./ 9. .z.i.z.z.",
"I x x g 0.T l f ..f l f 9.T f x x x M 4 6 z z x 4 4 z f z 4 4 / M x x  .w.i.0.w.x 0.z x x l x 4 T ..w.M 4 0...% x { x t.R w.l.+.a.{ +.O...| 0.9.M q.i.i.N x x x.q.N 9.N 8.N 9./ / f ^ N x.w.9./ i.w.i.z ( u.( p.q.8.j.z.z.HXi.8.q.j.z.!.j.z.z.i.z.z.^.z.x.^.z.^.z.i.i.^.z.z.z.x.z.z.l.h.T.i.t.h.u.i.j.z.!.i.w.u.j.z.z.j.z.k.z.~.>Xz.j.!.a.a.u.u.h.k.>XHXd.+.+.>Xw.j.d.j.k.!.j.k.u.a.z.O.o.d.j.u.a.u.u.h.u.u.w.+.h.o.w.5 < 5 L L , i 2 Y 2 Y E E K 7.V P 3 P V P y.V Q E 3 * V E K 3 P K V Q K P L 2 A Y * 2 > 2 ; > ; 3 ; > p 1 1 < h l < Y i 2 T h k Y T 1 2 . I 5 L 1 5 1 1 1 L L L I 2 U Z 7 #.A.Y.D.G.D.Z.D.D.D.S.S.V.A.&.2.' ] ] <.A.&.A.;.&.%.#.&.;.U ;.$.} H F H H #.#.F F } #.#.#.#.#.F F F #.F F F #.#.F F H #.W W F ` F $.&.` L.&.L.A.&.$.#.&.%.L.` &.&.' ] ` &.&.&.&.G ' %.G H ` #.Z #.F U D U U S V V A - A P 2 1 * L 3 1 * 1 = L I 5 2 < ; 2 > ; ; O . . g . < O < , * j : u y + y $ e O < % . , 4 = , , l 5 % < < : e   r r e r : u j % n g 4 g g | 4 ..x ..{ i.z ..z ^ w.| ^ ~.w.6 o.+.u.w.{ x o.f z  .q.z q.( 8.( z 8.( ( q.( +.| w.{ +.| | { { o.^ { 6 z { ..w.x 6 { ^ o.+.o.u.{ 6 7 @.+.a.| ^ z { X.q.q. . ...o.o.{  .....o.u.j.o.o.o.u.u.u.:.u.u.>.h.o.w.q.i.q.z N q.( /  . . .^ ^  .^ .. .| x { x @.O.+.{ x | O.w.w.u.o.o.@.:.) o.^ o.u.l.h.o.o.o.x o.O.0.w.w.9...q.q.( M 9.9.q.9.i.e.z.e.9.9./ w.q.h.e.q.M ",
"Y ..< T 9.x f j 0.f g 4 ..0.x f T ^ z x x ^ z ^ 4 z x 4 4 B f x / l x  .e.w.T 9.M w.x / w.T x x x 9.x 4 ..M 4 x ..l ..h.{ I I x { 7 +.X.I t.z.h.i.x e.w.w.e.x.h.i.e.i.q.i.q.w.9.w.w.q.q.q...i.h.w.h.i.z.z.i.q.i.z.z.i.i.z.^.8.HXj.o.j.i.z.z.j.z.^.q.e.q.q.z.x.^.^.^.i.8.i.e.p.h.i.h.t.| t.| a.k.k.^.^.z.z.~.z.^.u.w.w.u.h.u.h.^.h.i.:.u.u.u.w.d.w.a.u.+.O.h.k.l.+.+.O.a.a.a.a.k.k.j.>Xk.k.j.a.d.j.a.w.a.o.+.| ..{ 6 I < < l 0.L 1 i i 1 . > i 2 3 K V V V P E ! Q 3 R P 3 * P E 3 * 3 3 C Q S V * * ; 2 . i > ; ; 2 ; ; ; 2 l 2 h < 2 < * h h < i < < < Y < L ; 5 2 1 2 2 2 5 h I 2 1 L = R 2 - #.N.I.I.I.S.D.S.S.D.F.A.A.S.&.V.&.<.M.A.A.A.&.&.&.$.$.$.N.` ;.#.` ` #.` F ` F S G F U ` W U F G %.#.#._ #.F &.;.#.=._ ;.H N.$.#.N.#.$.` $.` L.A.&.;.A.A.' A.M.P.F.A.] %.A.[ $.%.F %.` ` _ G A.` #.F #.P D S A V V S - 2 L L 1 ; 1 * 5 3 2 * 2 I h 2 = * > > ; ; O O . T . 1 ; < > : : r : u 9 y @ % O % ; ; l Y = g g L j < , < : y u n b u s @ : r O j O & < , O.x | / / q.u./ ^ z x ( h.o.u.u.& u.u. .^ w... .9. .e.p.^ p.8.p.( ( q.>.o.o.x @.{ { { { { | 6 ^ ) ) :.{ +.+.( ^ ^ ^ x ^ { o.| u.:.{ >.,.{ o.{ o.u.{ z ^ ../ / ( | o.o.{ o.+.>.u.h.+.u.o.:.{ o.@.| +.+.+.| w. .w. ./ w.e./ x  ./ ..^ { u.w.+.O.O.a.+.@.t.+.l.a.-.w.l.h.k.a.u.a.u.a.o.u.O.u.+.a.O.@.{ @.o.u.z. .o.w.....9.9...{ q.M / / 9.q.z.M x  .9.e.e.e.i.h.i.",
"x 9.l q.M x < ..w.4 x 4 x o.M 4 x / 4 ..x M 4 f x M M z z f z M M x x  .9. .x x x 9.f l 9...f f f 0.z 4 w.x f w.4 x w.>Xh.w.t.h.t.t.y.h.x w.....x f l.e.M x ..w. ./ w.p.i.q.i.q.i.z.q.h.i.j.z.q.z.^...i.w.u.h.^.z.j.^.i.p.z.i.i.o.^ i.w.p.o.p.^.^.i.^.x.x.^.q.q.p.p.p.x.z.z.^.z.q.q.w.o.h.w.-.w.^ q.w.o.u.i.i.o.i.h.j.~.~.h.e.h.u.w.o.o.u.u.l.z.k.h.d.h.k.k.h.t.j.j.k.l.l.u.u.l.a.u.k.a.w.a.+.| u.+.+.+.6 ) { @.z.O.t.4 5 . L 1 < R Y < 3 p 3 p p 3 E 3 E V E P 3 V P 3 3 V E K 3 V P P V E P P 2 2 2 2 3 L p ; 3 ; ; ; > p L < Y 1 5 g , h h 1 k i 1 , T ; T k 2 5 < 5 < 2 1 h R = L A - -.U A W ;.I.D.D.C.Z.Z.D.*XD.S.I.I.D.I.F.D.A.A.A.&.M.<.N.<.A.&.<.$.L.;.#.#.#.#.#.` ` F F ` #.` #.H #.#.#.F F H F F #.&.H H F H F ;.F Z &.F &.%.;.` A.&.' ` ` #._ &.$.[ A.A.&.&.A.` ' &.' ` &.P.] H ` G F U #.S Z A Z V V A - = 2 2 A h * * 2 2 2 = * 2 2 1 2 ; 2 ; > p ; & . 1   < < * p , . r O @ @ y # o % % : < g T O ; < , ; & % . . : o : : # w : @ y O < O : : & 4 4 ^ ^ 4  ...f z B B z w.o. .h.^ >.( x ^ ( x M p.q.q.q.( j.p.p.q.>.p.8.o.@.6 +.+.+.+.+.@.a.| :.{ 6 ( | o.w.^ { { ^ ^ 6 ^ 6 ) a.,.@.>.@.@.@.@.^ o.^ ^ /  ... .| o.{ u.o.u.u.o.o.o.+.u.u.p.o.+.u.>.a.a.u.w.a...o.w.w.h.u.| / o...w.w.{ ^ { u.a.a.+.@.{ ,.{ -.a.,.h.l.O.w.@.:.l.@.:.+.k.d.l.-.l.s.:.:.f.a.{ t.6 w...9. . .9...9.q.9.i.e.e.e.z.q.w.z.9.4 9.i.h.w.q.",
"f 9.0.T f M 4 .. .: { M M | ..x M ..4 x f M z x z f z B d f b z M N T ..T M N l ..9.f x w.q.n ..x 9...e.....w.T 4 0.w.t.w.O.t.a.I X.6 | X.i.w.0. . .h.9.w.z.x.9.i./ w.z.i.i.z.h.h.w.q.w.j.j.k. .j.z.7Xi.h.^.u.w.w.:.h.p.q.h.h.z.!.p.~.u.>X~.i.w.N w.z.u.w.HXz.i.i.8.( 8.j.q.z M h.h.z.h.a.w.t.d.j.h.p.u.h.i.i.j.u.h.z.h.i.z.z.x.j.k.z.u.~.z.~.z.h.a.a.w.h.a.T.7Xa.l.k.l.d.j.d.j.d.a.j.a.-.l.d.k.a.d.k.>Xa.k.k.7Xa.t.t.R l < L 1 h r.6.2 p p 3 ; p K K K P P K P Q Q K * P V K K 3 V K K V V ~ K 3 2 * 2 2 p ; . > > * ; 2 i L > h < 5 L L 5 1 = 1 < i 3 T * l h 2 h 1 h 2 1 = 2 X.< E I A y.U - U &.I.S.D.S.D.G.D.*XA.V.S.I.V.F.V.V.2.&.V.A.A.A.M.<.;.%.` ` #.` $.` &.$.#.$.$.%.F $.$.#.H #.$.&.#.$.$.A.#.#.#.;.F ` ;.;.&.&.$.` ;.` $.%.<.#.&.&.A.%.&.A.&.A.&.%.&.F.&.&.<.] &.&.` ` %.` G $.;.N.F _ W F C Z C S A D 2 2 - 2 5 L 2 3 > * 2 2 3 2 L i h ; p * > p , O O & O , 1 O Y r   , O o @ y : O : : < : ; < g l , i , , f r r d % : w 9 4.5.@ : e O : ; e % 4 z q.9.x  .( x /  .z q.^ B ^ ^ ^ ( ^  .w.x.q.p.h.q.p.p.( >.( z >.p.>.u.d.:.+.k.d.-.,.+.+.k.:.k.+.o.^ { ^ h.o.o.+.o.w.| u.@.u.Q.,.,.>.@.d.>.+.{  .>.p.u.o.( o.u.o.o.j.+.u.u.o.o.>.>.o.o.>.>.>.o.:.:.+.| | u.| o.h.w.w.o.o.w.u.o.o.d.a.a.a.l.:.@.t.,.a.k.+.a.1.a.s.t.{ +.| s.d.+.:.-.f.s.a.-.T.l.d.+.a.+.{ k.I o...| | ....q.0.w.9.e.u.9...i.9.x.h.w.M i.t.e.0.w.",
"x n 9.x f ..j ....4 N { x M 9./ ..q... .x ..z x M B f z / N 9.M / m / x z x M x M N f 4 5.M f f T  ...w.| 0.h.w.T.HXh.w.X.I { w.{ +.{ { 0.| ..q.x e.x./ 9.h.h.h.z.q.q.h.i.u.h.o.u.o.w.h.w. .w.u.w.j.z.+.l ^ O.u.u.i.w.O.p.( z j.j.u.z.u.h.w.u.p.z.j.h.q. .z.j.z.HX^.z.j.p.z.z.^.i.a.l.t.O.| O.h.j.~.^.~.~.j.h.j.h.u.w.w.q.j.>XHXp.h.~.i.k.h.k.:.h.k.>Xl.k.j.j.+.:.a.l.a.k.>X~.T.l.a.k.l.u.d.a.k.j.h.w.a.a.t.x 7 { t.O.r.= 2 * = * * p > p 2 E K 3 3 E E K Q P 7.Q P 3 3 7.V * K K K V K K E ~ K * 2 p L Y K 2 ; ; > ; ; 2 1 Y 1 L < < g g O 1 , g , g > T 1 Y T = L A 2 1 5 2 2 R - L V = R D = G #.A.A.I.D.(.*XG.*XG.I.*X*XD.}.F.S.A.F.A.F.S.F.V.<.&.M.' &.&.' ` $.%.&.$.%.%.' ` $.%.$.` _ ` $.F #.%.;.F ` F #.#.` &.#.#.F #.H A.$.` ` ' ' ` ;.' &.A.A.&.` $.M.V.A.] ] V.&.&.&.&.` M.&.` ] G G F #.#.F Z Z Z U P P C V L 2 2 L Y 2 1 2 1 2 < 1 L 1 2 ; p ; u p ; ; , ; , , , . j , O u w : : e $ + $ : > , ; < 5 g , < < O < ; : e O O @ # b y #   e e b   % < & z ..T z z N f z / x q. .o. .o. .i.p.w.p.i. .N ( / ( q.8.q.p.p.o.>.p.d.d.d.d.|.XXk.f.s.s.k.,.k.d.j.d.u.| >Xu.:.+.^ o.@.d.o.u.d.d.Q.,.E.d.o.@.u.p.d.i.+.o.q.p.p.o.:.u.u.j.a.>.>.j.:.p.:.d.p.>.( o.@.+.o.+.a.w.u.w.w.o.o.o.u.u.o.a.a.+.a.u.s.a.d.a.-.+.,.@.-.-.+.a.,.,.,.,.g.,.+.-.+.a.,.a.-.s.+.-.@.+.+.@.s.w.O.w.| ..0.w.| | h.i.9.e.w.x. .w.l.w.e. .h.z.z.z.e.",
"M f x N N x M N q.l x M M x w. .^ ..9...^ q.f f N % z f k B N x T b M N f z N n T 5.M f ..T x f  . .M x i.q.t.z.h.w.| { | I X.h.{ X.t.w.w.| ..q.q.h.e.....0.i.w.z.j.w.u.h.a.w.w.h.o.h.k.l.u.w...u.k.w.j.6 ^ j.z.o.u.j.~.~.7X~.o.a.{ { | h.h.k.~.j.h.w.h.h.h.u.w.q.z.^.p.i.z.x.z.z.h.h.z.~.l.+.+.u.j.u.O.w.u.j.j.z.i.z.z.z.z.z.z.h.^.>Xz.j.z.z.j.j.h.k.j.a.| +.a.+.a.s.,.+.+.+.+.a.d.OXd.:.T.s.+.a.a.@.,.k.k.:.+.-.l.| | 7 = A r.h 1 R l Y 2 Y K 2 ; 7.E V K K E K 2 * K 7.K 3 K E 2 V K K E K 3 * 2 2 L 2 3 3 . 3 > 2 i > 1 L 1 I , , 5 1 * T Y L ; > * l p < h = h h < L 5 2 5 r.5 A h - D U A G #.L.A.}.G.*X*XD.Y.D.Y.I.+XI.D.D.I.D.S.D.D.D.A.V.$.&.&.&.<.<.&.&.&.&.&.] %.' ` $.&.&.&.#.$.%.#.%.$.;.%.$.%.' ` &.` ` G ` ` $.` &.' &.&.&.&.&.A.$.&.&.M.A.&.V.A.V.' M.[ F.V.F.&.A.] [ ' ` &.` &.F ` #.F Z S C W A P - 2 A 2 2 2 L 2 2 2 1 2 3 1 p 3 ; * K @ > >   ; ; . ; ; .   j ; ; ; r w : % # # : : : r < i h l i , r > , ; : r e e c @ y @ u # e y b + O $ % 4 M / M N / z q./ / 4 z j.x w.( o.^ q.q.( z o.( ( ( >.( >.u.d.>.:.d.,.a.:.,.g.g.a.s.,.,.d.@.+.d.h.>.o.{ Q.:.u.a.o.u.u.h.u.j.:.E.d.:.d.u.>.( >.( o.o.p.i.j.p.o.o.o.| u.h.:.( ^ ( ^ p.o.:.p.p.@.o.o.o.u.a.u.i.u.q.u.p.u.u.o.o.:.u.@.+.k.:.:.+.,.d.s.,.-.-.,.-.,.,.>.s.+.a.,.@.%.,.-.s.s.P.a.P.-.@.+.s.@.6 6 O.l.+.+.o.+.a.w.O.w.9.e.o.w.q...e.t...i.w.h.h.i.h.h.",
"m N M f M z 9.& q.N 4 9.o.z 9.x  .M ..x M q.z M  .f ..M N % N M 9.z N M f d x M x M ..j 9.9.M x ..x T 4 T { 9.g 4 g o.I x | T { x 6 ..X.x u... .w.w.q.w.h.w.h.9.w.h.w.o.i.u.q.j.k.o.z.| z.h.k.^ a.{ w.O.+.k.j.o.a.j.+.o.z { ^ p.+.j.j.u.u.o.w... .j.h.j.u.z.~.h.p.q.i.x.^.^.i.p.z.e.i.u.T 6 6 O.p.>.o.h.!.h.h.z.h.h.i.h.i.i.w.9.i.h.u.u.x  .w.a.+.O.w.+.a.l.d.a.{ a.k.d.-.| @.,.a.D ) +.+.:.6 { @.a.+.{ { x 6 -.O.t.*.X.r.. 5 r.* L E ; P 2 p 2 2 * L Q 3 L V K 3 L 3 2 2 K Y ; p 3 Y K 2 K 3 3 2 1 2 p 2 i Y > > i p L p 1 h 2 1 < 5 h h < I h L . 1 > R T ; 5 = h L = h 5 1 2 r.1 5 I A 5 P I A &.L.A.D.*X*XG.*XY.}.*XD.*XY.D.D.'.V.A.F.F.D.A.V.] F.2.S.&.2.] V.<.M.<.&.&.&.' &.&.%.%.` $.&.` ` ' A.` %.H &.&.H ` ;.#.&.$.N.&.A.&.&.' G ` ' A.` V.S.<.A.V.A.I.F.] I.] I.] M.] &.A.] _ ` V.M.%.Z ` H F Z G - U Z P Z - - 2 A 2 3 * 2 2 ; 2 2 Y 3 * ; ; K ; > > . j ; . O , ; : j O O # e : O o w @ u : : : ; i i p < < < < , : : e O o u # y 9 m 9 + o $ d $ .   & % x 9.N ( f z f ( N z w.q.^  .u.( ^ x o. .w.o.o.j.j.!.p.f.d.:.,.d.,.:.1.E.g.,.1.d.g.g.W.,.a.d.{ ^ { | u.| u.i.+.u.a.>.j.!.a.u.>.!.:.:.:.p.o.o.o.u.p.q.( ( o.q.i.o.u.o.o.( @.>.>.>.( >.:.p.o.h.a.u.a.u.q.j.j.~.j.u.u.u.>.p.j.d.u.a.~.a.a.u.a.a.d.k.d.d.a.,.a.a.%.1.@.1.1.@.a.1.1.g.s.s.-.l.+.-._ +.@.k.s.k.-.{ X.| +.t.t.O.....z...h.4 9.h.i.0.q...h.z.w.w.| ",
"e 9.f M / d / 4 w.T f ../  .x w.x  ...x 9.w.x...9. .z x N f f / 9.N z M f M f 9.n ..m x j 9.9.....^ w.g ..x x ..O.x l.x I w.O.I T 6 x R 4 w.x f / ..M | h.0.>Xw.z ..{ j.h.q.u.i.o.t.| u.a.z.l.6 h.l.a.w.k.j.a.a.>Xz.a.j.o.k.k.u.>Xa.h.h.w.~.k.~.+.u.^ w...w.z.^.^.j.h.j.z.z.z.z.z.z.h.....+.a.w.q.j.z.z.j.j.o.w.i.q.e.i.x.z.z.^.w.z.j.z.h.h.h.z.j.~.~.7Xa.j.k.k.a.+.s.d.Q.k.a.,.+.s.k.T.:.l.d.XXa.@.j.k.w.{ a.>Xa.t.O.X.U . 2 - 2 y.; 2 > P p p ; K ; r.V 2 3 3 2 3 p * i 7.* p p s L p 3 3 K p 2 h 3 p L 2 L * 6.6.> h h 1 5 h h 1 , h I . = 1 < g 5 i k Y * Y L L L 5 * 5 2 5 I = - R A L 5 U - #.<.I.Y.I.*XD.=XI.=X;XY.;XD.*X}.(.S.F.D.D.F.D.F.V.V.A.A.&.V.&.V.&.] V.V.&.` &.&.' &.%.&.#.&.` &.%.%.&.' %.A.%.$.&.;.' &.&.' N.G &.V.&.] [ &.V.&.2.A.V.&.` &.F.&.] [ [ V.&.A.V.&.V.` [ ] &.&.` H G $.G G G F W C W A A 2 Z 2 A = * ; 2 2 2 2 2 * > 3 > p 2 K . < Y R O # > : o b r . o O . O : o : ; O w > < , 1 > i < 1 < g % < O w O e m $ o + s X # e + u o o B % N 9.N 9.z 9.f w.^  .x  .x o.{ | o.u.o.@.u.+.+.~.:.+.,.:.,.,.,.1.@.g.g.d.P.OXP.d.g.W.f.a.,.u.>.:.Q.h.u.o.o.j.u.u.Q.j.~.d.^ !.d.p.>.j.j.j.u.z.p.i.z.q.p.p.q.w.j.q.h.u.o.q.u.o.p.o.u.o.u.i.o.p.j.8.N q.^.!.p.!.u.d.o.p.p.p.j.h.d.a.!.j.:.j.d.a.f.a.k.f.g.k.g.1.,.|.,.{.g.g.1.g.g.-.<.g.%.;.-.%.@.-.@.a.-.+.+.t.t.@.w.+.O.-.| T h.i.x h.h.w.i.0...h.e.z.h.e.h.",
"z 9./ T M ..N f i.x x / ..9.f ../ T f ^ e.w.9.9.9.l N % N M N % f e z M z M z 9.x M x N x | T f M g w.9.w.I ..h.w.{ w.w.{ O.w.l.t.O.k.h.t.h.h.h.w.w...q.z.i.z.j.j.~.~.h.GXh.l.7Xz.>Xa.a.k.@.{ +.7Xj.l.+.O.o.w.l.u.w.l.z.j.k.a.w.u.i.k.h.d.z.u.h.j.z.k.z.+.a.j.k.z.z.z.^.z.z.z.z.z.z.l.h.i.w.w.w.l.>X>Xz.h.h.i.z.^.i.j.z.i.^.UX^.h.z.j.^.z.z.z.h.h.l.h.l.O.h.l.l.7Xk.k.k.>Xl.d.l.k.Q.k.OX+.a.{ | +.k.k.+.-.@.{ { +.X.l.y.6 . I * L y.2 3 3 2 E E 3 L 3 E p 3 3 3 2 2 T 1 Y r.. > ; 3 Y 3 > 2 2 * L L ; L E > p * K L = 1 p 5 h L X.2 . - L < 1 h 5 1 < < l k < T k 2 1 < 2 h 5 = 2 A L U 5 U L U Z F &.A.*X'.;X*X;XY.*X;XY.-X}.*XG.*XI.(.D.V.Z.V.A.V.2.V.V.V.&.] ] A.V.&.] &.] &.&.V.&.M.A.' M.$.` &.] &.` ' &.&.' %.&.' %.' H ` G &.] &.%.[ &.M.A.&.Y.I.V.S.D.[ ] S.V.F.2.] ] ] ] &.V.&.&.] ] &.&.` ` G G F W W S U V S L L - * V L A A L 2 * * ; 2 ; ; 3 s Y s ; ; j . : > # . j r O O : : j : O % o O : < > > i 1 g , i < 1 ; : j O : : # $ @ 8 9 o + w 0 o o % e o z 9.N 9.z / z q.^ x  .h.h.u.+.u.+.a.u.u.a.+.@.:.+.+.:.@.,.,.:.1.-.g.1.,.g.XX|.d.1.d.d.:.,.>.u.i.d.o.d.j.p.u.u.j.u.:.d.u.o.u.u.d.p.i.i.p.q.i.q.p.i.w.p.i.q.q.i.j.w.p.u.u.u.u.p.( u.p.q.q.p.x.p.p.p.z.j.p.j.p.p.i.p.u.d.u.p.:.p.u.a.:.+.a.a.@.,.>.d.k.d.k.f. X{.&X1.{.{.1.1.s.1.1.,.,.} ,.+.} { @.-.s.@.@.-.@.-.+.-.X.{ t.w.O. .h.9.t.e.0.h.z.>Xz.T.>Xz.z.l.",
"z N  .N 9.i.z M e.N x M  .M M / ..9./ x q.x M q.f z M N f z N k ..N b z f x T x.M x l z x 9...T x 4 w.h.z.0.T I O.I x t.x { I | w.| l.0.z.h.z.z.h.^.z.i.z.w.u.O.h.>Xj.z.o.a.d.( +.w.h.@.O.x a.h.a.w.j.z.a.l.a.u.k.h.a.a.j.h.j.z.k.h.w.o.h.>Xw.a.a.w.a.h.h.j.w.{ ( u.i./ /  .w./ h.h.z.z.l.l.l.a.w.j.^.HX>Xz.w.j.z.w.i.j.i.z.z.z.z.h./ w.k.7X7Xz.z.k.k.GX>Xd.O.+.l.| @.O.a.a.a.k.k.,.{ O.@.k.k.k.Q.l.{ { a.~.s.@.X.X.t.T R 5 < * A y.2 2 L ; E Y * K 3 K E p 7.E * 5 L 2 h R O p 2 p 7.; 1 L L 3 2 L = Y Y 2 p > p L < i 2 = = 2 * & h l h < < g T 5 1 3 L L g T 1 1 , 2 5 5 A 2 L A 5 L 5 E A R D H ;.A.I.I.=X*X;X=XY.*X*X;XD.*XF.D.(.*XD.C.D.D.G.F.V.S.D.D.F.V.V.A.2.M.V.S.V.&.&.A.&.A.D.#.A.$.` V.<.&.&.&.&.&.&.&.V.%.M.V.&.S.&.I.S.A.S.V.I.I.&.] 2.&.V.&.A.V.D.*XV.(.C.*XD.V.S.] &.[ &.] &.V.&.` ` G G H #.F S F S A C A A 3 A A 2 - 2 3 ; 2 > 2 3 > ; s K p < , j . > r : ; r : O O f : T ; u w : : i r < 1 h h l i 1 , g 4 < g . f @ O e e w 8 9 + 9 c o + % %   % d f / B f B x N x q.h.| { @.a.:.+.+.{ { { { +.d.f.,.@.,.1.,.g.g.{.P.1.g.g.g.1.,.d.:.+.o.d.u.p.j.p.j.i.u.u.u.u.^  .>.!.!.p.j.!.i.i.i.p.q.j.q.p.q.i.q.p.o.q.q.u...u.u.j.a.j.j.j.j.p.i.z.q.q.p.j.i.p.p.p.j.j.h.!.j.!.j.j.j.u.k.j.a.:.a.d.a.d.a.+.d.l.,.,.g.g.F.R.E.P.+X{.{.{.P.|.P.k.,.>Xk.,.l.s.s.U.g.s.@.X.a.a.t.@.| t.t.h...t.h.w.w.h.h.T.~.a.z.>XT.>Xz.",
"4 4 x 4  .e.x M M x l N M 4 9.9.q.x x 4 w.M q...w.e.z e.x f / f f f b x N < z x 4 f 4 4 4 T .... ...w.0.h.h.z.h.l.z.w.h.{ w.l.t.w.X.o...| w.M  ...i.h.q.k.>Xz.a.q.{ k.h.a.O.O.k.a.| a.u.k.+.~.T.l.l.a.+.O.z.k.h.h.a.w.w.a.a.w.k.o.a.j.z.h.h.+.z.a.u.j.w.i.k.z.~.^.p.u.h.^.z.h.i.w.w.l.z.w.w.h.q.h.z.z.~.z.z.w.q.w.q.p.e.p.i.e.q.e.z.z.^.h.q.w.w.w.u.O. .6 O.+.a.| @.j.k.T.a.+.:.l.u.a.a.+.a.a.k.{ o.>.a.{ ^ { h.k.X.l.t.5 < 2 2 L y.* 2 L K 7.K ; E > K K ; L 2 * 1 h < h Y * L ; p r.> * L 2 2 * 1 3 K p * 2 > 2 p 2 1 = 2 < 5 * I y.X.I 5 , - I < 1 < h h < L 5 1 5 1 2 I 5 5 I 5 - 5 5 U 5 U D F %.<.}.D.*X*X=X=X*X*X=X;XD.=XD.D.(.*XC.F.*X*XC.V.v.V.V.V.V.] M.2.V.S.A.&.] M.&.V.' ' N.' &.[ _ ] ` ] &.] ] &.` ] ' ` $.] &.F.[ &.' ] &.] &.v.] M.V.S.*X] ] D.2.V.[ ] [ V.&.2.F.] [ G &.' ] ] [ _ [ Z G G H G S W P Z * C R R * 2 * * * 3 3 p p 2 p p p 3 p p . h Y . # O r O : % ; o , : 5.. > : O < i < * < 1 < < = * ; , O . % O :   r # $ 9 # + # X 0 o 0 % % % $ f N M z z z  .....| h.w.+.+.a.+.| :.>.:.+.a.@.s.-.+.%.g.R.,.k.XXP.W.g.1.+.>.@.{ :.d.u.d.>.( >.p.u.u.o.) u.o.p.u.k.p.j.h.i.i.j.q.i.j.i.q.q.q.i.i.h.u.i.u.h.j.u.~.~.j.z.u.k.p.i.i.9.i.z.q.p.i.i.p.q.o.u.p.j.d.j.u.a.d.,.:.d.Q.d.:.a.a.,.,.@.>.-.,.g.s.,.g.1.{.{.F.{..XP.}.8X+X+X.XeXP.6XU.s.>XT.6Xk.@.-.l.g.s.a.-.-.a.l.h.h.a.i.T.| z.l.w.z.t.z.t.z.h.9...",
"/  .w.M h.q.T  .M z T x T M 9.w...l  .o. .l 9. .i.z.f x % M h.M N f f 4 x 4 T ..T  .w.w.0.w.t.w.h.z.T.z.w.w.h.h.I w.x ..| y.HXh.I | w.w.| w...h.h./ / ^ w.u.o.o.z.O.x ^ k.w.l.{ w.+.| x k.l.+.+.o.w.o.| u.k.w.^ a.k.h.j.j.z.+.h.i.w.u.j. .q.i.7Xz.w.u.o.u.h.w./ o.~.^.z.z.h.x.h.z.i.h.z.p.{ o.|  .o.| 0.u.z.z.z.h.h.j.x.z.^.^.^.z.z.h.i.p.w.h.h.O.a.a.h.t.k.k.l.+.a.k.a.+.O.+.l.h.a.d.k.a.a.@.{ ^ u.o.:.~.k.6 { w.7 r.I = = = 2 L y.3 - K L E 3 * K * K Y 3 K p * 5 L L L L . p * p 7.L 3 E = A 3 L 1 2 p 2 > 3 2 p 1 2 < 2 2 A I 1 h * < 5 < * Y < 1 1 , 1 < k Y < 1 = 2 *., 2 2 V 2 5 2 *.L 5 D Z #.&.I.F.I.*X;X-X;X=X;X=X}.;X*XG.}.*XC.C.*X*XD.D.D.D.D.D.D.C.V.V.V.D.S.&.] V.M.V.M.' ;.M.N.$.' ] [ &.A.&.V.A.V.I.A.V.A.V.&.V.V.V.&.V.S.V.S.S.D.] V.] ] &.D.V.C.F.V.F.C.2.v.v.v.V.S.[ V.&.2.&.G H ' H C G H F S S - 3 3 - L 2 - A A - 5 2 * 3 3 ; ; 3 ; = 3 ; * j n . . O r @ % : e ; , O T . : : O = , , < 2 L 5 5 1 < 5 g , 4 < k T % <   o % o X % X $ % t o # O O o 4 x N 4 B ..x x 4 t.w.{ { @.d.p.j.:.o.j.l.a.k.s.,.,.XXE.,.1.g.a.1.@.-.@.@.@.>.d.u.:.p.o.o.p.j.i.i.p.u.~.j.^.j.^.j.j.p.p.p.!.p.i.!.i.q.q.i.z.j.k.p.a.j.j.j.+.d.d.j.<X!.>Xj.i.h.j.i.e.^.z.p.q.u.i.j.d.a.d.u.d.d.s.d.+.+.g.a.,.,.,.g.,.,.,.g.P.+X$X$X{.{.}.}.+X}.;X;X&X+XP.8X{.g.qXP.T.f.T.>Xa.T.T.-.d.l.k.s.a.a.a.k.l.t.w.t.O.a.X.z.h.| h.w.t.O.h.z.k.z.",
"^ M i.w.u.x N T 9.l 9.z ..0.f 9./ ..z x 6 e.w.4 f f / M ..e.i.9.z 6 T ..q. .....x x { ^ { I ..{ ......9.T z | w.z.l.t.a.a.+.l.L O.w.l.z.e.w.9.i.h.w.i.h.+.u.a.u.w.a.>Xf h.h.h.a.O.j.a.{ | d.+.{ a.a.| @.l.z.a.a.z.z.a.u.w.k.u.~.h.o.w.k.a.u.w.o.u.h.7Xz.j.h.z.~.^.h.i.j.^.h.u.z.z.h.k.z.z.w.l.h.h.~.z.^.h.z.z.h.z.^.^.j.i.z.x.i.p.z.z.z.z.j.z.~.>Xh.a.~.>Xk.a.k.@.u.~.k.z.k.k.j.a.+.+.+.w.a.u.u.<Xk.{ 6 6 { ^ { | | w.6 l T < p L r.E - Q 2 E * p K p Y K 3 2 * 3 V R E K L * p 3 p K L 2 Q 2 K 2 L 2 > K L p ; i 1 2 1 = 2 = 5 l = = & 1 1 5 h I < g L = l g L L * h 5 < R - = A 7 A U = U L A #.D #.&.F.S.(.*X*X;XY.;X*X*X(.;X=X*XG.*XG.D.*XD.Z.D.Y.D.S.Z.D.C.D.Z.C.v.S.D.S.M.M.S.S.$.N.M.A.A.I.A.&.V.D.V.A.A.A.F.M.&.M.] &.&.&.M.] ] &.] ] &.V.M.D.D.*XV.C.D.Z.V.S.Z.(.] V.V.[ V.V.] &.] V.&.[ &.&.' G J H H $.H Z C Z P U A A P A 2 A 2 3 2 p 3 2 p 2 p p h > p i ; r O : # @ ; r % < O n < < < O O > 1 1 5 h g < < * < < * < , 5 e.g . o : $ + X f X $ % 0 $ : y % . f x 9.^ 4 { x o.6 a.O.:.^ 6 ) 4 O.@.( :.6 ^ d.t.@.} -.,.@.@.@.%.,.@.>.@.:.:.>.o.o.( >.u.o.>.>.:.>.i.u.i.o.u.q.:.^ p.>.q.p.p.q.p.i.p.p.j.j.z.a.w.:.l.k.a.+.>Xd.<X<XqXk.~.j.d.a.i.q.p.x.j.i.u.u.d.k.d.:.d.,.,.g.d.s.<.s.+Xg.1.,.1.g.F.{.P.P.{.P.U.}.L.F.F.F.P.I.}.}.F.I.I.tX;XT.8XP.|.OXT.>XP.l.s.+.a.,.s.-.s.a.t.t.+.X.l.l.w.w.l.l.h.w.^.T.w.h.O.l.T.>X",
"M x w.l.e.T x 9...T M f T e.: N f O.^ 4 z w.i.o.h.x x 4 .. .X.q.M 4 x f x M x ..O.| O.T O.| +.O.o.w.9.t.h.X...x h.{ 6 O.O.I w.I X.I x.w.a.h.w.w.x i.j.h.o.u.a.+.h.k.w.>X| { | x k.w.a.a.@.I | +.h.a.u.o.O.o.o.o.+.O. .o.o.w.| i.j.z.j.i.o.w.w.u.^.j.w.q.o.o.u.u.o.j.u.| q.w.w.i.e.h.h.h.z.w.z.h.w.h.h.h. .w.i.i.q.i.z.h.j.^.z.z.z.z.z.h.^.h.h.o.O.w.u.| w.a.a.@.a.u.a.u.j.j.h.d.u.a.k.j.o.{ @.u.{ z o.u.u.u.l.u.t.q.z.R . = ; 2 P L A * L 3 L ; > * p K p 3 E p 3 2 r.P 3 Y 3 K 3 L 2 3 3 P 3 V 3 p * * 1 p , > 2 > < = = 5 2 L = < 5 5 1 . = < h = < h * T 5 1 Y 2 T L 2 1 I - X.7 2 R 3 5 L I *.D *.&.D.I.G.;X*X*X=X;X*X*X*X;X*X*XY.*X*XY.*X*XD.D.G.D.D.D.D.S.C.D.D.&.V.&.V.A.&.A.M.&.S.M.N.N.I.F.&.V.V.<.V.] &.A.] ' M.&.V.V.V.F.&.V.V.2.V.V.A.D.V.V.D.[ [ (.V.V.Z.V.V.[ D.}.] Z.] 2.D.V.S.] [ &.V.&.J ` ` #.S S C 3 A C L S - - - = = 3 2 < * ; 3 * . 3 ; 2 . > > ; r o O   % o e % % : , g . O . . * , 1 5 L L 5 5 = , , , . & < M %   : 9 t   X $   0   + o o r %   4 4 x I 4 6 x ..l O.x x ^ ^ o.B p.) z j.x { | { { { { @.@.@.@.+.d.@.,.+.>.{ ^ ( o.u.!.!.o.o.o.p.u.p.i.q.( !.j.i.u.!.u.p.8.p.( 8.8.p.( j.u.u.a.+.d.>X~.f.,.>X+.1.d.Q.,.XXa.!.u.o.h.z. .+.j.h.o.+.d.s.:.g.g.1.<.,.F.<.P.+Xs.P.<.<.P.P.P.+XI.}.P.}.}.I.+X8X;X}.}.D.F.&.F.&.F.&.<.-.-.s.-.>X-.@.-.k.@.} @.a.+.a.s.t.+.| +.t.w.X.x h.X.t.w.a.l.w.k.O.t.w.| ",
" .z ..z.o.9.x 9.M h.n T h.e.x.h.h.w. .x z.../ e.T h.i.q./ x M M ..z w.o.w.w.{  .w.| { ..w.O...x x w.x M .. ...X.w.....z.l.+.a.o.w.I +.o...q.9.^ ^ u.w.w.i.a.h.j.a.z.| | z.a.w.w.h.O.O.{ a.h.+.w.w.w.k.u.o.@.w.o.| o.a.j.~.a.o.a.u.z.w.o.w.h.u.q.w.o...i.h.h.z.j.o.z.^.z.^.z.h.l.z.z.k.h.z.^ w.../ 0.o.u. . .u.w...q.i.8.( u.q.p.q.i.e.q.w./ i.h...a.a...{ O.u.u.h.w.j.a.a.+.a.j.k.u.u.u.a.a.+.O.a.a.j.+.a.u.u.w.h.a.0.5 < h < r.E A K L 7.R P 2 6.V 7.K Y p 6.3 * 3 y.Q 3 R 3 3 3 Y E V K K V 2 p L 2 2 p 2 3 k L L 1 1 < h = 5 1 h 2 = 6 P R , h * = T 1 0.h * 0.L Y 2 L = t.2 *.2 5 } - R R U D Z #.%.D.I.I.*X*X*X=XmX*X*X=X-X;X=XG.*X*XG.*X=X*X*X*XD.D.D.(.D.=XD.V.V.D.C.V.V.S.D.&.S.;XN.S.A.V.A.2.V.&.V.S.] M.D.V.V.S.V.A.V.] V.V.V.D.S.D.'.S.2.V.S.D.V.V.F.(.'.Z.C.'.D.(.C.[ V.[ D.*XV.S.] [ ] &.' G H H J G S C V W A S D - A S A A L A 2 3 > L > * 2 2 1   h p O ; ; y O r o > < ; , ; n & < f < i h g 5 A I l L = = , i l < l = & f d + 5.% 9 0 X z   0 9 % b r o x : x ^ x ^ I 6 6 t.w.& ^ p.u.B :.( ( o.z p.o.x +.+.| +.,.-.@.,.g.+.a.+.@.o.+.h.j.p.p.o.o.p.o.o.w.j.u.u.q.j.j.p.p.^.( p.p.p.p.!.j.i.p.j.h.d.k.,.f.d.@.:.,.f. XQ.d.2Xf.d.:.a.o.a.a.w. .u.:.+.@.,.a.,.g.P.P.P.}.F.P.<.P.P.F.}.P.P.}.I.P.}.F.P.U.*X}.A.}.}.}.F.F.&.<.&.P.<.<.} ,._ -.P.-.s.t.y.w.P.-.+.%.s.+.-.a.a.t.w.l.h.l.w.{ t.w.l.l.l.t.h.t.w.a.t.+.",
"l q.w.q.x f x q./ ....e.t.9.h.i.h.0.| z h.q.o.w.T u.h...x ......| ....w.M w.w.q.u.w.w.e.w.i.h.h.i.i./ h.w.h.z.9.q.p.i.t.w.a. .| +.{ { | O.^ / w.p.h.w. .w.o.u.| { o.O.| >Xi.w.a.O.i.:.u.>Xz.w.u.z.>Xa.h.a.j.u.| a.k. .z.+.k.| O.u.+.+.w.+.l.h.~.z.w.w.q.k.j.w.j.i.o.~.~.~.h.z.i.h.e.w.| w... .w.j.z.~.7Xz.7Xz.i.z.i. .i.p.h.!.z.^.q.j.z.7Xj.i.j.j.z.h.j.j.j.l.+.h.z.^.z.u.w.h.k.~.w.{ t.a.s.@.x h.i.h.d.u.:.:.{ w.t.I r * k . L 2 P P P 3 2 r.. E K E Y K 6.p * V K 7.X.2 V * 2 K 3 r.2 V 3 V 3 2 p 3 > 2 * ; p 2 h i * < L < h 5 5 5 l I 1 T T Y < 1 2 j R < * y.* X.5 2 5 5 A L U U L V A E U D A #._ L.S.'.;X'.*X-X-X;XdXZ.=X*X=XY.=X=X*X-X*X(.;XD.(.H.;XD.=XD.S.v.*XC.D.V.v.C.D.V.v.C.D.C.D.M.V.V.2.C.V.D.D.] V.D.V.S.S.V.v.S.V.D.C.S.D.S.D.D.D.G.C.D.D.S.V.] D.C.n.F.(.C.F.D.V.C.[ G.G.] M.C.&.V.] ' G $.! W S ~ V S V S P L V U V A A 2 A 3 2 L L * L 3 . = O < ; l p . ; p p s > > < < L & < , f i h L 5 L L 5 U < = 2 L 5 l * 9.O f O e e.o o d $ 9 X f o $ d %   % & & M x ..0.| l T ^ ^ z  .o.o.z o.i.^ x j.o.^ ....x +.{ @.a.@.O.^ +.6 O.x ^ u.k.o.z @.^ 6 ^ u.O.h.a.k.:.a.j.>.p.( q.8.i.i./ j.~.O.a.a.d.a.k.d.a.k.@.f.f.>.,.1Xg.f.k.k.a.| | +.l.0.w.a.{ +.-.,.g.L.P.&X2././.1.}.D.&XI.I.P.P.P.*XP.I.I.A.I.I.I.P.L.F.F.&.` P.<.;.%.L.;.;.s.%.} s.-.X.X.X.t.X.X.s.} %.,.|.a.g.-.I l.k.t.| +.h.t.-.T.l.l.| h.I w.l.T t.",
"x  .M { ....9.| z x 9...w.w.9...{  .q.w.4  .o.^ o.w.q.O.w.w.w.a.h.w.w.w.| ..| | w. .0.z.z.0... .w.h.w.i.q./ e.4 w. .x / q.w. .O.{ { { { u.o.w.q.u.h.q.o.../ w.j.d.l.l.w.0...w.a.k.k.+.+.z.~.h.w...a.o.+.o.u.u.u.j.u.+.u.h.+.+.a.6 a.d.a.k.h.{ u.z.z.l.| 7Xz.u.k.p.>.i.o. . .w.w.O.x.h.w.h.O.o.o.w.:.O.+.q.h.h.z.h.z.j.j.u.p.o.u.z.p.z.i.j.q.i.z.j.z.z.j.k.z.>Xz...o.o.( ..q.u.o.+.a.k.>X-.{ D { o.o.+.o.@.:.d.>.k.w.h., . k p ; V 7.2 A 2 V L 3 E 2 p E E K ; 3 3 2 Q 7.3 3 * 3 3 * r.V 3 2 K V E E 2 3 K L L 2 2 p 1 > > l < g ; i 1 > 1 < h i 1 < p 1 p L h 1 T * I 2 5 h A L R L 2 5 L U U 5 F D _ ` U.F.I.*XD.(.*X'.(.dX(.*XZ.*X(.*X*XG.=X*X=X=XD.*XG.*XC.*XZ.Z.*XZ.C.] V.Z.] C.V.[ ] V.M.V.V.V.V.V.V.V.C.S.] ] v.] V.Z.S.D.*X] v.V.D.V.V.D.D.D.G.}.=XD.D.V.n.'.Z.(.Z.n.v.`.*Xn.V.[ V.] [ v.2.] [ G ' G J J ~ S C C S S P S C V C V V V 2 2 * 3 * 3 . L * * 1 < , O > > . p > u 2 > 2 1 , T . . . = < , 2 = 7 A 2 A 5 3 p L = O   k g   w % 0   9 $   %   o   o u % . l & f x ..x 4 4 z / x 4 4 z z  .q.w.w.^ z x 4 z o.| { O.| ..O.6 ..6 { 4 | ^ x 6 6 4 x { 6 6 ..a.O.a.a.+.@.!.u.p.p.>.q.8.i.h. ...o.{ d.s.d.a.d.a.h.<XQ.k.:.a.XXQ.+.k.k.s.d.a.w.| w.{ w.k.@.,.%.g.P.P.F.&Xn.'.'.2.F.1.D.I.F.<.A.<.P.<.<.P.<.P.<.F.A.A.&.<.;.%.<.<.&.-.P.,.-.s.t.X.-.w.t.w.0.t.X.-.s.-.P.<.P.;.,.-.@.U.t.t.*.-.l.t.t.t.w.h.I t.a.x t.O...",
"..i.0.0...9.0. .x x z % x .... .M ..4 ..4  .w.i.i.h.x x X.x k ..{ x o...^ x e.h...../ ....9.e.u. .o.q.9.9.( w.9.i.9.^ x  ...6 ^ a.O.+.^ a.O.u.o. .o.o.h.h.h.u.a.j.a.a.w. .h.O.| | k.a.u.^ O.w.{ +.a.+.h.u.+.u.k.k.a.k.j.>X{ +.+.7 @.:.6 +.j.o...I w.| a.h.z.h.i.h.j.p.p.j.h.z.z.k.>Xz.z.~.k.z.k.l.k.~.z.h.z.i.h.^ i.w.j.7X^.w.o.i.i.h.^.z.q.o.u. .q.w.o...^ { x x ^ ..o.h.<X~.+.h.d.l.k.@.} { 6 6 x o.+.^ @.>.{ { I X.. Y p . L 3 r.2 2 L V 3 3 p 2 3 6.K p ; 2 3 3 r.r.2 2 3 3 3 * L 3 3 2 2 * 1 2 3 * 2 ; 3 ; i p i 1 < h > i , l l 5 h g I h , 2 h 2 1 2 Y L 2 2 L - A L L I L A - 7 A L P A #.A F _ L.I.I.*X*X;X-X'.=XhX=X-X-XdX-X;X*XD.G.*X=X*XS.G.D.*XZ.-X*XV.C.v.(.*X*X] M.G.S.M.V.S.C.F.V.D.D.S.D.D.D.D.Z.D.D.D.S.D.V.V.*X] ] V.(.C.D.C.S.(.D.D.*XV.Z.D.'.=X(.'.D.(.v.] v.v.V.V.V.V.M.C.C.D.C.' ` $.$.G H #.C S V S P C V U V S U P A V 2 L 5 5 * 2 < Y 1 , h < < p > p ; > > ; < , < L f < O = 1 h 5 2 A D A 5 5 2 2 p < O < f n . j : %   $ 9   d $ $ o $ 9 % . f   B % 4 & 6 4 ....x z f 4 B g 4 & & B 6 B 7 6 ^ ^ { x { I ^ 6 o.o.o.| u.o.O.o.u.o.u.x +.w.| X.+.h.+.@.{ a.u.o.p.p.p. .i.j.u.u.j.a.W.~.OXT.R.l.d.j.l.d.+.a.f.d.@.f.s.O.+.+.| x O.O.a.s.@.1.1.1.F.1.F./.2.n./.2.2.%.F.}.F.A.F.1.F.F.1.F.<.<.&.<.<.;._ %.,.-.s.s.%.} -.a.{ +.+.-.o.O.w.0.X.t.O.-.,.-.<.P.F.P.,.@.-.T.+.l.a.-.l.t.t.h.X.h.O.w.l.X.t.X.w.",
"6 9.u.q...x / | I w.x w.i.M  .T ~.z.w.i.i...q...B q.x ^ i...{ T  ... .{ ^ ..w.w.9.h.l.h.e.h.h.9.o.q.i.w.z.i.w.q.h.q.q...w.o.w.a.O.{ +.+.h.......+.h.u.i.j.k.w.| -.-.l.+.I w.{ { | l.-.l.a.z.z.+.h.a.a.a.a.u.a.a.a.o.t.+.t.7 X.t.6 7 @.6 D 4 0.l.h.z.| w.4 O.t.+.j.j.i.k.^.z.j.j.z.z.h.z.z.+.| { +.u.j.j.a.h. .q.i.z.j.z.z.u.( { j.h. .j.z.j.j.j.j.~.z.>Xz.k.z.h.w.h.<Xk.h.u.a.+.u.@.7 6 { ,.@.7 x | a.j.:.:.+.@.w.X.z.T ; Y h 2 2 y.E K Q V 2 p 3 3 > E K 2 ; 3 ; 3 R 7.2 V 2 2 3 * 2 K 2 E L K 2 2 p T L 3 2 L h L l h < p i 5 , g g h k 1 h T g 5 > < h 2 T 2 - I 1 5 L L D L P I U E P U *.R } Z F F A.F.D.I.D.*X=X(.(.;XD.*X=XY.G.(.(.*X=X*X=X=X(.G.Z.=XD.*XG.Z.D.*XC.[ ] V.S.Z.C.C.D.Z.V.S.] V.V.v.V.V.V.V.v.C.V.S.D.G.C.v.D.D.C.(.*XD.;XZ.D.D.S.C.*XC.V.D.'.n.[ 2.v.n.2.V.G.*XC.Z.b.V.G.Z.v.S.S.v.[ M.m.C H ! G W Z A W S C Q V V L A 2 V 3 A 2 1 * * . 5 * . , < ; > > > ; 2 2 > < 5 < l l = < < 1 h 5 5 I U D - A 3 L 2 , ; l < % f o % e X o %   $ o $ 9 $ e e % M . f f l 4 M 4 T f < 4 B & 4 z 4 4 x z ..x  .^ 6 x ..x ^ ..^ 4 ^ 6 7 6 ^ 6 4 4 ^ 7 = | { I O...4 x +.u.>.@.u.) ^ 4 ^ o.o...o.:.k.k.|.k.k.XXg.k.k.:.+.a.W.d.+.a.:.j.l.a.a.+.+.+.+.+.-.g.%.g.<.F.F.1.F.2.2././.2.F.1.F.I.<.F.1.&.F.1.,.<.1.<.%.<.<.<._ %.-.-.-.,.+.a.>Xs.@.| t.j.w.w.t.X.O.t.-.%.,.,.P.s.1.P.s._ a.T.@.s.a.X.a.O.-.t.O.t.t.X.w.O.w.T l.",
"x M w.9.w...0.i.w.h...e.h.M ....w. .u.p. . .7Xe.z i./ f 8.8.8.x...| q.O.9.h.z.i. .M ^ / / / q.i.w.w.p.o.i.w. .9.w.w.z.h.z.u. .{ @.| w.+.h.| u.l.i.a.+.{ | u.a.l.+.@.,.} | X.6 { 6 @.7 D { t.| D +.a.l.,.@.a.k.a.a.+.a.t.+.7 } { 7 @.k.6 7 7 u.+.w.a.w.| z.t.z.k.a.z.z.j.z.z.u.h.z.z.u.k.k.+.+.O.| | w.a.a.l.w.h.a.a.w.+.w.+.a.u.z.z.u.j.h.j.j.j.u.u.j.u.u.a.l.k.w.o.a.u.:.+.l.j.>Xk.d.t.} @.{ 7 { ^ +.a.:.>.>.+.X.a.t.O * < 2 ; p 7.P V L L L K 2 * K p p K ; 2 p 3 E 6.K K K 2 K 3 Y E 3 p p K 3 ; 3 L L 3 > ; L L p Y , 5 1 1 , h 5 1 5 < , R h h < * L 2 T = h I < A R 5 A A 5 A 5 A A S U P U F ` F &.A.I.D.*X;X;X-XhX;X=X-X=X*X(.(.*XD.Z.D.*X-X*XG.(.(.V.Z.v.(.D.Z.v.=X=XS.D.S.V.Z.D.Z.C.Z.C.D.Z.V.D.D.D.Z.D.G.C.V.] S.V.v.D.*XZ.D.C.S.Z.F.D.C.G.S.*XG.n.C.(.(.(.:X-X*XZ.Z.*XG.Z.C.v.] C.C.2.C.[ [ C.M.' ` G C C C C - A S - S A - S 2 3 2 L L 2 A p L ; p r = < > < ; ; 2 3 p p 2 1 Y 2 I g = < , 5 h 1 A P D D - A - L 7 = = , &   j   $ d $ % 9   X   @ + # @ o . f   & . f f 4 & 0.T 4 & z 4 f z ^ x x | B 7 4 4 4 4 6 B 7 6 ^ x { ^ x x o.{ ^ 6 ^ ^ x | { 6 4 z { x 7 | ) ^ u.@.o.( o.u.o.u.<X>XQ.u.a.d.,.f.,.a.f.w.l.a.l.O.{ a.O.+.+.+.| @.,.a.O.@.} &X1.2.2.F.F.2.2.2.2.2.n.2.2.2.2.P.2.1.2.1.1.2.%.1.1.&.,.<.%.,.%.%.g.g.g.P.,.@.a.l.,.+.a.d.O.w.w.I | +.} } -.<.+X<.<.g.P.@.,XT.+.-.s.O.t.X.| 0.+.t.X.t.0.w.w.X.h.",
"o...x x 9.z T ..M  .w.w.e.i.x M M  .M M z z e.i.N q.9.i.x.p.x.p.i.h.u.h.q.j.h...h.w.i.h.x.p.e.w. .q...^  ...q.h.w.q.w...w.a.w.u.{ +.u.| +.w.j.z.a.O.w.O.l.d.d.,.@.} X.} a.-.D D @.g.g.a.%.+.I +.,.) = 7 | @.+.7 { D -.a.s.I @.{ } t.g.D { D 6 I l.I I 7 @.6 X.{ 4 w.k.w.i.j.j.z.q.j.o.:.+.I +.-.l.d.h.~.k.z.h.k.z.k.h.a.d.~.7Xa.k.k.j.k.>.o.o.u.h.a.h.+.| O.+.h.f.@.a.k.<Xd.k.d.l.k.a.,.{ _ _ 6 { { :.d.d.,.s.a.t.X...< Y < T 2 3 L 3 Y 2 E E 3 K ; K 2 K 2 . 2 3 * p 3 2 p > 3 3 * 3 6.; p 3 K i 3 p 2 p p p 3 > h 1 L g h 1 , 2 I k 5 1 1 , R 1 5 1 2 5 2 E < R I - L U 5 I A U S A D D U } S _ U &.#.#.A.P.F.}.(.*X(.;X-X*X=XG.*XdX;X=X=X=X-XdX;X*X=X=X*XD.=XmX'.Z.*X*XD.D.(.G.(.*XG.D.G.Y.D.F.Z.V.V.Z.Z.S.Z.V.D.C.V.C.(.=X(.D.Z.V.G.D.Z.D.C.-XD.;X*X;X-XI.=X(.*X`.G.n.'.Z.v.V.Z.(.] Z.V.*X[ C.Z.V.] ] ' v.M.m.G H G W S S U - A P V P Z 2 V A 2 2 3 2 L 2 L , < , L Y L i L > L p p 2 I 1 L , * f > 1 h 2 L A A D - Z = L - , < . ; , , e j $ 9 + 0 w b y t y t t $ % c $ $ 4 g z l : M f f & < B f l ^ x x 0.4 x 6 6 x { x ^ ^ ^ ^ x 6 6 4 6 4 4 6 4 ) ^ O.O.4 4 | X...6 | O.@.>.+.:.o.i.o.i.d.>.u.+.f.a.d.g.a.k.-.+.s.d.k.~.a.w.j.z.a.k.t.+.| +.a.a.,.k.g.aX&X/./.&X'.'.'.'._./.'.'.'.'./.'.1.1.1./.'.{.F.%.>.%.<.<.%.s.<.1.s.<.<.s.s.s.OX,.l.l.,.-.| +.-.6 @.-.@._ ,.<.1.-.g.P.P.%.OXk.-.+.t.t.t.-.X.-.t.y.w.l.O.h.t.X.h.",
"w.w. . ...x x ^ q.T 9.{ { i. .w.^ q.N M i.q.z p.8.8.q.8.N N 4.N ^ x x / x / 9.( M  .w.i.p.i.x.p.q.u.w.i.w.o.q.i.i.h.h.t.i.a.O.+.w.h.k.z.~.>Xd.a.~.l.Q.>X7Xk.O.{ @.<.L.g.} _ D _ } %.s.s.<.t.U | +.U } { 6 7 @.O.k.a.d.-.+.D -.} D s.k.7 7 { I 7 l.I +.a.I 6 { I = ..z.h.z.7X^.^.j.>Xj.>XT.a.s.+.a.-.+.-.+.t.+.a.| a.d.w.h.a.k.t.a.w.a.-.+.+.+.k.a.u.j.a.u.h.a.j.a.} W.4X7Xa.g.d.Q.f.>.%._ @.{ 7 6 6 +.>.@.+.,.{ a.| 0.< , l 6.. 2 3 2 r.2 E E 3 p K p 2 p p ; 3 p 3 K > K Y K Y K 3 K E 3 p > ; 3 s p p 3 ; 1 > 2 l 3 1 1 p 1 1 2 h g 1 1 1 < R = 5 2 2 1 1 E 5 U A 2 U R - U A A S A S G S U F #.} ;.;.&.&.A.D.D.*XG.D.-X=X=X*X;X-XhX=X(.*X*X=X-X*XH.Z.*X(.Z.=X*XC.C.Z.*XG.G.Z.Z.Z.D.D.S.D.G.D.Z.Z.V.C.D.F.C.Z.S.G.G.G.D.C.D.V.D.D.*X(.*X(.*X(.-XV.(.C.C.D.G.(.=X(.Z.-X-X=X(.(.Z.D.(.[ n.V.H.[ V.n.C.] J G M.G ` H Z Z F Z - F 3 S V V V 2 S 2 V 2 L 2 3 1 h L . = ; 1 T L p K * L 2 L 1 E = 1 < & , = < h 2 Z F Z D D A - L * , ,   * , % : f   o   # w 3.c $ + o $ X o e N < .   : x x M l M 4 4 g x 4 l g & x 4 4 x x 4 I x 7 z 4 z 4 6 ^ z o.z 4 x 6 x 6 x 6 x I x f | x ..{ 6 { ) o.^ a.o.u.k.:.:.:.,Xf.,.>.@.:.,.+.d.f.d.w...o.a.h.o.l.u.a.+.a.+.@.@.k.d.'.1./.n.'.2.'.'.'.&X'./.'.'./.'.'.1.F.1.F.{.{.{.1.1.<.g.P.s.+XP.A.P.F.I.P.P.<.-.g.+Xs.,.%.@.%.,.} s.g.,.1.P.g.<.1.P.{.<.,.s.s.s.+.t.t.X.t.{ O.X.t.w.t...t.X.0.0.",
"N T f 9...w. . .q.x x ..M ..x ..^ 9./ N q.i.q.x.e.q.x.x.8.8.p.p.i.o.q.9. . .i.j.w.i.i.9.8.p.x.i.i.h.q.h.q./  .w. .q.i.h.h.i.o.a.k.h. .t.a.h.o.O.h.k.l.:.@.-.} } %.-.-.P.7 } -.-._ 7 %.%.} @.D 7 } X.@.6 D O.U.| @.{ I +.U 6 X.+.+.D -.D D } F & -.D l.X.} = } t.x 6 z.h.z.j.( q.q.u.^ j.T.d.l.l.T.k.k.T.a.a.-.a.a.a.} O.P.+.| @.-.@.:.a.k.k.+.o.| @.a.a.a.l.l.k.d.7 7 { @.6 @.6 @.@.@.>.{ @._ 7 { @.+.{ D @.t.@.t.I I g = i , h 1 ; K R > 2 K 2 . Y > 3 3 K p p p > p ; K p 3 2 ; p Y 6.3 p K 2 p 3 > L 2 2 h 2 g L * = 1 1 < 1 h 1 < h I L < r.< 5 2 1 2 5 I 5 I = A I U - } - U U S D U } $.U $.` %.A.&.2.V.I.D.;X-XY.;XY.=XG.dX-XdX*XG.-X-X;X-X-X-X*X-X-XD.G.Z.=XdX*XG.*X-XG.*XC.V.D.Z.Z.S.D.C.Z.V.Z.D.Z.D.G.C.Z.Z.(.*XC.D.Z.Z.D.-Xv.Z.D.=X(.;X(.=X'.Z.Z.*XZ.(.).'.Z.2.C.Z.(.Z.n.v.G.C.n.[ ] Z.C.v.v.=XC.V.H J ;.Z F F Z - A C U 3 C - - E A L 2 L 2 2 L L > * 1 < < V p 1 2 * 2 2 L 5 R 1 5 1 < h < 1 I 7 A } A } #.D - U * 2 5 = O . r   % o e # # X @ o # t 9 0 o o @ M   e % j f f l 4 f   f M l   f x . , x & 6 4 & 6 4 l x 6 4 4 z ..4 6 x x ^ 6 x 4 7 x 6 4 4 f ..x I ..6 { >.o.) | @.:.k.,.Q.Q.Q.,.g.>.{ { +.O.,.+.{ 6  .M x | l x | +.t.a.:.@.@.R.%.{.'.2.'.&X'.'.n.n.`.2.n.'.'.'.`.&X}.'.2.'.1.1.1.1.P.P.k.P.<.P.;.<.F.;.P.A.+XP.<.L.P.%.%.%.%.%.,.,.T.s.%.%.{.}.P.<.P.<.@.U.,.s.l.-.t.t.| y.O.h.t.l.| 0.h.X...z.X.",
"..w.e.^ T  ...q.w...T w.h. ...^ e.h.i.M 8.e.x.p.8.8.8.8.8.x.x.x.i.q.i.i.q.w.i.z.x.i.p.p.p.x.p.8.p.x.p.p.8.8.p.p. .i.z.^.z.j.i.h.z.z.w.w.k.l.t.l.d.a.,.-.@.} s.OX-.<.tX<.Z #.#.} @.G _ -.<.%.D #.-.y.} 6 = ) -.X.s.-.-.t.{ 6 D } D } *.-._ { U 6 } X.-.+.7 D 7 { X.& O.>Xh.w.h.h.j.j.j.{ s.-.+.X.{ t.t.k.7X7XT.-.s.,.@.} +.OX,.d.k.@.:.k.,Xd.t.a.k.k.h.Q.+.O.k.T.{ D a.g.k.@.a.>XT.Q.@.@._ { @.{ { @.{ _ { ,.d.s.t.5 k 4 1   R * p L 2 p P ; r.6.K p Y 2 3 K Y p ; > ; K ; ; 3 ; K ; K E K > p p p i > 3 2 2 p L > 2 p L < * 5 h = < T 5 = 2 h = 5 2 = 3 L I 5 L A I - I U A F - #.#.- F %.G ;.#.$.&.&.A.S.A.V.*XY.D.(.;X*XG.*X'.;XG.;X=X-X-X-X=X;XhX=XG.-X;X(.=X-X*XG.(.*XG.H.n.G.V.D.*XV.(.G.(.(.=XD.Z.(.*XZ.(.Z.Z.D.Z.Z.v.v.G.(.D.Z.-X;XZ.C.'.V.(.*XZ.G.'.(.Z.Z.(.).`.(.Z.Z.(.'.Z.Z.`.-XV.H.H.Z.n.G.n.] v.M.v.' F G F S Z Z - Z U C C A V A 2 2 2 V 2 3 L * * 1 < l 2 L 7.R 3 2 3 R L A L L h 1 < 5 ; 2 L 2 Z *.D F -.F - Z * < h < ; O r r e # $ y t X o   @ # + X     % e   % % .   j k : < % . f < < , f 4 f 4 l x = x 6 5 6 6 z z 4 z 6 6 z ^ 7 z 6 ^ ^ 6 7 I 7 ..x ..l x 6 4 { 6 7 a.| @.@.d.d.!.:.E.f.a.@.) ) { :.,.{ B 4 z 4 x q.4 x O.a.o.a.XX,.k.,.1.1.{.2.'._.'.F.'.`.n.'./.&X`.'.&X}.*X}.2.'.F.<.<.1.<.L.s.<.<.<.<.<.P.M.U.<.+XP.P.;.,.%.;._ <.%.<.L.d.,.<.%.{.}.<.1.F.%.1.s.,.+.@.O.+.y.{ X.l.X.t.t.l.T z.x X.>XI ",
"w.w.M  .....w.e.i.e.o. .0.9.q.9.q.w.9.8.8.N 8.8.8.e.x.e.8.p.8.x.i.e.x.p.( N q.i.p.8.8.8.8.p.8.8.8.8.p.p.p.x.x.x.w. .8.8./ /  .{ i.9.a.>Xz.~.>X7XT.,.-.s.P.,.-.P.<.P.}._ } @.<.@.D _ 1.<.;.-.} } s.k.*.D @.T.6Xa.l.a.T.7XU.X.D _ Z ,.s.-.} D %.D D D t.-.D I I X.4 = X.x.h.>X~.7Xi.h.k.t.l.X.} } } @.D @.a.%.-.t.+.7 7 D _ 7 = _ @.D _ { l.k.a.,.l.d.a.T.>Xa.-.6 ,.@.D @.s.k.6XOX{ ,.@.{ { _ @._ 6 @.@.6 7 @.a.} I L T = , , 5.; ; L ; i ; 2 K 2 2 . Y * 2 s 3 ; ; K K p 3 ; K s p ; s p > > s 2 L 3 2 i p ; p p * T L L h 1 2 2 5 5 R , 1 1 L 5 R 5 5 = R E L - R U V U U Z D Z S } F F ;.G ;.&.&.<.%.A.V.<.V.I.D.D.*X*X*XG.*X(.-X=X*X-X*X-X*X*XhX=X=X=XG.G.;X-X(.Z.Z.G.*X*X(.Z.Z.D.n.D.(.G.D.D.S.Z.n.V.D.Z.C.*XC.D.G.G.=X=XG.=X-X(.C.Z.D.(.*XhX'.*X(.*X=X(.*X(.-X-X(._._.*X'.(.v.(.v.v.n.v.H.Z.n.v.V.v.C.*XZ.J G ' ;.$.G Z Z D 3 V 2 3 S *.E S A 2 3 2 2 L 3 = * * = 3 i T P K 2 3 R 5 V L V 1 < & = = 5 R 5 A A F #.#.Z V D * 5 i = , , : % e o o @ @ # e : u   o + % # + e   O : : g d & & % r 4 f < f 4 j 4 , 4 4 5 & 4 4 4 & & B 4 4 z ) z 6 6 7 B 7 6 6 7 B 6 6 4 & f 4 x x 6 @.,.@.+.@.a.:.R.f.1.,.k.W.>.@.@.:.>.+.6 6 6 x M f 4 x % 4 4 l 6 { ,.+.oXg.1.'.'.2./.&X'.'.'.'.`._.`.`.`./.`.(.'.'.F.F.<.%.F.P.P.P.P.P.P.<.;.A.U.<.U.s.s.*.,.-.-.-.-.} %.-.;.s.P.1.1.<.{.F.,.1.P.,.1.s.-.s.-.-.t.t.| X.l.X.O.w.h.t.l.0.e.h.k ",
"w.q.^ w.i.q.z.e.9.e.w.q.q.h.h.h.i.x.x.p.p.8.z.i.8.p.x.8.p.x.8.p.i.8.x.i.z.i.x.j.p.p.p.8.p.^.^.^.x.x.x.^.^.^.x.8.e.i.e.x.^.^.^.HXHX^.>X<X>Xk.>X6Xa.1.g.@.} @.@.-.<.F.<._ -.<.F.#.G %.F.<.} #.*.-.*.a.} = } -.k.-.t.} @.-.} D } @.= } } F %.D -.} F D t.-.} 7 } -.5 5 h x w.z.t.a.l.k.t.t.t.} X.-.-.@.} +.L.{ @.1._ 7 %.%.-.} @.L.s.@.7 7 a.7Xk.l.k.T.7XXXl.} X.I +.@.7 D 6 D l.g.6 d.-.@.@.@.-.{ 6 D @.7 7 7 ,.6 { X.T O , < r T > Y p 2 u K s L p 3 Y ; p p 3 > * > s > 3 ; 2 s 3 3 > 2 ; > i i Y ; i p L * L p * E 2 > L h 1 5 1 3 I * 5 = 5 1 r.5 A = U R L = -.L 5 A P Z D U G } #.#.;._ A.;.A.L.V.A.V.A.A.G.*XI.*X*XD.*X*X*X=X=X(.hX(.-X=X-X-X;X-X;X-X=X=X(.-X-X-X-X-X*X*XG.S.-XD.*X-X=X*XZ.Z.(.(.Z.G.(.G.Z.G.(.G.Z.H.(.H.G.V.'.-X=X(.-X'.(.).-XZ.-X-X'.Z.2.Z.Z.'.'.n.(.).n.H.(.Z.-Xn.n.(.H.C.D.Z.v.' v.v.J [ $.&.` G Z Z - - S P - 2 *.2 - P E P P 2 2 2 E L L < 2 2 2 A A 2 - A 3 2 A 2 2 5 = = = h L - - D W U F Z - C * 1 , < ; r ; # : y : + O % b : $   % % o o w f     : . : . < < & % : f   <   f < < 4 5 M 5 6 4 4 4 z ^ ^ 6 z ^ B ^ { ^ 6 { I | { 6 I x 4 4 ..x x I 6 { ,.@._ D @.{ ,.,.@.@.:.k.+.) ) @.{ { 7 7 6 4 l x N T z x 4 ^ { { @.@.g.a.1.1.1./.2.1.'.Z.'.`.'.'.n.`./.'.&X;X(.D.}.F.F.<.F.<.P.U.P.L.s.<.L.P.OX-.-.-.+.{ s.| { +.+.+.-.s.a.g.g.,.%.1.1.<.1.F.<.1.;.s.%.s.t.R +.O.O.O.a.0.w.t.r.a.t.X.h...T ",
"h.9.9.w.w.w.z.w.w.h.h.h.e.h.i.w./ q.q./ 8.p.x.q.x.x.p.p.x.UXx.UXz.p.i.8.i.q.i.p.8.x.z.x.p.x.p.x.^.p.p.x.p.p.p.p.^.HX^.^.HX^.i.^.z.^.z.a.a.l.a.-.@.} +XU.,.%.<.}.1.[ %._ %.<._ _ &.@.;.%._ _ ;.<.s.;.} 7 I 5 -.-.s.+.-.| 7 7 X.} D -.-.-.-.D } _ @.} -.} } - I t.5 4 5 k 0.t...w.T.k.I t.X.X.r.t.X.X.+.;.OX} } -._ D ,.%.} _ %.-.-.I D } t.s.-.+.a.} { { -.w.@.7 t.} 7 D 7 6 6 _ { -.{ D } { _ 7 @.7 { Z _ 6 ,.D k X.T . < .   y.p h Y * p * > Y > E * p > p p 3 p > > ; Y 3 s K s s > 3 3 > > , Y ; > K L ; Y i < 1 * 1 h 2 2 L 1 < L , L 2 2 2 r.L 2 A 5 X.P - r.S S D } D U ;.F F %.` A.$.A.N.M.A.V.F.S.D.F.D.(.*X*X*X*X*X-X*X=X=X*X-X=X-X;XdX(.hXdX=XhXvX(.G.Z.(.;XG.Z.=X=XV.(.C.-X=XD.*XG.Z.n.D.*XV.(.-XdX(.(.(.(.=X=X=XZ.G.(.-X*XZ.Z.*X`.D.Z.-XZ.(.Z.n.*X-X_.-X`.(.(.(._.hXsXb.v.-Xn.C.C.[ n.n.] C.C.C.C.] ' M.$.W U W F C S A - A S Q - 3 L U L L 2 3 V 2 = L * 2 - 2 2 2 2 V P 2 L L L L L 1 1 2 2 2 = Z *.W D S U A - * p h j O j : : y d e 9 $ $ j % o e % o o % d j   % : . N e T T % O j d % k . x j l M 4 x l = & & 4 6 o.o.^ ) { ) ^ | { ^ | @.| } 6 7 D 4 T 9.4 , 7 6 { -.@.+.,.,.7 { { ) 7 ^ :.+.@.^ ^ 6 x 6 ^ 6 z % 4 z x & 4 4 ..x 6 { @.+.@.d.1.,./.2.'.'.'.'.&Xn.`./.&X`.`._.-X:XF.'.A.}.P.<.%.%.<.L.<.A.<.g.a.T.l.+.t.w.| w.{ o.a.w.+.a.g.a.g.1.1.1.1.F.F.P.P.1.s.,.s.@.l.+.D h.y.l.y.t.l.l.t.w.0.0.9.l.M y.",
"h. .q.T ^ q.h...i.w.w.p.q.h.q.e.w.e.p.q.q.e.x.8.p.x.x.x.x.8.8.x.8.x.i.i.i.p.8.8.p.p.p.p.p.8.8.p.8.8.8.8.8.8.p.p.x.8.8.p.e.p.i.p.p.q.h.h.w.d.s.@.,.@.<.P._ 1.P.+X&X_ &.<.<.%.s.P.P.<.<.1.;.<.T.U.l.#.D - I 7 I @.| X.-.I = 7 U D - %.<.s.-.#.} -.;.-.-.-.-.D D t.I 6 L I 4 L 7 I t.0.5 O.r.r.r.r.*.s.s.;.>X-.,.;.%.%.<.s._ #.} -.%.7 D I 7 D { -.{ } k.T.} { D 7 t.| I L 7 6 7 6 +.a.-.@.+.@.} _ 6 7 } 7 7 D a.7 = 0.T ; j j . e.p n 6.* Y . E 6.. E * i 3 Y p * p ; > * K * * 3 V 3 ; ; 2 ; * > E ; ; K i ; h 2 1 2 1 L h = 5 2 2 1 5 h h A 1 5 R L 5 L A X.R D *.- D S *.F A #.F _ #.` &.&.<.V.V.V.A.F.S.*XS.Y.*XG.I.*X*X=X*X(.(.=X(.-X*X(.-X-XZ.hXdX(.*X=X(.-X(.(.=X(.(.hX*XZ.-XS.=X-X(.(.*X-X=X(.(.Z.D.Z.D.Z.(.G.G.(.Z.G.H.(.*X-X'.=X-X:X=XZ.*XhX-X:X-X-X-X-XZ.`.hXfX'.`._.n.(.Z.sXG.v.Z.n.n.mX(.v.n.v.V.M.J J ' $.H S H S C V A 3 F S V V V A A 3 V P E L * 2 E 1 L A L A C V A P V U L A L I 5 1 2 A 5 - U *.#.U U U R V 2 L > > ; r O O j % $ 9 : % d % . $ % & X % f d   : O < x.Y k j l & d $ % N o x e 4 4 % 4 x x T | x  .w.O.^ z ) B ) ^ ) 6 6 { 6 7 7 7 x 7 x 4 . 4 . 7 +.@._ { @.,.@.) 7 7 B ) @.@.o.{ { ^ 6 7 6 { x 4 x x M 4 z x | 0.{ O.+.+.:.P.R.%.,.%.F.&XF.F.'.'.`.`.:X`.`.'.:X=X1.'.<.}.I.<.` %.<.<.<.&.1.P.U.>XT.t.w.+.+.| { u.s.a.-.s.k.s.P.1.1.g.%XP.1.{.s.<.1.s.g.-.k.@.I l.t.k.t.0.h.t.e.0.t...t.x.X.x.",
"q.x i.{ ..e.i. . .M T q.9.h.q.h.i.q.w.i.x.8.q.q.x.8.8.8.x.8.8.p.8.8.8.8.8.8.8.8.x.p.p.p.x.p.p.p.p.p.^.^.x.x.^.x.p.x.8.N i.x.8.z.q.q.u.j.t.@.@.@.%.%.<.<.F P.<.%._ _ %.g.g.Z %._ _ _ _ G G D -.D y.} I D D 7 { I 6 } X.6 7 } t.+.D _ -.%.#.s._ F -.-.D } I 7 7 R 5 < 5 x 7 O.D I I I A r.r.t.r.0.X.-.-.@.;.%.<.} -.g.s.A.-.P.P.<.I 7 U -.D X.+.| 7 7 d.T.{ -.{ D L.I 7 - 7 X.7 = = 6 D { { 7 6 = 7 = @.{ 7 - } A < l > . r w   T . p Y . p ; Y Y . > Y 3 p Y 3 . r > h ; p ; p K s K p 3 p ; . r Y ; * p 3 ; 2 > 1 i 1 1 * 2 L h 1 1 2 5 < L 2 5 A 5 I A L U I A #.5 P D } S Z F H ` &.#.&.&.A.D.D.Z.D.S.F.'.C.*X}.G.D.(.-X=X*X*X(.hX'.-X(.=X=X-X-X(.-X-X(.*X-XhX*XZ.-X;X(.*X(.-X(.=X'.Z.*XG.=X(.C.D.`.'.(.(.(.(.-X=X=X).Z.=X(.=X(.-X(.-X-X-X-X-X(.Z.n.H.(.'.'.-X_.'.-X`.n.`.jXZ.-Xn.).n.n.-XH.b.C.Z.Z.S.v.v.b.G J M.N.#.H W S - P U Z P V - - - 3 V A 2 A L Q L 3 h 2 2 2 V 3 * - - V 2 P V 2 2 T - = 2 L E - A F #.*.S U U A 2 E . ; u u #   j : e f : O f $ :   & % % % e d . .   : 6.f < < l f b $ e m n m < T x T x ..X.x x +.| ^ 6 x ^ ^ ^ ^ { ) 6 D @.D 6 _ 7 6 x 4 B & ..6 ) s.,.,.%._ %.,.@.7 { 7 ) ^ ^ +.^ { | ^ & & x & 4 x f z z f 4 x O.{ { { { } @.,.{ ,.%.&.1.2.'.'.n./.'.`.'.'.2.(.F.2.Z.2.I.F.P.,.g.I.P.<.<.A.%X+XoXP.a.+.+.,.>.+.a.l.d.,.k.P.s.P.%.,.1.}.<.F.}.1.<.,.,.s.t.s.} X.t.X.-.w.X.l...t.O.t.l t...h.l.",
"9.x e.9.w.w.i.q.o.q.0.w...z.9.w.w.q.q.q.p.( 8.q.z.p.8.8.p.x.8.p.8.x.8.p.i.e.i.8.8.8.8.8.p.x.^.p.p.x.x.x.x.^.x.8.x.p.p.^.8.!.z.p.p.j.h.j.j.@._ a.P.1.;.1.F.1.1.{./.}.F.F.,._ <.%.&.1.<.%.1.-.U.y.-.U { { 5 7 I D 7 @.X.D { | U D Z Z _ } -.P.s.-.L.s.} -.-.F I +.X.L l I L r.A 2 U U R X.R r.t.r.-.-.*.-.-.} 1._ <.P.L.-.<.L.<.` D 7 5 } I O.@.} { I l.s.} @.D X.y.R X.5 7 5 6 { 6 } X.+.+.@.-.6 X.I @.l.@.7 X.X.T T j : y i w 0.p p 0.u p b p > > p 6.> ; K ; * < * 1 . ; ; 2 ; 3 Y K > p > * i Y ; 2 > i p > 2 1 h 2 3 2 2 L L L 1 L 5 2 L L A L L A 5 A R A A *.S U F =.#.*.#.$.<.&.V.<.M.A.*XD.F.D.F.V.D.V.*X'.*X(.(.=X;X(.*XD.hX=X-X*X-X-X-XhX*X).dX-X-X-X-X(.H.-X-X).=X*XjX(.hX-XG.=X;X;X(.Z.*X(.(.=X).Z.H.Z.H.(.dX(.sX=X(.(.-X;X-X_.(.`.=X`.'.-X).(.Z.n._.).(.Z.).jX(.'.jXsXn.).).J.H.(.C.Z.V.C.M.b.v.v.J ' M.m.! J F ~ 3 =.S 3 - S U A 3 - 3 E A * 3 E R 2 2 L V L P L A V V A L U L P 5 X.1 < = L I - - U W *.S S P 2 3 5.; u p > u u m w y e : O f ; :   & % $ % e j % o   < < O g 4 l % % % $ 8 f 4 X l % ..x n T z 4 l.u.x 4 6 ) ) ^ @.^ { ) @.-.@.@.+.7 7 I < 4 g | 6 I @.<.,.&.%._ @.| ^ { 6 6 ^ { w.{ { ^ | 6 7 4 x ^ ..4 f f f x f ^ 6 { { { >.+.>.@.s.a.%.%.1.&X:X/.'.n.'.'.`.n.*XC.F.'.<.}.F.}.}.s.s.P.{.+X{.}.U.I.P.<.<.-.@.@.%.-.<.<.1.F.}.P./.%.2.1.{.1.P.+X1.L.-.-.s.-.a.X.t.t.t.t.l.r.T.X.y.O.w.x w...l.h.",
"i...q. .w.9.h.e.9.w.i.q.M z.u.i.q.i.p./ 8.( q.q.p.8.8.p.8.8.x.x.8.p.e.8.p.( i.i.x.p.p.8.p.p.x.x.p.p.^.p.8.p.x.8.8.p.8.x.8.x.8.^.w.p.a.h.-.@.@._ _ 1._ - P.1.` [ _ 1.1.1._ P.%.%.P.<.%.%.A.@.s.s.y.R I #.D 7 } } I *.} 6 } } I } D _ @.-.%._ s.;._ } _ -.-.I I } I x 4 5 5 R = 5 Y L I E R r.e.r.r.} D -.} Z _ _ <.#._ _ %.A - 7 - - 6 *.{ D - 7 D _ l.@.+.} 7 @.t.6 5 5 L 4 L I 7 6 6 D D @.,.7 +.@.} s.U } X.T = L 6.; : y m Y p   Y ; k E p p b E E p * p Y Y 6.< p < i 3 p 2 ; E Y ; p 2 ; i Y * h ; L L > p 3 5 ; 5 R 5 2 L L 5 I l 5 h L 1 R *.I P I *.I U U A F A -.;.;.&.A.A.%.S.A.A.I.I.C.V.D.(.D.=XG.:XD.=X*XD.(.*X=X=X*XhX-X*X-X=X-X(.*X-X-XsX:X-XZ.(.-X-XdX(.(.:X=X(.=XC.;X-X=X(.(.=X-X-X(.=XdX=X(.vXjX).G.dXG.=X=XhXhXhX-X-X-XhX'.(.hX(.(.Z.-XhX-X_.'.`.-XhX`.fXhX(.).`.Z.Z.Z.n.n.'.G.C.(.G.C.v.] b.B.V.B.! H ! W H *.Z S S V A C A U 3 P L P E E A R V R L L S P U P S S P P A P 2 U 5 2 * 5 P 5 P *.F U A L U V > p ; s r   j y i O % % O . f ; & % % % % % e b : O   < % < , ; Y X % f d   4 % 4 N % T 4 < x l x {  .) 6 ( ) ) >.{ ^ { 6 | t.@.} +.6 7 | = 4 l x 6 +.{ s.@.,.%.@.+.X.6 7 4 7 ^ ^ x x ^ 6 x x ^ 6 6 z ..f x 4 4 ..x l B 6 } { @.@.-.O.@.+.@.%.1.'.'.2.n.n.n.2.2.2.;XF.'.1.F.8X<.P.<.1.<.F.P.P.P.I.I.}.<.2.<.%._ %.1.%.1.%.F.&.F.F.1.%.1.g.<.1.1.<.1.P.%.%.a.-.s.t.a.t.l.a.l.X.h.X.h.w.0.0.0.r.x.e.",
"i./ N / ( 9.i.x./ x.8.h./ z.e.q.p.8.8.8.8.8.8.8.x.x.8.x.x.8.8.x.p.8.x.x.p.v 8.p.x.8.8.z.p.8.x.i.p.p.p.8.8.8.8.p.8.x.p.p.8.UXx.^.h.h.I k.+.D s.%.%.F.%.2.&X}.I.P.<.` .X1._ 1._ Z F.%.} ;.P.} +XT.I X.U 7 I -.F @.F +.,.D D } X.} #.7 <.,.<.%.<.,.<._ %.} } } 5 t.X.5 5 l 0.g g < 1 I 5 < k r.e.T y.0.I t.} } _ } P.;.@.I 5 I 7 r.4 5 U X.I 7 D 7 7 @.} @.X.} 7 } } } = 4 7 I X.< . 6 6 = = U 6 6 7 _ = %.= _ = X.. Y T   : : 0.O i O p . Y p ; L 7.Y * p s K 3 p Y K ; p i * K > > * 7.; > 2 1 . L Y . 2 p > 2 1 1 1 5 I L 5 5 2 2 A A L - h X.R h 2 y.L * ;.U A F U #.#.&.%.$.` I.F.D.V.S.S.'.S.F.(.'.'.G.(.D.-XD.*X*XY.=XD.-X-X-X-X:X_.-X-X).-X'.-X-XvX-XZ.:X(.(.=X-X-X-X-XhX(.-X(.-X(.-X(.*X-X(.-XZ.(.(.'.(.Z.(.'.sX-X-X).'.=X-Xn.'.(.(.hXZ.(.'.hX-X-X-XhX(.=Xn.:X[.fX[ _.SX-X_.n.'.n.`.hX(.H.).Z.J.Z.n.Z.V.' ' M.G J G J ! C S C - U S A - S 2 V L 3 V V 3 L V *.* W - C Z L C P P P A P - V R 2 2 - I 5 I I U L A U U A L 5 i p i : ; O # r d n O j y % % n #   % r O : n e o # :   @ b . d % f 4 9.% f % M x l ..x g T f 4 6 6 4 6 { { 6 6 { { { 6 D { { D 6 7 I { & 7 4 x x | I { +.-.+.@.{ X.4 4 B I o.6 4 w.6 x +.x 4 & h.4 x z 9.4 4 ..T { x 6 +.+.@.{ w.t.a.@.1.1.'.{.:X&X'.2.Z.'.(.'.'.2.F.D.<.I.F.F.` %.1.<.F.{.1.F.U.P.U._ 1.%.1.1.1.%.%.g.<.<.I.1.%._ 1.{.F.1.<.<.s.<.,.-.s.s.t.s.t.T.l.t.s.z.t.I e.l.R 0.T q...T.",
"M 9.q.e.9./ q.i.q.i.q.^.e.p.( q.8.8.8.8.p.x.x.8.p.8.8.8.8.x.8.8.8.8.8.8.8.8.x.8.p.8.8.8.8.p.p.p.q.p.i.i.p.p.8.p.^.8.x.p.8.z.^.^.w.t.O.-.{ -.1.%.D %.F.P.1.%.%.%.F.<.&.%.] _ %.1.<.,.{.<.-.7 _ t.P U R A } #.} -.-.#.%._ } -.@._ } F s.<.-.<.P.1.-._ @.} X.X.A t.I x I L 0.k T 5 l T T k h p Y Y x.h.T X.{ -.,.-.U.-.X.X.| 0.k O.T 6 T X.I 6 D D } *.-.-.I @.{ 6 } +.5 7 = l T 5 5 x T { | X.} } 6 7 7 @.7 x 6 h.L T g g r r n : Y ; i u Y p ; * p * K * 3 Y * ; > p ; 2 . > i 2 1 3 T 3 2 2 2 * Y T 3 1 1 * 2 L 5 h L L h 5 5 - D 7 - l I T R h I R U y.A A ;.* #.#.` #.A.A.A.V.}.D.S.V.}.D.*X(.(.(.(.*XD.*X(.*XC.G.(.*XhX=XdX-XhX-XZ.-X-XhX-X-XhX-X-X(.-X-X).jX-X-X;X-X(.*X;X).-X*X-X=X-X*X-X=X-X-X).(._.Z.(.=XhXhX(.-X*XhX-XfX-X-XcXcX(.`.n.-X).Z.).(.:X_.2.-X`._.'._.kX_.n.hX-Xn.`.n.Z.Z.n.`.C.J.v.] (.n.b.v.' M.J ' ' ! J C =.Z * C A F Z Z - P Q K 2 V V U V =.S V - A W P 3 V P E P P - A R I 6 = 5 I I A U R Q R L L E L k b j > e n r r r n $ e T r b O O r w $ e o m y   O 9 @ w w @ w f : %  .4 N 4 I 0.4 x l x T l h I x 4 7 D { { { _ { ) 7 6 @.| ) 7 6 { 6 = ^ { ..6 { x +.t.@.I { { 6 4 ^ ^ 6 z 6 { z 6 4 w.o.x B I 6 ..6 x l x T ..| X.6 +.-.,.-.s.k.T.@._ @.1.'.'.'.'.'.'.-X&X*XF.2.F.}.F.}.F.1.<.A.F.1.F.}.<.%.;.@.%._ %.%.%.1.%.<.s.g.<.,.P.g.@.%.{.}.<.P.{.P.<.<.%.%.<.s.-.P.s.a.O.-.h.y.t.0.l.0.9.T h.X.5.l.",
"/ e.p.q.q.q.9.i.N 9.p.x.8.i.q.i.8.x.x.x.x.8.x.8.8.8.8.8.x.x.8.x.8.8.8.8.N 8.p.8.p.8.x.8.8.i.i.i.z.p.h.z.8.p.8.8.8.p.8.8.p.x.8.^.h.a.-.+._ <.-.<.%.;.P.<.&.P.1.%.P.P.%.&.P.%.2.P.F.G <.%.<.%.F } 7 A U D -.U _ *.s.#.} _ #.-.} Z _ @.1.-.%.%.F.1.,._ _ 6 } I 5 t.@.= , I X.> < O ; L I h Y T L > t.0.T { %.s.%.} t.{ 6 I 5 l l x X.= { I 5 7 D D *.@.{ } -.D 6 } I } 7 7 7 4 k x l , 5 5 I I I +.D 7 _ +.6 I 6 r.4 T k g . i n O 0.y ; p p s p * p E ; Y * E 3 2 p > ; ; . L p * K p L ; K 3 3 * L E * p 1 1 2 h L L L 2 5 5 5 5 I D A L L I R L L A I U C Z ;.#.#.#.` $.A.A.&.D.V.V.V.D.=X*X=XdX;XhX-XhX(.=X=XdX(.dX-X=X-X=X=X-X-X-X(.hX-X:X-X_.lX-XkX-X:XlX-X-X-X-X-X-X-X-X-X-XhX;XdX=X-X(.hX-XD.-X-X`.).(.-X_.hX-X(.hX-X-X(.)._.(.Z._.-X-X(.hXfXhX-X(.lX-XsX-X'.MX_._.'.).`.n.`.`.-XZ.Z.n.`.Z.J.).(.).=X=XG.] b.M.' ' m.N.! S Q U F H Z S Z W V U Q L 3 V A Q A P S S C - U U V P W Q Q E A R U 2 = < 5 A 7 A *.A A R E L L I , O . O . r O O O e # o 5.$ j   % n : # d   n e # u @ w u w m @ 0 B . T % x 4 x 4 & x < < < 4 z | { 6 7 6 6 { { 6 6 7 & 4 { { 6 D { { x ^ | | ..z x 6 x | 6 6 I 4 6 6 x 4 { x 6 ..4 o.4 4 4 x 6 x z T x g x I x T x I 7 } D _ @.@.+.,._ @.2.1.'.:X-X;X(.'.(.F.V.*XA.}.I.F.}.&.F.<.P.+X{.U.1.%.<.<.-.%.1.%.1.%.1.1.,.P.s.<.P.<.,.%.%.P.+XP.P.1.1.g.<.,.<.k.s.@.T.l.-.{ X.a.t.w.t.l.9.t.0.x.x.X.h.",
"q.i.e.q.x.h.i.i.^ p.z.8./ i.q.8.8.8.8.x.p.8.8.x.x.8.x.8.x.p.8.x.x.x.8.p.8.8.x.8.8.8.x.p.x.x.8.i.i.( q.8.8.8.8.p.x.8.x.^.p.!.x.8.a.a.6 -.@.@._ %.1.P.}.<.%.P.<._ #._ _ _ <.%._ %.s._ %.-.-.%.D } U Z U F s.} } -.P.-.-.} -.%.@.D } -.} %.%.@.%.1.1.%.} _ } } A s.X.6 I X.R . = < I T I < Y r.0.l n j X.I O.I 7 D -.R I I l 7 x I 0.4 0.O.6 5 L { | } D I t.6 7 t.I @.= 5 L x L I l 7 4 = 5 6 I X.6 = } X.6 D 5 T = k n : # p e.. T T . i > u K K p p * K > ; > i Y p ; i * Y E ; L T 2 2 h 2 3 * p Y > 1 h 2 h L L h Y 5 A 5 5 A A L D I L A I R E U t.U #.U G =.;.A.&.N.I.I.M.I.2.'.*X(.*X(.D.;X=X-X*X;XZ.;X=X;X-X:XG.(.vXhXfX-X-X-XvX-XhX-XhX).'.-X-X;X(._.-X(.-X*X=X-X-X-X-X(.-X-X(.-XhX;XnX-X-X`.(.:X-X-X'.hX-XhX-XhX=X).-XdX-X-X(.=XjX:X).`.n.-X(.-XvX(._.n.2.lX_._.`.lXcXkX-X).).-X-Xn.).`.v.jXH.n.H.=XZ.C.v.' M.m.$.H G S W Z Z F Z S C - A V 3 V 3 3 * P E P U r.A Z 2 U V V P ~ P A C U R 2 - A I I 5 I Q 2 - A A A 5 L j : : n : r : b j r w w T o w w % r % o r O n e : u # @ u y 5.@ < f % 9.O 4 < T . & ..< 4 l T x ..I x 4 4 6 D 6 6 ) 6 7 6 { { I { x 7 4 x { 6 x 6 { | { +.6 { 6 4 x ..x 4 0.q.| { B 0.4 x x { x I x x ^ f { T x X.I X.{ a.) { @.-.-.+._ %.1.1.F.'.'.'.*X*X:X*X*X;XP.;XL.A.P.<.P.}.<.%.<.P.L.%.;.-.} %.,.<.1.<.<.<.1.U.s.P.|.<._ g.1.1.1.1.<.s.P.<.P.s.s.U.1.} g.s.s.-.a.l.0.t.l.R ..e.0.R x.T 0.",
"9.e.w.q.e.w.q.x.8.8.i.9.q.z.i.h.i.x.8.i.p.8.8.8.8.8.8.8.x.8.x.x.x.8.x.x.x.N 8.8.p.p.x.x.p.^.8.p.z.q.p.p.8.p.p.x.z.u.h.w.z.p.q.j.,.t.{ ,.,.%.} <.<.,.P.<.s.1._ %.}.%.;.;.<.%.` _ <.;.-.L.} _ Z } y.D F } ;._ -.1.<.%.#.} } -.;.U -.,._ <.P.s.%.%.<.%.@.} -.+.D -.*.| L l T I j . = , A 5 I I h h & = I 4 D D D X.X.I L I x 5 6 6 | < X.{ 5 7 5 U I D X.X.} 6 { X.I { 7 6 L l k T l 4 I l I x 5 I +.D { X.D | T t.k l O ; : r 0.# p 6.* s p 3 p > E ; p E K K ; K > 3 s p i ; E ; 2 R 2 ; 2 2 3 ; 2 L > i , 2 5 R L V I L U L A U 2 A V A U L L A A *.S F ;.` =.A.` N.&.A.S.C.&.*XV.*X*X(.=X-X-XvX-X-X}.-X*XhX-X*X=X:X*X-X-X-X-XcXhX'._.`.fX'.hX-X-XcX_.-XhXZ.-XkXhX-XfX-X-XvX-X;X-XhX-X-X-X(.-XZ.).-X-X).(.hX(.-XD.-X:XsX-X-XvX_.(.).'.`.fX).-XvX-X-XjX-XfXfX-XfX-X'.[.'._._.`.[.(._._.`.(.).fXZ.G (.n.n.H.Z.v.[ G J b.' m.J J G F S G F Z G Z S P P 2 P 2 - = V P U r.W A L L Z U S Q ! =.Q S U E 2 5 = 5 5 7 - A I P 2 * L 5 h 1 O < j O o O r j r r $ u o   % : . % : u b n e u + : o : u m # O : 4 T % f 5 ..4 = { 6 ..M ..4 l 4 l 4 7 x 6 x I x 6 6 I I { x x { 7 7 { / T ..^ | | 6 { 6 { ^ 4 & x M f x x ..M x 9...| x x z z x x x < ..| x x x U 6 *.D _ _ 6 _ -.%.%.2.1.}.'.'.'.(.'.*XF.D.;XA.I.<.<.I.<.P.P.s.-.%.;.g.s.<.%.@.,.<.<.<.F.1.1.P.P.<.a.g.%.%._ %.E.1.1.P.{.1.<.{.T.g.P.s.%.T.l.a.-.a.y.| t.h.X.0.l.w.X.x.e.w.",
"/ 9.e.i.i.q.9.p.i.e.i.p.i.i.q.q.p.8.8.i.x.p.x.^.x.UXx.8.8.8.p.8.p.8.x.8.x.8.p.p.8.x.8.8.8.x.p.p.z.z.^.x.x.p.p.p.i. .t.O.i.p.a.j.} @.,.#._ %._ P.` %.<.1.+X+X%.,.P._ _ P.<._ <.%.} %.D g.} -.} @.-.U %.-.%._ %.&.-._ _ D _ } ,.D D %.} <.%.<.%._ <.%.%._ _ } U { +.R 7 < L h < . , I 0.X.X.r.L l k x l = x I 4 = I 4 7 = 7 4 7 7 X.l ..D L I I I 7 A } t.t.5 5 | 7 I = l 4 4 L ..l < k g x 5 & 5 } } D @.4 I l k T T . r < r 6.: : 0.O ; Y p p 3 s 3 * K ; p > p p > > 3 p * R i 3 p 2 3 2 V ; 2 2 p ; 2 l L 1 5 I 5 L - I 5 L r.L U 2 A I P U U Z } #.;.=.` &.` &.I.S.I.I.}.C.=XG.-X;X=X=X-X-X-X-X-XhXhXdX;X-X-X=XhX-XhX-X(.-XdXcX_.-X-XkXvXkX-XjXhXfX-XfX'.(.(.(.=XhX_.).-X_.(.-X-X*X_.-X-X-X(.fX_.-X-X-X'.).hXhX(._.(.-X_.kXfX_.NXkX'.`.fXhX_._.-XhX-X(.-X'._.kX`.lX_._.hX-X:X`.'.-X)._.(.Z.`.).(.-X(.=XC.-XZ.] C.D.M.M.$.$.H H S - C S W A A A U E R P P U V 2 S Q V 2 A U V U C H P W P U S *.A A = I 5 L A R U U A - U L L 1 : i w , r , : w j r e r n : w y   $ r : n d : r @ m w @ O w   % % , M 4 4 5 M l < z l k < 4 < x < x 4 7 x x 6 x 4 & = 4 6 4 4 4 T 4 & 4 x x x ....z l x 4 7 6 | 4 x o.....M ..x | x I x z l l x 6 6 I 7 x x x { | { { +.{ { @.} @.@.%.%.%.2.2.'.1.F.'.D.F.V.F.P.<.F.;.P.P.<.<.<.<.L.<.<.%.*.L.} -.%.@.<.<.1.%.s.s.l.,.,.;._ @.%.<.}.%.1.<.I.P.s.P.P.,.,.%.*.k.U.-.{ t.l.I t.t.9.0.5.e.l x.X.0.",
"e.e.p.e.i.z.i.e.9.q.p.q.e.i.i.p.e.p.p.8.x.8.8.p.8.x.8.x.x.x.^.UXp.8.x.8.x.8.x.x.8.x.p.p.x.^.x.x.p.i.x.p.p.p.p.8.i.x a.+.d.,.d.a._ >.<.@.%.,.<.F._ 1.}.<.%.%.@.<.U.F -.L.<.G _ Z _ #.} ;.} } } *.#.} %.L.%._ %._ <._ _ _ } } s.D D %.s.1.,.<.1.%.<.1.%._ G @.} D I X.l L l   . l y.t.-.5 5 w.L 7 = < & = R X.I 5 r.I T 4 D D D { 5 I I = 7 A 6 7 7 6 D t.t.l & } I I 7 I 5 5 T T I 4 5 < 5 x = 6 I +.@.t.R I x 5 4 T T r : j T b u 6.; ; Y p p 3 p p 3 ; p * 7.p 6.p ; 3 K p 6.L 3 > p 2 2 p 3 L p 2 3 p E R 1 - I V I * L A A t.A P P P F S U #.G F &.$.' A.D.}.V.D.S.I.C.D.Z.G.D.D.(.-X=X-X;XvX(.hXvXhX-X=X-X;XdX=XZ.-XhXcXfX(.-X-XhX-XfXhX`._.-X_.hX:XhXfXlX(.hX-XjX:X-X-X(.(.hX-X-X_.).-X-X_.-X:XvX_.-X-XjX-XvX(.hXcXvX_.-X:X(._.kXkX:X`.`._.cXlX_.jX[.'._.cX-XSX(._.-X:X_.lX`.fXkX-X(.).n.Z._.=X).H.).C.v.b.J [ J H J ' m.` S W ` W F F - #.2 S P V 2 - P - V A S 2 A 5 I U P C P H S S ! A *.3 3 - I 5 5 } y.P 5 P A *.5 I < ; r . i r > :   y   r y j y : j # O w r r j y y : Y u : # : # , ; g T M 4 l l x 4 x I x & 4 x T f x g < M l 4 I 6 = 4 x x k 4 6 | ..g T ^ ..x l ^ ^ o.O.x 7 B { x z T x I ..x x x = x ..0.w.x { ^ 4 { x 7 k | +.O.{ X.@.} } ,.@.%._ %.1.}.2.1.'.V.'.D.D.V.2.A.V.A.F.<.}.s.<.P.g.;.<.L.P.-.} @.F ,.-.<.1.P.P.1.1.<.-.s.s.,.@.%.1.F..X}.P.P.1.1.8X6X}.P.g.,.s.6Xk.t.X.-.l.O.z.0...l.l x.x z.0.0.",
"q.i.e.q.w.x.i.9. .9.q.q.q.q.p.e.8.^.x.q.8.8.x.8.8.^.x.x.8.8.8.x.x.x.p.p.x.8.8.p.x.p.p.8.^.x.p.p.p.z.!.8.i.p.z.p.h.O.l.O.s.+.-.-.D _ _ %.1.1.{.1.1.1.1.<.%.-.1.<._ = %._ #.%._ *.-.} F } } } F D } D _ -._ D %._ %._ F @.} D -.} D } <.%.%.P.1._ %.%.,._ 7 } -.D I X.5 4 L 1 & l r.X.X.6 U t.L 5 4 x , 6 I 7 5 R e.6.l.X.X.{ 7 D = { X.7 7 6 I D I I U -.X.{ 6 6 { I 4 I 5 , l 7 g , f = , 0.5 5 = { D I I x T g . . 6.. r : ; O i T > b K p K ; 3 * p 2 2 2 Y K 3 ; ; * * > 3 ; 2 3 Y 2 L 2 = P 2 L h 2 2 5 2 E 2 V X.Z } P A U - S S U *.S G F S $.&.&.A.I.] S.S.I.C.(.S.*X'.(.-X-X-XhX(.(.-XVX:XhXhX*XvXhXvXhXhX-X=XhX-X-XhXhXfX-XSXhXhX-X'.cXhX_._._.hX(.-XhXjX(.-X(.-XhX-XkX-X-XhXhX:XhX-X-X-X_.).-X-XjX-X_.)._.cXhXZ.`.-XjX-XhXcX-XfXlXhXfX:X-XNXhX_.hX`.fX_._._.lXfXlX[.[.'.fX(.fXfX(.`.-XjXsX-XsXn.hXsXC.H.Z.[ S.A.' J J ! #.Z G H F 3 Z *.P K 2 C 3 P - P U 2 A 2 2 3 Z W C =.=.H W =.Z R A 7 5 I U A I R S A S 2 X.5 L ; . 1 O j O < i O T # Y M < b j n i : o m O b Y w O y @ u # s : . . g g k 4 l g 5 4 4 x x l M { x 4 x g 4 x 6 < l 4 4 x T ..I x 4 z 4 x w. .q.{ x | 6 6 6 6 4 6 4 x 6 { 4 6 | x 4 6 o.w...{ { 6 | o.7 7 I { +.X.{ t.%.@.} +.@.s.<.<.2.1.2.F.1.'.'.'.;X}.;XD.F.D.V.P.F.A.}.F.1.L.U.P.g.,.-.-.} -.} g.%.<.%.1.%.,.,.s.-.g.,._ ,.{.%.1.1.%.%.{.1.<.+X1.<.s.<.-.-.P.-.+.X.X.h.0.T.T T h.T 0.5.l.x.R ",
"( 9./ q.e.w.i.e.9.w.q.q.9.i.i.q.i.x.z.i.q.^.e.x.p.x.x.8.8.x.8.8.p.x.UXx.x.x.z.z.x.p.x.x.z.x.^.i.^.^.z.i.z.z.z.h.@.a.X.} -.@.%.@.%.%._ _ {.%.1.%.1.%.<.P.Z _ ,.%.%.#.P.%.U.-.$.} ;.} #.s.} } } } } %._ <.#.<._ _ 1.1._ } %.} -.} _ @.%.%._ %.,._ _ %.%._ @._ } { } | 4 2 4 h , 5 x L | D I R r.= 5 4 5 < I R = I g h 0.0.l.t.t.+.} } D 6 *.{ D D } 7 U D a.} 6 Z -.{ 5 4 5 l 5 l k l < l < R T & * 7 I | I t.4 ; , g Y : r O O : . Y > p Y ; K 3 p ; p K 3 6.p E ; p 3 p * K Y > r.. K p V 2 * L * p 2 3 L 2 E R - P *.A A *.A S V A U W H F F H &.A.&.D.V.I.*X*XV.S.G.Y.Z.=X*X=X-X-X*XkX_.-XcXcXsX:XJX-XvX-XVX*X(.*XcXhX-XhX'.lXlX-X_._.fX[.)._._.`.[.:XhXfX`.fXfX-X:X`._.fXlX_.-X).hX-X:X_.`.jX_.-XkX-X-XlX_.-X_._._.-XjXhX_.(.hXkX`._.lXlX-XcXgXfXfXkX_.lX`.n._.`.'.`._.lX[.'._.hX[ `.-XhX).(.hXsXZ._.n.[ Z.J v.] [ J J J G Z G H G C G F W F L 2 A K V 3 *.C V W 2 L 3 2 2 R F C W ~ S F H V P - - 2 5 -.2 A } L P I 2 U A , ; O g , . n : ; j y g r y > O j j : r . : # n 5.# O j . u   b y o O k , j l 6 x = T 6 x = ..& & 4 < 0.l x x x 4 / x 4 x { l l B = ..f  .| x I ^ x 6 +.| 6 x 7 { 6 7 6 ^ 7 | a.O.| O.{ +.@.+.{ { { | 6 { 7 I { { -.+.-.} s.,.@.<._ 1.1.'.F.F.}.}.:XF.'.}.*XF.'.;XF.;X}.P.}.P.I.{.%Xs.U.1.-.@.%.;.} s.1.%.s.1.,.<.g.-.k.-.-._ d.%.1.P.%.%.1.{.F.1.{.{.g.%.s.g.+Xk.a.t.X.t.h.X.X.h.0.R ....t.5.z.j ",
"9.w.e.9.q.w.e./ 9.i.q.i.q.i.w.q.8.8.q.8.8.x.8.8.x.x.8.p.8.p.x.x.8.8.8.8.p.e.8.N B 8.i.p.q.8.p.p.8.8.8.8.8.p.p.a.O.t.@.<.1.-.%._ ` <.1.2.1._ <.g.1.%.<.1.@.P.%.D &.#.L.;.<.} s.;.s.U F y.*.} U } } ` ;.%.;.1.&.%.%.%._ _ @._ } _ D @.<.s.@.P..X%.-.g.{.%.%.D %.} } X.k l l l 5 < 5 I } A D x t.5 4 5 6 < 4 L 4 0.h = , 7 { I @.+.{ @.@.7 6 D D 7 5 6 6 D s.X.= 7 X.X.. 5 x 7 l 5 w.g . g 4 4 T T 7 5 = O.h 0.l , . k 6.y ; g u p > i Y p K p ; > K ; K K 2 p 3 Y ; 3 * ; ; K K * R = K 2 2 2 * L 3 L < > I 2 L A 2 L X.S A *.Z U W S S W W G H V.M.D.D.*XV.D.D.(.G.Z.Z.G.D.(.Z.-X-X-X_.`.pX-XvXcX-XhX;XvXcXvXhXvXcXjX`._.hXhX-X[.[.-XjX'._.-XkXhXhX`.hX_._.-XjX`._.).`.hX-X:X-X-XSX-XhX-X[.fX-XhX-X-XlX:X-X-X-XkXcXhXhXcXcXhXhXSXhXfXSXlX-X`._.hX`.`.kX:X`.-XkX-XMX`.lX[.'._.lX_._.zX`.`.fX`._.hXsX-XZ._.ZX`.J.(.v.`.H.(.M.[ J ' $.! J G F G A A A V L L V V W A C V A V 2 L 3 U U Z H G J $.W S U L A - R U 5 U U A U S 5 } L l ; = y < . p O : : Y O . # n u r O O : : r w n n u   y O u ; y ; O ; k g l T T T X...l x < 6 = x l 4 z k g < 4 & g X.x T x 4 k 6 .. .4 6 6 x { X.+.I | | { @.6 x ,.6 6 @.+.+.@.+.,.a.+.s.a.l.a.+.a.s.@.+.{ @.} @.d.,.,.+.s.,.%.g.%.<.` 1.1.F.'.V.2.F.D.'.'.'.'.F.F.;X*XF.}.}.}.+X8X<.<.<.%._ @.%._ -.,.@.1.1.<.<.s.-.-.@.s.7 g.-.<.1.1.<.1.F.@.<.P.,.%.%.1.s.T.s.-.+.X.+.h.t.0.| x.0.0...x.9.z.5.",
" .i./ M M  .q.9.9.i.i.i.q.w.h.i.8.p.e.q.8.i.N 8.x.8.8.x.x.x.8.8.8.x.8.8.i.q.8.4 8.q.p.p.z.z.w.p.8.^.^.^.i.z.h.a.+.%.} s.1.%._ _ _ &.F.<.2._ %.2.%.%.P.%._ F.%._ +X&.%.#.%.#.;.D A F #.-.D S F } _ D %._ _ %.%.%.%.%._ D -.F } } _ } -.<.7 %.;.7 %.1.P._ _ _ %.-.| X.T I l g l = I I X.I I { t.T , x T x I X.L t.X.i , k I I { +.{ } s.D 7 } } D D { 7 D ,.,.7 7 0.O.I X.I < . 4 0.5 g 5 h & T T & 5 < 0.4 L l =   < 5.j % j y n ; > r.Y > p * s 7.3 K p K p Y r.; p ; 3 2 L Y 3 2 A E V L V 3 L 2 R h L L 2 A L S A A A - } - U #.S Z H &.$.' A.*XD.V.Z.] D.S.C.Z.*X=XZ.G.hX-X).:X_.-XvX_.fX(._.jXhXhX-XhXhX(.hXhXvX-X-X_.`.lXkX-X`.-XfXkXfX-XjXfX`.hX[._._.fX].hX(.jX-X`.fX'.`._.(.hXfX_._.hXkXhX[.fX-X-X-XhXlXhX:X-X_.jX(.fXcX`.-X[.SX:XfX-X[._.cX`.lX'.lXMX:X_.'.lX_.`._.[.lX_.[.`.`.'.`._.`.n.J.).n.n.Z.`.[ J Z.*XV.J [ J J ! J G G H S Z C S A V A V P A V S A W 2 P R h R Q F #.$.$.N.#.H P L 2 - X.A D } U I R A A E I h , , i < : l ; g   k . : j Y f f ; O ; : > r Y : y . Y y r O s : < O , . , I L 6 I < 5 x I x 4 l | 0.4 { l < x < 4 4 & x I B 7 | 6 ../ I I { { @.X.{ | +.u.,.a.,.g.,.d.g.Q.s.d.d.OXXXf.l.,.,.,.,.+.-.@.+.+.@.>.-.>.%.@.} -.,._ g.&.F.1.F.'.'.'.&X*X'.'.'.}.*X}.}.;X}.}.F.;X8XP.{.+X<.,.%.@.%.-.-.} d.,.%.<.%.P.k.s.-.,.@.@.-.a.<.<.s.P.L.1.+X1.+XP.1.<.,.g.l.T.g.a.t.+.w.w.t.t.X.9.9.9.0.l.0.z.0.",
"9.e.e.z.z.i.9.q.^  .M / M N q.9.( 8.8.q.3.x.8.p.8.8.p.x.8.8.8.x.8.x.8.8.e.i.e.9.8.N 8.e.z.z.z.z.HX^.i.z.^.^.k.a.X.} *.s.%._ _ 1.<.F.A.F.F.&.1.%.2.1.}.%._ %._ %.F _ F _ G F *.F F *.*.} } *.} F -.#.%.<.F %.%.1._ %.%.Z -.} D } 7 _ %.} _ _ ,.G _ %.-._ @.D } @.} I I L h f Y = l 5 D 7 A L I 5 = < < < l I 5 k T 5 1 k h 4 7 D 7 7 +.I 7 I I 7 D } = 7 { %.7 = X.6 7 4 R ..5 I T 1 I f , & , k & - 4 0.k g g   j . T i j ; . ; ; b r.5.3 > p 3 6.3 p 3 Y K K 7.* 3 2 ; 2 p Y 3 * L E 2 P L 3 h 2 R L P A 5 L U *.L A D U =.F W H H G H A.S.M.M.Y.G.=X;XD.'.(.'.Z.Z.D.G.(.-X).(.cX`.Z._.-XnXvX-XcX(.LXhXVXvXhXhXnX-X_.).hXkXlX_.lXkXkX-XlXcX_.`.`.-X_.-X_.`.'._._._.lX(.(.kXhXkX_.fXcX-X(.`.'.(.-X_.-X-XlXhXlX:X).fXSX-XcX_.kXNXkXlXlXn.n.zXhX[.lXSXlX_.`.kX[._._.:XMX[.lX[.&XlX-X(.).fX_.[.kX`.`.sXfXH._.`.b.-Xn.b.J.[ v.[ [ $.N.' F J $.#.Z - 2 2 V 3 V U A W W S P 3 h L 2 L U H &.$.N.=.S S A Z 3 - X.U 5 *.*.U Q S U I A 5 , < ; ; i j > l ; n r r 6.: : : f : . : O r 5.O Y # T b u O ; O , ; <   O I k l I 5 6 5 = 6 I I 4 { 4 x M x 0.x l { 4 4 x I x 4 4 I w.{ x { 6 { @.@.@.+.-.{ >.{ { @.@.{ @.a.P.W.@.,.,.d.,.+.:.+.,.,.,.a.,.%.@.@.@.%._ @.%.1.%.1.%.'.F.F.2.1.2.F.}.F.2.F.F.}.*X;X&X'.;X}.:X:XP.P.}.,.1.-.%.@.-.-.D s.%.-.%.1.P.P._ @.@.D -.a.a.%.<.+XOXg.s.}.P.g.<.a.,.a.s.,.k.P.s.t.-.t.0.X.h.x.T 0...5.x.9.e.e.",
"e.i.9.9.w.9.M w.i.e.e.q.q.9.i.i.e.w.i.p.N q.8.8.^.8.3.8.8.8.e.q.8.8.8.8.8.3...x N .. . .....w.x 8.p.p.i.w.u.| { } D -.;.<.&.1.I.1.F.&.2.V.1.P.<.<.F.F.<.<.&.` %.G <.%.#.F #.F F *._ F } #.U D D ;.-.%.;.Z %.%.,.<.<.A._ -.%.} -.D -.-.-.,.%.%.@.,.%.;.@.%._ D _ I 4 5 , < < T 5 I I I I X.{ R l k x 4 < x X.I R X.Y 5 x 5 l I 6 5 7 O.O.A I I I I } I @.I s.X.7 X.w.I X.t.T 5 . t., I g 5 4 ; 0.l = < x l l r . n # j n j ; O : ; ; ; p 3 p K ; Y 3 > 3 K Y 3 ; ; * 2 ; 2 p E K 3 p 2 * L V 1 P L T 2 L L L U A U A S C U F S S F ` H ' S.D.V.C.D.Z.D.Z.v.n.'.-XZ.(.*X).;X-X(._.vX-XjX'.cX-X:XjXVX*XSX-XnXhXcXvXcX-XSX-XfXkX[.-X`.fXkX`.kXkXjXjXfXSX[.fXfXjX[.`.-XkX-XlX`.-X-X-X`.:X_.`.fXhX-XkXfX_.lXlXlX-XkXvX_.-XkX-XcX:XlX-X-X:X_.MXAXkXcXkXlX:X-XMX[._.kX'.'.`.`.`.[._._.:X_._._.'.kX`._.-X_.`.fX`.n.sX-X).Z.(.=X[ V.H.G.v.S.M.B.$.;.N.F A S L E - S P Z *.H S C 3 2 2 1 L #.#.$.#.' #.S *.A 3 3 - D P * U *.A P A U I 5 5 g i > < l j j Y > T r O j : j r , : . : ; j 6.. 6.O j i b y j O : : f O & L T | 4 l O.r.6 X.X.O.| w.| L ..x I 4 4 I k 4 6 I ^ 6 x { { 7 D +.+.s.k.s.,.,.d.@.,.{ ,.,.,.a.W.,.-.@.l.,.@.,.,.,.-.@.-.>.-.,.1.@.%.@.%.,.1.<.,.P.<.1.1.F.<.F.1.'.1.F.F.'.'.'.'.&X'.F.*X&X:XD.{.8X}.P.oXs.,.>._ } } +.D -.@.<.<.,.P.,.@.,.} +.6X} k.@.+X+X+X+X|..X<.,.1.<.-.d.<.-.k.k.+.+.O.a.t.w.w.0.0.i.9...0.m 9.l.",
"..e.9.q.q.h.9.9.w.w.q.w.i.i.h.x.w.i.x.e.8.z.z.e.i.x.UXz.e.8.8.q.8.x.z.x.i.9.o. .9.x x T w.w.h.M 8.N / /  .O.O.} } } ;.&.A.<.1.%.] <.F.<.<.[ <.2._ ` _ F ` %.` ` #.A.%.` %.L.#.-.F D D D G D } F #._ } F G %._ _ _ @.-.D } D D } - @.} -.<.-.%.-.@._ s.%.,._ 7 _ a.X.I I h l X.T h 5 X.R R I L T r l 5 , 5 I I D O.L , 5 g 4 T & , 4 T X.5 < l I 6 L I R I t.+.= 5 } I - 6 - 4 X.0.& < % ; k . l 7 < = T & , ; : ; . w 0.. u < j Y ; > Y p p K p p K K K s E ; 3 K 3 p 3 K Y R E 3 2 2 2 E 2 2 2 L L 3 2 2 L U A U S *.U U S #.W $.&.' &.V.V.M.Z.D.Z.Z.D.'.(.V.D.C.(.-X'.`.(._.(.`.(.SXhXhX=XhXhXSXnX(.;X:XhXjXhXcXlXkXlX-X[.-XMXkXlX_.`.hX_.[.NXlXhX_.fXfX_.hX).fX`.lX:X[.fX`._.lXlX-X-XkXNX-X-XMX:X-X-XhX-XkXfXcXfX[.:XcXcXfXfX-XMXlXfX-XSX-X-XNX_.kXhXkX`.-XlXlXSX`.[.MXlX[.lXlXkXlX_.kX-X-X[.lXn._._.`._.-X).v.H.b.Z.M.[ b.J ! H ' ` ' ;.W U *.S L 2 P E V S S S C V L K 5 E *.#.#.` ` #.F K.W V 2 A U X.= *.U A A Z P I - 5 ; : < ; ; * ; i p l # < p r j n O : ; r d r T . u u :   u ; : ; r : < & ; T x I l 6 I X.I X.R t.t.| { 4 ..l x ..q.I { O.+.I { -.w.t.-.6 { @.} @.s.-.,.,.g.-.P.k.d.-.-.-.d.,.s.g.,.,.:.,.g.d.OXOX1.f.1.g.g.g.{.{.g.oXP.g.g.P..XP.F.F.F.1.}.;X;X&X:X;X&X:X&X;X*X'.pX}.F.1.F.}.1.P.P.%._ } D X.-.t.-.,.%.<.<.,.g.<.} s.D t.s.t.t.%.P.@.s.<.<.P._ 1.g.g.a.s.a.a.d.t.{ t.t.t.t.t.h.T t.x.0.e.9...0.x.",
"e.q.9...M h.w.e.9.q.q.e.h.e.z.i.i.i.h.9.e.p.e.q.8.i.x.x.x.e.9.3.v 8.8.8.e.N 9.0.t...X.| h.y.T h.x / i.p.j.+.+.O.-.<.U.;.<.<.[ %.] F.F.F.<.[ &.<.&.<.` ` ` <.&.I.$.<.;.#.F #.- } #.F } F #.s.L.U -.} %.-._ &.1.%.%.;.<.@.} } %.-.D @.-.#.,.F D D _ _ s.%.,.} D @.-.R 5 k 1 , j 5 5 5 I I I I h R ; f 6 5 6 6 6 - T l 5 l l 4 T = 5 l g 0.k g T R T L I I } X.s.6 { I | 7 X.w.5 w.I 5 4 5 5 M 4 T < 4 4 0.g ; : i ; i e e.. : O ; u > p p * ; ; ; s K 3 3 3 K p K E > 2 i L Y Y E 2 L 2 V R 2 2 3 2 L h A A 2 R L F A #.U F S #.#.&.&.&.V.V.V.Z.n.Z.Z.(.n.n.F.2.'.=XZ.).-X-X_.-XhXhX_.-XkX`.hXcX'.-XSXkXvXSXJXSXvXvXlX-X-X[._.[.SXZ.[._.kXNXBXkX_.gXlX[.kXlX`.gXlXlX'.AX_.:XlX_.[.lX-XlXlX-XlX_.[.cX-XfX-XkX-XkX-XfXkXlXkX-X-X-XlXNXkXlX-XkXlXVXkXSXNX_.cXlXfX_.zX_.kX`.`.-XkX`._.lX-X[.lX-XlXfX`.`.Z.`.sX`.n.n.n.[ `.v.v.[ ' J G ' J J G H #.Z S L 3 * 2 S *.U W H J S L P > 3 A } F ` #.H #.S *.U - - 2 I I Z *.E U A 2 A U 2 < h g l p p 1 k g k i f n r ; u b O , < , j ; T + ; 5.j O j > j b b , < O < T l L I L I X.r.X.< 7 t.I 6 4 x = 4 x | { | { I X.+.6 6 { @.^ @.} +.-._ } -.-.,.{ ,.,.,.,.g.d.-.s.a.a.+.,.P.T.T.,.,.,.,.R.1.g.<.g.g.1.F.P.1.<.F.<.P.F.F.F.}.V.'.'.'.'.:X'.'.&X*X'.&X:X:XF.%.<.<.<.<.,.a.} { X.@.t.s.s.a.-.@.-.-.1.1.s._ @.-.a.} 6X,.T.U.%.<.-.%.g.@.1.s.g.,.s.-.,.a.-.{ s.a.O.0.t.h.0.T e.0.0.9.e.0.9.",
"e... .0.^ x./ / e.w.i.w.i.q.i.i.T i.i./ e.8.3.x.x.x.8.8.8.e.e.i.x.8.8.8.w./ ..T e.X.0.7 t.z.{ >X| { u.w.z.t.-.D } L.U.;.%.&.` F.%.V._ _ &.2.<.F.1.2.%._ G V.F &.&.F ` _ F ;.G #.F 5 #.*.} D #.F ;.D } s._ D %.F.%.<.;.%._ _ } #.7 _ @.} } @.-.%.#.} l.%.<.-.} _ X.I 5 I l g g g L 4 l L T I 5 T < 4 < 1 5 I I = I 5 l l 5 % e.T , 4 . I k 5 k , T L 6 6 +.| -.D 6 I D 5 X.7 = I 5 4 = 5 , . 5 0.h 5 . k T O i O : > s x.u u j > > Y L Y ; K K 3 K 3 > ; 3 K K s E 2 K L L V K 6.Y P 2 3 P 2 P L L L L A L A Q S U S S F F F ` %.&.V.V.V.Z.=X`.[ Z.Z.(.'.-X-XZ.*X'.(.-X=XfX:XfXfX'.[.pXcXpXcXVX-XpX(.ZX-XkXfXcXcXcXhX_.[.[.lX_.lX_.BXBXfXfXlXZX_.fXZX_.lXgX_.)._.lXlX[.-XlX_.cXhXhX_.hXlX`.lX:XlX_._.SXcXkX-XNXhXkXcXhXkXkXAXkXhXSXhXhXNX_.-X-X[.-X`.hXhXhXkXfX-X_.lXlX[.'.MXkX[._.`.`.-XlX_.).[._.jX).[.v.).sX)._.H.G.V.C.H.[ J Y.! J G =.;.A D C - V U 3 P P W ! C Q V E 2 - Q y.#.` &.$.=.F =.Q P V Z U A U y.P } U V A 0.5 5 1 < < ; i i k O   ; T < ; . Y T ; : O O j ; 5.y   0.>   y ; u : . ; f : . 4 4 R I I X.x X.I R t.| O.@.w.t.O.X.X.X.| a.s.+.l.>Xk.l.a.O.D t.,.,.-.,.%.g.d.|.s.g.a.d.s.s.~.d.k.g.,.d.a.k.d.g.+.a.,.,.{.g..Xg.$X.X{.%X%X%X%X3X}.rX;X&X}.pX*XpX:X:X:X:X-XpX;X&X&X;X'.] A.F.<.<.1.s.%.,.-.-.s.-.t.-.t.-.@.<.<.g.1.<.s.@.{ a.+.-.-.+.g.,.<.s.,.*.P.s.s.,.s.s.s.+.a.k.l.@.t.X.| h.h.t.9.T w.| 9.5.x.w.M ",
"9.0.q.T M ..0.w...i.w.i.9.q.p.i.0.z.z.9.x.x.x.z.x.p.8.e.h.x.w.o.{ 0.T x 9. .w.T I O.I | t.0.t.z.T { | } l.} s.D s.L.;.P.#._ P.%.U.<.%.&.&.%.F.<._ <.] %.F.&.` %.F &._ } %.U.F } #.%.%.L.%.} D ;.U.-.#.<.%.<.<.%.%.L.%.%.} } _ %._ -.%.} %.} -.} } %.;.-.*.} D D 5 l O.5 5 = < T < x l 5 I X.5 T 7 5 < < { L 5 5 < T , < T & 0.x < 5 & 0.k f I 0.I I 5 6 s.+.+._ 6 | 6 7 r.I 6 X.5 x % 7 ..4 < t.4 ; . O 0.  # j j > # 6.n u p u ; i K K 3 E K 2 p 3 2 ; 3 s ; p * K 2 P L 3 3 P K 2 K 2 2 L L A R L A U U V W A S H G J &.V.A.&.Z.Z.Z.(.hXv.Z.fXhX'.`.(.Z.Z.*X*X=X-XfX_.cX(.-XjXSXAXhXvX_.jX-XcXfXkXkX_.fX-X_.KXNX).jXjXkXcXkXkXgXcX_.`.`.fX_.gXkX`.fXfXjXgXsXfXfXfXlXfX-X'.SXlX_.:XlX_.NXcXkX`.hX_.MXNX-X-XSX-XkXpXlXhXSX-XhX_._.-XzXSX).(._.kX_.SXkXlXlX_.`.-X-XfXlX_.-XlXlX-X-X[.`._.lXzXfXn.`.fXfXJ.J.xXxXG.H.J.G.n.m.' ' J $.J H F Z #.V C C 3 V C V V U W C - P A Q - - S =.#.$.N.m.;.W *.U A Z 5 U U X.=.U U P A R A E h < l 2 > > i R h h . I < 1 i > i ; > u i * n j . O b j ; u p i p < 1 1 Y . , ; T T T X.e.T 0.O.0.h.z.T.T.T.7Xh.t.>X7XoXP.+.{ -.{ O.O.l.l.k.-.s.,XP.P.k.s.GXk.7XQ.9X>X>Xk.Q.j.k.j.k.f.W.j.k.f. X@X X$Xg.{.{.R.&X{.{.&X{.'.&X&X&XD.;X*X*X*X;XhX;X*X:X;X;X;X:X;XF.1.P.<.g.%.<.g.%.-.s.} s.s.-.<.-.s.-.<.,.%.g.s.s.,.-.%.@.P.,.@.1.g.U.k.-.s.-.,.%.U.a.s.h.t.l.O.l.+.w.a.o.t.t.X.l.T e.h.h.I 0.l.w.T ",
"T O.x x 0...0.h.e.t.e.h.q.q.e.i.i.z.z.e.T e.x.z.x.p.p.8.9.o...0.w.O.{ q.h.^ | ..| X.@.*.t.| r.y.l O.L 6 X.} -.F -.%.%.;.%.G <.#._ ;.;.<.A.1.&.%.` <.[ _ %.;._ _ } _ F F F #.= F U Z A D #.-._ 7 U - 7 ;.#.D #.%.G %.;._ F } D } 7 #.%.%.} D _ } 7 _ -.-.} -.-.s.{ I 5 g 5 5 % 5 < L k h T ..5 I A 6 7 - 6 5 l x < ..4 f M & x < < , l T I . = x I I - 7 X.} D D D } 7 I +.X.5 x , 0.I 6 0.g . ..l . 9., 9.Y ; y O @ Y e.; u # ; * > ; 3 > K K ; * * * * 3 K 2 K 3 K 2 P V - 2 V E L Y K L L L 2 h P L A A S $.S G G ' ` ] J &.n.n.n.fX'.-X'.).(.[ ] =X-X-XD.hXvXhX).'.-X_.-XkX_._.-XfXcX'.(.cX(.lXjX'.AXZXjXjXcXkXhXcXlX`.-XkXAXfXsXNXBXbXkXkX_.fXfXzXfXsXfXkXkXfXfXMX-XMXlX`.lXkX`.MXlXNX-X-XkXSXSXlX:X-XlX:XlXkXlX_._.[.'.cXcXMX'.cX`.NXcXNXcX-XAXzX-X-XfXkXkX[.SXkXlXkXlXlX-XhXzXkXkXZ.`.`.`.lX).`.sXH.G.H.).G.b.n.B.C.S.A.$.N.F H W F ! S W Q C C - S S S C A S Q W P C C ~ m.#.J $.=.$.G F U D - Z D Z } *.D I - - L h I 1 * h i p p 2 Y i 1 < T < i l p s s s ; u : p j : . u p #   ; * > 1 = . 1 ; L ; i O ; r R T 1 1   < T q.w.| +.| X.-.*.& D g.X._ -.@.| a.O.d.+.a.a.+.a.d.a.>Xa.T.d.+.l.Q.Q.Q.>X<X>X7X~.,XXX4XoX@X Xg.$XE.{.{.{.{./.{.{./.'.'.{.&X*X;X-X'.'.'.;XD.*X;X*X;X;X+X%X{.1.P.P.<.%.-.%.,.;.s.%.,.s.s.s.s.<.<.<.%.,.|.L.s.@.} +.@.@.} -.1.,.X.-.a.-.a.U.,.t.t.a.t.t.t.t.t.t.X.0.| 0.h.w.h...t.h.| w.z.h.x t.",
"T | g x w.w.0.h.w. ...w.q.9.q.q.w.w. .e.w.e.3.i.z.x.8.4. .q. .w.+.X.I w.h.x ..| O.X.} @.} { l.z.I O.= X.y.-.} L.U.-.<.<.U.%.<.%.#.<.P.%.<.%.` <.%.%.` G F %._ _ #.#.} *.-.L.#.;.} _ -.;.#.U } ;.U.} U A.%.G #.<.%.<.}.;.} <.} } D ,.-.<.<._ _ ;.#.,.s.#.Z D D } I I 4 L < 4 , 5 = x 5 5 x L 5 X.I 5 5 = - 7 l I < T 4 l l f l g x = , < z.Y g 5 < X.I D D -.D { I } I X.x 6 k { 6 T 4 . T x & t., & 9., l r : : ; # m 6.# Y i i b Y s K K 6.K K K K K p p 2 3 K L P K E A - 3 2 L K K E L L A 2 A A A P W S W #.H H M.M.I.dX(.n._.vXfX`.kX:X`.n.-X).-X*X=X'.(.-X(.-X-XcXfX_.:XlX[.fXkXkXfXkXJX=X'.cXMXhXkX-XhX-XjXfXCXNXZXSXkX`.fXgXNXlXbXNXfX`.fXNXlXkXfXgXkX_.zX_.kX_.lXcXfXkX-XlX-XlXfX-X-XAX:XlXhXcX:XSXlXlXSXlXkXhXSXSXAXSXfX:XNXSXfXAX-X-XzX-X_.NXAX-X).-X_.kX`.[.-X[._.`.fX]._.`.`.n.`._.gX_.].sXY.dXY.G.G.C.n.v.v.M.v.' H S ~ H H W S Q W S P C A P U S S Z - C S C 3 S $.H Z J $.#.C Z S - * A S Z *.*.U W - 2 V L L 1 > h p L p p h = 2 2 I < 1 p h u @ > ; @ r < l j y O s u # Y > i L L p T , k * > < , f n k < 0...& = l x 4 6 7 I 6 } { -.,.-.a.g.k.} +.-.s.+.@.g.+.d.,.a.g.-.g.g.f.g.g.OXXXXXQ.OXd.,.g.g.{.g.{.P.P.&X1.&X&X%X:X&X&X&X'.:X:X&X:X=X;X=X'.Z.D.*XF.'.*X'.&X}.'.F.F.1.1.<._ ,.%.@.s.<.,.<.} -.1.,.P.s.-.<.1.<.s.,.s.,.,.-.-._ ,.P.s.s.l.s.s.%.<.P.,.s.l.l.t.t.T t.X.+.w.X.q.t.h.t.a.| X.w.0.0.e.t.h.e.",
"t.t.T T T X.T I T 9.9.w.q. .q.i.u.w.| z.^.z.N e.UXp.8.8. .9.x I { R { T o.M ..| { -.X.-.| } s.X.7 y.6 X.-.l.-.g.;._ %.` <.%.%.` <.<.L.` <.%.` F.` %.1.%.#.<.&.%.#.-.;.#.F } } F F 7 D #.D - - } *.F F %.%._ %.` %.%.s.%.F -.} Z F %._ %._ D D <._ } } U D } } } 5 R I l < < k = k T h 4 h h L w.} I I 5 < < k I . 4 < < < 4 < 4 x , h . l., 5 h = X.{ U +.l.D @.+.{ } { R I O.l L 5 < < T 4   X., < k < r . : s u ;   5.i # s ; , T ; 3 3 K 3 K p p p s 3 ; ; 3 L V L W V 2 V p p 2 Y K V L L L A A V P =.S F H [ m.N.[ M.(.*XC.n.Z.n.n.v.`.hXhX(.-X-X=X*X).=XdXhX-X-X-XhX`.kXcX'.kX(.'.Z.kX=XJX).n.-XAXKXcXcXlXNXgXcX-XkXlXNXjXZ.[.fX_._.gXfXZXkXbXjXkXNXlXzX).cXkX_.SX-XAX[._.-XfXkXkXcX-XSXlXgXlXcXlX[.SXlXkXlXpXMX-XlXSXMXlXjXhX`.hXfXSXcXlX_._.sXkXkXlXlXkX[.MX-X:X_.`.`._.[._._.`.[.`._.MX[.n.].dX].Y.J.C.J b.[ [ G J G S C S H G P #.S W V C U V V S P U P Z - A W Q S H H $.H H &.N.H F U A A } #.A ;.} D *.2 U 5 L h * 2 < * ; > > > . l L T 5 p u Y p ; > u > l   < j i   : > . n * * . > Y R < > . i ; . ; I T x n . ..T T | I X.@.+.@.{ -.+.D *.6Xa.l.,.+.a.+.s.,.1.P.P.P..X+XOXoX+XeXoXf.6XoXP.g.oX.X#X$X+X%X&X+X%X;X:X}.&X}.&X}.'.'.'.&X;X'.2.'.*X;X*X'.F.D.'.D.F.2.V.;X;X'.1.2.1.F.P.%.1.F.s..Xs.%.s.%.<.<.%.<.g.1.-.1.s.P.s.g.@._ +.,.@.@._ @.g.oXs.,.@.-.,.@.,.g.l.+.t.6 k.X.t.t.w.t.w.t.t.0.O.{ 0.h.O.X.0.T.O.",
"T 5 T R l ..X.e.T 0.i.w./ x q.i.h.i.j.z.w.i.e./ 8.8.i.x.8.8.x I X.X.{ x M ^  .{ { { D } U | k.l.{ X.7 -.s.X.} U.%.-.;.%.%.;.%.&.<.#.&.%.&.%.%.<._ _ &.} _ ;._ F Z F #.} G - } #.} Z S } Z D D } } Z F #.<.;.<.%.%.<.<.<.F @.%.F } <.%.%.} } } L.*.} -.} } #.F 5 6 X.I h < 5 T < L T l , 5 - 4 U } X.| D 2 6 L k , 4 M g I M 4 f , f 5 ; X.= 5 x 5 x A } l.s.7 } I D U x I I X.. 4 < l L 5 = , t.f f k . j u . p @ j u 6.6.# j u u T * p K K p 6.; p p p p 2 2 E K V V E 2 A K P K p 6.E 2 K K E V W S Z =.H J H ` ' M.v.G.b.G.(.jX_.:X`.-X).n.'.).-X-X_.hX(.=X-XhXhXkXcX-XhXAX(._.cXcXhXVX_.(.fX`.LXcXjX_.kXkXZXNXcXfXNXhXNX[.fXbXlXlXzXlXgXsXCX]._.fX_.kX_.lXgXlXfX_._.lX`.`.SXfXkXhXhX-XbX).VXlXSXSX-XMXbX_.hX-XZXlXlXlX[.SX-XcXSXNXhXkX-XAXZXfXNXVXfX_.lXkXsX[._.fXgX`._.lXcX_.fXSXAX`.fX_.2._.`.`.n.n.G.sXC.b.n.b.n.S.Y.m.&.C H H ~ W =.~ W W V S G P P S S C Z S Q W W S =.! $.[ H $.&.G W S Z - U F - } G C U - L A E 5 * h 1 > i p l Y i 4 2 T g h = p u p > > ; L . l n r ; 5.K O s * p = < L Y L Y , , g > 5 g % 5 f x T 4 4 k 7 I I { I } @.,.s.s.s.@.:.-.,.k.-.|.,.{.1.{.P..X}.P.1.1.<.F..X%X{..X{.+X{.1.1.'.&X&X}.}.'.&X&X&X(.&X*X:X:X;X&X(.'.'.*X;XF.F.D.F.}.D.V.F.}.F.}.F.2.1.1.'.1.,.1.%.%.g.<.<._ F.s.<.P.<.<.1.1.1.s.1.g.-.g.-.-.d.-.,.,.%.,.P.,.s.-.@.%.f.@.-.s.s.+.t.{ T.| +.| X.e.t.w.w.0.t.X.h.0.t.t.w.0.0.",
"l.h L r.5 Y I T 0...R x T q.q.w.o.q.a.w.w.w.i.q.8.8.x.p.8.q...O.O.X.{ 6 ..{ O.O.-.{ } s.-.} X.| } X.I D X.%.-.A.#.%.%.&.<.A.%._ <._ %.<.%.%.&.;.` ` <.#.#.<.*.} %.L.-.#.F F ;.} } Z D -.Z - Z %.#.D F } &._ <.&.%.;.%.;.G D } _ F %.<.-._ _ } s.} _ } } X.} A 6 6 I 6 I = 4 L ..5 R | I T x I | X.X.U 6 7 L x 5 < 4 l < k x : < g < & , T T l 5 7 X.w.} y.-.} } 7 I 6 7 = k x < 4 g 0.e.M 4 f < < l r . Y j @ #   @ p s 5.; s : , j . > Y p K E * 2 > i > * 2 p P K V L 2 A 2 P E K E K K L V U A U U C H S $.M.V.C.b.G.dX(.(.dXfXZ.`.`.`.hXhXfX-X-X-X'.nX*XvXvX-XSX-XNX(.kXcXNXNX)._.cXhXcXjXcX:XAXhX`.2.lXSXZXkXbXkXZXkXkXfXNXzXBXNXkXZXbXkXMXfXgXkXgXfXlXfXlX-XlXkX[.kXKXkXfXfXfXcXfX_.fXkXkXhXhXMXhXVXlXhXcXlXSXvXSXSX-XkX-XlXfXcXkXvX_.`.fX-XfXcXkXgXkXjXfXhX`.[.[.fXkXSXlXfXfX[._.n.[.MX`.].`.lXlXjXsXY.J.n.b.M.C.S.S.J J S H S F W W F Q ~ V C 3 C C 3 C - S S S V C G N.&.` G ` H H Z U D 7 A F #.F =.*.U U - - L X.l * 1 > > , > > 2 > * * I 5 h ; > u s s * ; l O T Y # # b ; ; > * p p 2 2 ; > i ; . <   : < < 0.5 < T x x X.{ +.+.t.} @.{ D { { } ,.,._ ,.g.,.1.,.{.P.{.+X:X+X{.{.P.1.F.}.+X'.{.F.}.P.}.}.%X;X:X;X:X;X-X'.-X;X-X'.'.(.'.F.D.'.(.'.V.D.F.}.'.}.F.F.2.2.F.F.D.}.'.V.1.F.%.}.1.%.{.1.P.,.1.<.1.F.P.%.1.1.s.P.s.<.%.s.,.,.,._ %.s.,.P.s.-.s.@.,.g.{.%.s.l.a.+.0...k.| O.O.t.t.0.0.t.w.t.w.l...l.O.t.| a.",
"y.6.V y.L I r.T 0.I X.x w.i.e.w.o.>.| +.z.h.e.p.i.8.p.8.N | T I X.{ R 6 ....| o.,.{ } } @.-.-.t.t.6 D { *._ %.-.<.%.<.<.P.F.&._ &.F.%.&.` %.%.&.%.%.;.} } %.#._ W s.W F F s.L.D #.- F } F - A F %.F _ %.P.` %.%.&.;.<.%.G _ _ %.%.` ;.%.` %.*.<.} } } } } I 5 D 5 x I L 5 4 l r.. 5 h 5 6 = I } { *.D 5 D T 6 , 5 h 4 , k T l l M ; l M < I & 5 5 t.y.-.-.} } @.| X.7 4 6 R T 5 5 g , k j 5 T l , l , : Y d r O Y s 6.u > u b O l j . p 6.2 s L 3 p 2 i L i Y E R P V V V L 2 L K 3 Y K K E A P S S W S ! H m.S.Y.Y.b.C.n.).H._.n.)._.-X'.-X-XhX-X-XkXsXnXZ.-X-X-XvX(.cXkXkX-XlXcX(.cXcXhX-XvXVXfXzXSXhXcXNX).`.bXfX_.fXkXkXzXNX_.NXMXfXkX_.fXfXlXbXkXkXfXzX_.fXSX`.SXMXhX`._.zX_.NXkXNXNXNXkXjXkX:XSXkXlXhXSXVXSXcXcXSXjXhXkXZXhX-XlXhXSXcXlXSXfXkXVXkXsX_.fXkX[._.hX:X[.(.[._.`.-X_.`.[.J.`.`.`.).fXn.n.J.n.J J b.v.b.m.' J C J ! S W H S S W P U P C P S Z P W F S Z S H H N.N.$.J ' $.$.F #.U Z D Z U U U #.#.P A - U R L 1 h p g p i p i < < * R k E p p i b K ; < , . T i . ; s . Y p ; ; 2 i L > i > p i ; ; T l , T k 5 5 & g I l } I { @.@.{ D 6 } I D @.6 @._ Z @.@.%._ %.{.}.}.}.}.+X%X}.}.}.+X{.'.}.}.&X&X;X'.'.D.}.;X'.Z.'.;X-X'.'.Z.F.'.}.F.2.F.F.'.F.*X}.}.D.F.F.F.F.V.F.}.}.F.'.'.@.'.1.2.P.<.+XF.1.%.%.1.P.1.1.P.P.<.<.g.<.1.-.} ,.,.s.,.@.k.k.s.l.@.%.,.,.@.k.k.+.X.{ w.t.w.t.0.l.t.w.0.l.t.w.t.t.X.w.T l.t.h.",
"7.T.R y.A V y.R I I t.0.0.I { w.h.a.:.w.w.t.z.{ N B p.8.z | x I X.} | x ..0...I -.{ #.{ X.L.s.+.t.} -.-.%.} -.D %.$.&.%.%.G %.%.F F.%.` F %.#.;.%.<.;.#.#.} #.#.F L.#._ F } #.Z _ Z s.F } D %._ ;.#._ ` <.` %.%.%.` %._ _ <.%.;.P._ %._ } %.<.<.} F } } #.} F X.A L X.= L l h l = x I 5 5 , -.t.} X.D D | *.h - , k < l k 9.f 4 I . X.T . X.< X.I I I -.a.D 7 D I | I < x 4 l f < l < I M < g , g   f ; O w   b b O 5.s . w E u r r > p E * p L p j ; < p > p p R K 3 2 A P 3 P Y 3 E L L Q A L V H #.J H M.M.v.C.n.sXb.sXG.H.J.fX'.hX).fXhX-X`.vX-X`.).:X(.hXhXVXlXcX-XVX-XcX-XfXVXcXfXJXn.NXVXcXkX`.SXcXcXAXlXAXAXcXNXlX-X`.`.fX`.J.bXxXlXBXlXzXxXNXfXNXfXlXMXlXlXfXkXlXAX[.hXVXfXkXkXkXhXsXbX_.lXkXhXcXAXAX-XSXkX`.-XkXcXVXNXkXAX-XSXkXjXlXcXkX`._.fXgX_.`.kX-XkXlXcXcXkXcXlX`.lX_.[.fX].lX[._._._.-X).H.J.n.J.H.G.M.S.M.[ H F N.=.! S S ~ U C S P C S P S S Z C C C S H S ` ' ' ` ` $.A.$.F F A F A #.#.U } U Z D = L I L L I i , > p 6.Y < 2 * R 2 h L s 2 ; 2 > 1 1 * 6.T . n Y u e.K > ; > h R > > * > r . > k > r k T , X.f x | I O.{ D 7 { @.{ _ { _ { _ = { } _ ,._ -._ _ F.{.F.<.V.2.<.'.+XI.'.}.%X:X;X;X&X*X}.;X'.*X=X;X'.;X-X:X&X;XcX&XV.'.}.D.D.F.<.<.P.1.P.F.F.F.<.F.F.F.*X}.D.;X{._ '.1.<.1.1.+X1.P.1.1.P.{.F.1.P..Xs.<.P.-.,.;.g.%.g.s.<.%.@.} k.qXs.@.,.,.d.s.l.O.t.{ t...w.X...h.0.X.0.h.t.0.t.t.w.X.l.k.X.s.",
"K.A P *.Q E Q Q y.R X.X.R O.5 x | @.a.k.t.k.T.q.w.t.q.i.9.t.X.X.X.s.-.x ..9.x | X.-.} @.<.a.@.} @.} s.-.-.;.<.&.P.I.<.A.#.` %.` %.A.` <.;.&.L._ #.%.#.D } G - %.} L.#.} #.` Z -.Z #.*.#.} F } F -.#.` _ <.&.A.<.F.<.<.<.Z <.A.%.,._ I.<.;.#.L.-.#.D *.-.- D U 6 D R 6 = I 5 , Y 1 L l 7 5 = A X.} } 7 D t.y.5 4 1 l l , k k < 5 , , g l & T X.= I 6 I } y.D D - I X.7 7 h 6 g & < f i 6.I = g k T . % o u # u ; u O O ; Y s O M e % . : * Y Y p > p 1 > l > 3 K L L 3 P 3 R A K E K K 7.V P 3 W G G J $.H J b.B.J.n.H.J.n.H.sXJ.`.`._.-X_.hX-XfXvX-XkX-XCXvXVX-XVX-XcX-XhXAXkXcXfXNXcXVXcX(.bXvXKX-XAXSXZXNXcXAXfX-XfXfXfXMXAXBXgXBXZXNXkXBXbXgXxX_.MX_.zXJ.lXgX[.MXfXlXfXlXzXkX_.].[.kXbXgXkXkXfXMXAXhXfX-XVXSXNXhXAXhXNXjXNXhXcXlXkXcXcX-X[.fXkXNXkXZXzXsXfXjXMXkX[.SXlXlXn.:XlX`.kX`.`.lXgX`.fX`.).Z.`.J.b.[ v.J.B.[ B.v.J G C S S H S ~ C W W ~ C C P P P S C F W =.F ! $.#.S.N.V.G ` H C Z D A - Z D F A F F - A 7 2 R 5 l k Y p j ; > > Y < * I 1 2 T Y p . p 3 p L p R T . Y s u s O * i Y * r.; p . E u u * r > ; < T k I T 6 I w.7 D @.7 D @.7 D } D { 6 } -.-.@.} %.s.%._ %.1..X&.2.%.[ {.;X}.aX}.&X;X;X%X:X;X'.&X;X'.*X*X;X'.}.*X;X*X}.}.{.] <.D.{.F.F.1.I.P.}.1.F.{.%.F.F.}.}.F.F.F.'.1.F.F.{.{.1.}.1.%.%X<.}.+XF.F.P.P.3XP.P.+Xg.OXP.s.-.d.<.P.s.+.+.s.X.@.-.d.+.a.l.t.h.0.h.w.t.0.T t.r.X.h.l.r.{ t.l.h.+.T.a.l.l.",
"K.y.P Q *.V y.P P X.r.I I t.X.X.6 @.a.t.I X.a.+.z.z.h.k.t.l.w.X.X.t.| x ..| I X.X.-.} -.y.s.} } -.X.-.-.s.%._ #.&.L.<.A.&.A.<.%.A.F._ &.<.;.A.%.#.$.} G #.-.%.<.$.L.#.G ` } #.L.F %._ _ #.D #.} %.` ` _ &.F <.%.<.` [ %.G 1.P.L.&._ <.%.A._ -.#.} D } *.D A D - 5 { L 5 I l , X.= I I 7 D 7 D +._ } D { t.t.l 5 l 4 , . x g f M j < r , = T x = D I } X.s.} D Z I X.4 4 6 l T 5 j g . L T j j < j < Y O n j 5.# s s s u w u ; : n n ; > O K p > p K h 1 Y 2 i K E E 2 L V P K L K K V 7.V K S Q G G ! J J C.C.H.C.n.`.).J.).sXsX(.).-X-X'.fXjXhX-XfXcX-XNX'.VXjXcXhXSXcXSXfX-XZXkXcXkX-XfXfXhXKXkXfXVXlXSXKXfXZXlXJXlXfXVXlXjX_.ZXNX`.].[.zXBXzXzXzXgXzXkXMXMXlXAXfXkXlX[.zXgXsXCXBXjXjXkXfXCXNXcXkXbXNXcXlXfXlXVXfXcXkXKXcXkXVXkXlX-XkXZXfXAXkXNXjXgXkXzXbX_.sXcXcX`.-X`.cXkXlXlXgXfXfX_.Z.J.[.n.'.].H._.C.J.n.G.G.v.b.' G C H ~ H ~ S G S S H W W F C W C C S F W =.$.#.#.$.&.I.N.] [ &.;.H F U F S U #.*.S F *.A A - 5 L < < < < ; ; > j 1 > 1 7 X.5 2 i L L K K i 3 h * h < ; p p ; i * > 2 * . ; 3 i . Y > ; O j , < i T l x T I I R 5 6 x 6 D @.D | { D { D } +.{ D { @.@.@.@._ ;.P.<.<.` _ F.&X;XpXrXrXrX;X}.'.}.&X*X}.*X&X&X;X*X;X&X*X;X;X;X;XF.F.<.F.F.F.1.F.{.}.<.2.%.1.'.F.D.F.'.F.` 1.2.1.1.F.{.1.P.%.1.1.<.P.'.F.1.P.<.<.<.<.s.%.%._ ,.P.k.-.+.@.-.-.,.t.+.@.s.s.T.w.O.t.| x.h.i.t.| t.w.t.t.t.l.l.l.s.y.t.X.T.k.l.",
"y.r.V P y.P HXK.U *.*.U X.} I -.X.+.-.+.I I } | X.w.| 0...X.I I X.} I g ..| x ..I X.{ -.<.,.} { *.-.-.-.#.#.#.L.` <.` ' $.A.&.[ A.&.` ` ;.#.&.;.%.;.%._ %.%.F Z _ ;.%.F #.#.%.;.F <.%.;.;.D %.%.#.&.<.&.P.%.P.A.P._ ] 1.;.%._ %.&.&.&.%.P.;.%._ } F } } I I I 5 D I A L L l = 0.& l L = 7 - D -.D } 6 D -.X.5 5 I , g , T r , n j < 4 4 i X.5 = = } U D -.I Z 7 I { l I k l T < 5 T * g T < 1 O y u n   y r 5.# @ ; u b . > y ; f M u u 3 5.K K > > i > i > i 2 p L L 3 A 2 V L K K V Q W P Q $.~ H M.J ' Y.G.n.G.J.J.].].`.`._.`.'._.hX[.gXhX-X-X_.lX-XcX_.cX-XcXjXvX_.NXfXkXcX_.-XNXhXJXZX-XfXZ.lXkXSXcX`.kXlXlXkXZXAXlXfXKXMXgXzX[.BX[.`.].lXMXMXlXNXlX_.fXfXkXlXlXlXgXzXCXzX_.NXfXgXZXgXNX_.kX-XNX_.cXNXAXfXlXSXZXcXNXcXfXAXkXlXNXfX`.gXlXMXlXCXjX).kXZX).gX-XlXMX`.n.MXlXhX`.fXfX[.lXn.[.lXlX`.`.'.sXn.v.n.G.G.n.C.' G C $.F H ~ G S J F ! S S C C C C S W U H $.S H S G J M.' Z G G &.F F D A - A U F - - Q - 7 * A 5 = * ; i n p p r h p = 2 I 2 3 i ; p i p 3 2 h 2 T h . ; 5.p Y p ; * L i * p K * p > > * j i < j T I l I I T I I D } @.| X.D } I { _ D } | D } { ,.@.@.-.-.<.U.P.g.<._ 1.&X+X+X:X;X;X:X%X;X+X:X;X;X;X*X;X;X&X:X;X}.}.}.}.P.%.%.}.s.%.%.1.1.1.1.1.1.F.}.}.}.+X}.'.}.<.&XF.{.'.1.F.` 1.,.1.,.P..X1.%.1.<.%.%.1.1.%.%.<.<.P.P.P.-.+.-.s.a.t.l.t.@.d.l.>Xl.O.9...l.r.w.w.X.t.T.a.h.l.T.k.T.a.X.t.@.6Xl.X.",
"y.Q =.W K.W Q U =.*.P *.s.A A X.6 D L L U X.I R { R I X.X.O.| } -.I 6 6 M x g T 6 } } ;.y.-.*.%.} ;.;.} #.%.;.I.;.A.;.&.<.S.<.&.%.` ` %.A.` _ ;.;.%.;.<.;._ _ ` ` ;.&.<.&.;.%.H F #.#.#.#.Z ` _ ` &.U.&.F.M.D.%.%.Z _ ` <.F.;.F.` P.A.&.L.s._ F D } I } D U U D X.6 6 5 l 5 = 0.h I I 5 A { } s.} _ D } t.*.I 5 5 1 k g n : < n f < k k k X.= 7 5 t.*.I l.*.U I I I { I l 5 x . , e.1 k T < h 1 n : ; # u # s ; u 8 @ 6.p b Y j o f : > s K s Y s 3 p 2 2 3 K p 2 K L - L 2 2 P K V V E E C F ! G [ v.J [ H.J.b.).H.J.G.]._.).sX[._._.-X:XlX-X-XjXhXZXSXhXkXhXnX-XVXhXNX-XAXZXcXAXNXcXkXLX-XhXhXAXSXkX_.ZXlXhXZXNXNXMXfXcXlX_.kXlXlXlXZXCXBXBXNX[.kXzX].zXkXZXlX].NXlXkXNXlXfXgX`.lX_.bXNXNXNXjXAXSXNXVXkX(.VXNXlXSXNX-XfXSXfXjXfXNXkXAXsXlXkX_.kX].ZXBXlXfXJ.BXZX'._.MXZX[.n.lX_.`.jX`.`._.fX`.[ `.fXfXhXH.J.b.J.J.S.v.J ' J m.H ! W W S C C H H S C S W S F ~ N.=.=.H =.m.H m.I.M.A.I.;.N.S Z =.U Z A U W F D D - Z * L h , , < , T r > . > h * 2 L 2 1 p 3 * 2 2 p 2 L 5 R h i ; T j s R > * L * p p Y s ; Y p . , r . * g T L , 6 L 7 6 = 7 D D 6 7 { { I @.7 { I D +.D -.I { } @.} ,.<.1.%.%.1.&XaX{.}.aX:X&X;X:X'.*X}.F.F.F.'.D.F.}.}.F.I.;X<.A.I.P.<.&.{.1.{.F.%.<.2.1.}.F.1.<.F.<.2.F.2.1.%.1.1.%.1.%.1.%.F.8X%.1.+X1.%.%.%.%.g.1.%.<.|.P.s.@.%.@.%.@.s.t.w.T.k.-.l.-.k.O.| 0.X.h.t.r.h.| X.s.t.t.s.s.I X.+.s.-.l.l.L.l.",
"K.Q K.! =.=.! =.=.y.W U y.U W U Z A E U Q U I *.R I I X.| U A I t.} I k T x l T I X.*.y.t.-.-.,.-.y.;.#.L.;.A.&.` M.A.A.&.&.' &.' %.&.$.L.&.` $.<.#.;.<.%._ _ <.` <.#.A._ ;.%._ <.&.#._ %.%.;.F.<.<.F.&.<.&.%.G _ _ F.&.F.F.#._ ` P.%.<.<.&.Z _ F -.R X.5 X.D 5 *.I D 5 I 5 = R 5 5 5 D I } D } @.} D } -.X.D , < 1 , f < , : M j , k k k ..* 5 - O.} D -.} A A | x I 6 = g T = . X.* * L < 1 * j u ; n b @ 8 u u s @ 5.Y n s ; ; n s > p K ; p > > K s p ; K K p Y P K L 2 3 L P V P U W S S H H [ [ [ b.B.].H.].sXsXH.H.H.`.)._.hXkX-X-X-X_.hX_.'.-X-X_.lXkXAX-XjXlXcXcXhXSXlXlXcXSXkXNX).nXcXVXjX_.'.NXAXzXKXkXkXNXNXkXZXBXBXzXfXMXzXlXgXkXMXkXkXfXzXlXfXgX[.kXlXgXkXNXAX_.NXKXlXBXBXlXjXZXsXZX`.AXkXLXNXfXkXZXcXhXMXkXZXNXJX-XlXAXAXMX_.kXlXhXbX).gXbXzXsXH.MXZX`.kX:XlX-XfXkXAXn.fX_._.lXn._.fXdXG.J.J.n.v.J.[ n.J G J Z H C C F ! G H H =.J C C H =.H W S F S S S G H Z $.m.G [ G Z #.G #.*.U C C U W U F A A D - I 5 1 1 j , j > j ; p l . h I 1 3 p p ; K 2 K 2 5 3 L 1 p . Y   . p i > * 3 p ; > ; ; Y Y . p j ; < 5 T X.5 I I 6 U 7 { { } D D { 6 6 D D D D D +.D +.{ @._ @.@.>._ %.2.%.1.}.:X}.;X%X;X&X:XrX}.&X'.I.'.F.{.'.1.}.;X}.}.}.I.}.I.F.P.P.F.%.1.1.1.{.1.<.P.1.{.F.F.<.F.I.&.1.%.<.1.%.<.%.g.P.<..X%.P.OX1.1.,.1.%.P.1.1.<.1.@.<.-.-.-.-.-.k.t.X.a.-.} g.,.k.X.O.l.l.l.+.+.k.>X+.+.s.s.t.s.+.T.P.T.,.k.} t.w.",
"W =.y.=.Q K.=.S W K.=.W =.#.*.#.*.R r.*.U E A U *.X.| *.X.R I R -.I 5 x ..T l ..I +.X.-.-.} } -.<.#._ #.&._ #.` &.$.M.N.M.N.%.$.&.%.&.` A.;.%.} %.$.;.%.%.` [ %.&.A.` A.G &.%.` ` #.<.%.;.;.%.<.A.&.%.&.V.<.&.%.&.%.&.%.&.%.%.] &.F.` F.<._ D ;.<.s.F U A r.U 5 X.I D 5 R 2 , l I 5 L I } +._ } D _ D _ } 7 5 5 4 5 , 1 O k < e T f , g l I = 7 7 R U I *.X.F 7 { D x I 7 I ..< 1 0.g , L h i < : i # n s u u s ; b ; s b Y u O u 4.p u p s ; K > s Y p 3 3 > 3 p K L p A C V S P C K S W G C J J [ G v.J.J.sXH.H.].].H.G.sXjXfXhXhXhX_.cXSXlX-XAXNXhXcXSXkXSXcXkXSXhXkXVXNXfXNXhXNXAXNXjXNXJXKXlXSXSXAXkXMXlXkXcXAXgXlXlXZXBX].zX_.NXMXNXkXlXNXfXzXxXbXgXBXMXfXzXlXlXlX`.zXgXlXlXfXzXfXJXzXjXkXkXcXfXfX_.kXjXcXkXfXkXAXhXNXkXNX`._.MXfX[.lXBXZXzXkX_.CXgXsXKXlXn.[._.SX[._._.`._.fX_.`._._.`.`._.J.J.H.H.C.b.n.=Xb.C.b.m.' G ! =.J W H ~ W ~ ` W G S H W S W W H H W =.S G C m.A.' V.' ` ;.- A } P A V U U D P A 5 A 2 L , 1 , 1 . ; # p # > < = l A 2 = L K * 2 2 K K = 2 I T > * r.; p p Y L * Y > K . ; u K ; . p p . r : , l , h 7 5 I 5 I 7 { 6 { } } @.+.{ { { { @.6 @.{ { { @.{ _ _ _ @._ %.<.+X}.&X&X'.'.'.'.'.D.D.F.'.'.'.2.F.F.'.F.F.}.%.F.P.+XF.P.A.%.2.1.%.1._ 1.%XF.1.1.1.F.F.P.%.2.%.<.g.1.1.<.P.,.<.;.1.P.+XP.%.1.%.<.P.1.F.<.%.` <.g.P.%.@.*.s.-.X.*.@.@.s.-.s.U.a.s.a.a.t.-.s.U.} -.+.t.<.T.s.OXt.w.l.U.a.T.-.",
"=.y.=.! ~ K.U.=.=.K.! =.=.=.=.Q Q U Q P P Q P Q R X.X.} R I U I X.L g k T M x T { r.} *.*.} I #.<.=.} A.#.$.N.N.I.$.m.&.' A.' ` &.` ' _ ;.%.;.$.%.&.<.<.<.F.%.` <.A.<.A.%.&.;.&.F &.I.P.I.;.&.A.` ` ` %.&.P.&.<.A.%.%.F.F._ _ [ <.&.` <.A.G } ;.s.-.7 A A X.I 5 x U 5 L I < h h h , L I 7 U 6 } _ } _ *.X.5 I x k h 5 j , b : . T r < 4 4 l - 7 D D U } } W U - I I x { 4 X.I < 5 0.I > 5 1 3 , . b O u O @ s u u s b s p 5.p r + s ; ; s 3 s K 2 K K i p 3 2 K i 3 2 2 V 2 V P L P P W W H G J m.] b.Y.dXdXgXH.dX].].sXsXjXcX-X-XfXcX-X_.fXMXSX(.hX-XjXSX-XNXcXhXSXVX-XkXhX_.SXSX-XfXSXSXbX_.cX-XkXAXMXlXKX].ZXfXZXAXMXfXMXMXNXZXlXBXBXzXgXlXMXzX_.[.lXMXkXgXgX_.kXBXBXlXAXZXMXBXgXfXCXfXzXlX[.fXfXhXfXAXVXNXNXNXjXkXNXkXCXkXfXMXZXlXSXlXNXkX_.kX_.xX).J.NXkXbXMX_.[.lXkXlXlXcXkX-XfX`.MXlX`.Z.(._.cXsX`.).b.J.H.v.v.v.M.b.J S ! S H ~ G $.J H ! H ` $.! S H C S S H #.S C Z ' &.&.#.` W =.Z A P A V A U U S A A 2 - 2 p 1 1 ; > , k r p > p p A h 2 L 2 Y L * K 2 P 2 3 2 L L . . Y w p s > > ; K 2 Y 3 > p p p u T Y < T g l h l I 5 I 6 7 I 7 } D I 6 D I { _ D _ D { 6 ) ) ^ @.>._ @.@.@.>._ 2.F.&X&X&X;X'.'.'.'.-X*X;X*X;X:X&X&X:X}.*X}.F.V.<.;XD.F.P.;X}.{.F./.%.[ _ 1.&XP.F.F.{.}.<.A.P.P.{.F.L.&.@.%.1.s.%.<.+XU.s.1.<.<.%.F..X1.1.,.&.,.<.<.-.} @.@.-.} +.s.P.s.g.} %.OX-.-.t.t.s.g.g.s.-.P.s.P.T.6Xs.P.t.s.s.l.-.s.*.",
"K.W =.H C =.m.! =.=.W W W L.=.S Q P y.Q P W P Q S } } E I I U D | 5 6 x I T l x X.r.I *.-.%.} } #.-.F L.F A.A.$.M.$.A.A.` N.M.` ` #.$.#.&.` A.L.<.<.;.` %.%.[ _ %.` &.%.] G %.` ;.<.&.` %.&.<.%.G %.2.&.` }.&.` <.V.&.&.%.%.2._ &.' %.$.<.Z %.Z ;.D U D } I I - 7 } 7 I 5 < I I 1 5 X.} 6 } D _ _ } D } +.Z U I I g g < < : < < j r , k g 5 5 5 R A I -.X.} } 7 } | 6 U = | 5 * 5 T L < 5 L 1 g # Y s u @ @ s u @ ; s u O u O > u y s > p s > p ; p p ; K p 2 K Y p L K L V U U V W S S S H G G J ] C.H.H.Y.G.J.dXJ.).dX_.-XhX).kX'.fXkXhX-XkX-XfXkXfXlXVXzXjXNXhXkXkXbXcXKX_.MXNXNXlX_.NXJXSXVXcXkXcXSX_.fXkXSXfX[.AXBXMXNXjXMXBXgX[.kXlXMXBXzXMXlXBXlXgXfX[.MXlX[.zX[.fXzXgXMXCXAXgX_.ZXzXbXNXKXMXZXfXZXkXfXBXNXcXBXbXfXNXcXNXkXMXMXZXMXlXjXZXJXzXbXBXlXNXbXnX-XSXfXlXzXhX_.`.).`.fX`.`.`.`._.(.`.cXsXsX).b.n.H.H.b.V.m.$.=.H $.$.K.$.S N.$.H J Z C S S H =.W S C S ! ! C ` N.J I.$.A.$.;.D S U P U P *.U U U U A 2 l L Y l O ; r j > r i Y L = = 2 I 3 p K ; L 2 E L 2 = L p L p ; > * Y 2 j K 3 K p s > ; ; Y O p i . i < h < = 5 5 R 7 5 X.7 X.{ | I D 6 I 6 D { 6 D @._ ) 6 _ >.7 _ @._ _ _ 2.'.}.&X'.'.:X}.;X}.:XD.:X;X*X;X'.Z.:X}.(.}.D.;XV.}.F.I.2.D.P.F.1.1.2.1.1.F.1.1.{.P.P.F.<.}.%X1.+Xg.{.1.,.U.+Xs.<.yXs.%.1.s.<.<.%.F.P.` 1.%.1.P.1.g.s.<.U.>XU.g.T.l.<.-.<.-.g.s.@.s.s.%.,.s.s.-.-.s.a.T.s.P.X.k.s.y.D k.l.} } ",
"! =.y.=.S K.$.! N.W W F S K.#.S P L Q U S Q W Q Q W U Q U X.P I I T I x k I T I O.t.y.} *.*.} } #.#.$.=.` ;.&.N.&.&.N.M.` #.%.#.#.#.;.$.;.%.%.&.<.F F &.<.;.%.&.F.` 1.%.<.[ A.I.I.A.U.&.I.$.&.V.[ F.A.&.&.&.2.&.&.<.<.[ ` <.G ` <.;.$.<.;._ #.-.%.D } D { L I 6 U X.I L I 5 = I L U L I 7 A A D D _ D } } D I 7 I 5 , , : < < : f , g 5 T 5 = I s.7 y.} I } U = X.| I X.L -.{ A I 5 R A L h L < O j # 5.u + u u @ y 5.5.# : p O r . i > i 2 K p L 3 p p E * L 2 K L * R S V C S A C ~ V S ! ` G J C.b.[ J.).dXsXfX`.kX-X-XfX'.(.-XcXjXkXlXbXfX:XkXVXfXfXfXcXcXVXAXkXMXAXcXAXSXkXAXNXhXKX_.cXhXhX'.kXkXNXgXMX[.].ZXbXzX[.ZXbXkXZXgXkXkXfXBXxXzXsXBXMXBXxXMXBXlXBXZXzXlXgXxXBXfXMXMXlXfX[.AXMX-XkXMX_.fXcXfXkXkXNXfXCXnXNXfXsXjXnX[.[.kX`.kXMXgX]._.].lXgXMXfXMXlX`._.lX[.kXfX).gX].].xX[.`.].[.[._._.sX].jXJ.n.n.n.n.b.J ' J J S H C G G Z C J $.m.=.C S S W S P U A G C S ~ S $.J A.G F F Z A - A V Z 3 U P A 2 P 5 = T 2 < i ; , < < f g h 1 * * L h L ; L > > V K E 2 1 L = L < L > p . 6.; > 2 2 2 E * . > p ; ; s ; ; > . > > 3 ; < 5 h l T 5 7 6 I } U I I D I { D 6 @._ 6 ) ) ,._ @._ _ 1._ 1.}.}.:X'.&X&X}.'.'.'.1.&XF.;XP.F.F.}.D.'.'.F.F.'.}.*XF.'.F.D.F.1.{.{.1.<.%.F.'.{.F.F.;X2.1.1.P.1._ ,.1.%.1.{.1.P.g.P._ _ @.1.P.F.<.1.{.I.F.@.%.%.g.%._ k.g.s.g.L.s.<.,.%.P.s.<.1.P.%.-.L.+X%.-.T.s.s.a.+.s.s.+.-.U.X.k.s.t.>X",
"=.*.=.W W =.K.;.K.$.$.! =.N.=.S U U =.S S Q W =.W W W Q U U L U I T I I R ..R { I X.t.*.-.} } *.#.$.;.&.` &.&.N.A.&.;.&.%.;.;._ #.#.;.%.%.` &.A.;.&.%.;.;.&.&.<._ %.F.` %.&.P.P.A.P.V.%.F.A.<._ ] &.F.2.F.F.2.] D.I.S.%.` <._ ` &.&.%.A.;.` #._ s._ I - I 6 R I L I A A } I 7 5 I L 6 U 6 } X.-.} @.D +.@.5 D 5 I 5 5 5 l < < . , , n L h I 5 7 r.- -.5 A { } - } L 6 U 7 D - - D Z D 5 L I 2 . u . # 6.a X 8 a s 8 5.s O u ; ; b > Y p p i p p E K K L p * L p L L 2 E - - S Q S S =.S Z G H H v.G.S.H.).=XsXsX-X_.kXfXkXSXhXkXcXcXjXcXcXNXfXcX_.vXbXVX_.SXhXcX_._.lXkXMX[.fXkXNXVXCXJXcXjXVXKXNXZXNXNXlXBXzXMXBXBXbXzXZXCXbXCX[.lXKXzXlXfXBXZXMXgXgX[.lXzX[.lXxXgX[.lXxXZXlXNXkXMXZXMX`.lXNX`.lXSXNXMX_.ZXNXNXZXfXjXnXJXKXjXZXMXBX_.zXkXgXlXlXzXzXgXZXzXfX`.`.gXNXbX`.zX[._.jX).gX[.].].].`.J.`.fXgX].sXH.H.H.[ b.b.m.] H G J N.H $.m.$.~ H H $.=.S H S ~ S V S S S V W G S ;.&.N.F H H S U S Z A D * *.*.U A E U 5 L 2 , 5   < . & , , < 2 1 h L p E 2 > ; 2 3 K E p * < . 1 . 3 > 3 * T 2 ; p P K p p 2 p p K p K b p p ; K > p , , g 4 < 6 & x X.x 5 4 I 6 D 5 D 7 D I D 6 7 _ @.{ %.@.@.%._ F.}.F.F.V.'.F.'.'.1.2.F.1.P.P.F.F.'.'.F.'.'.'.F.F.F.Z.V.F.F.F.+XF.}.F.}.F.1.P.{.{.2.F.}.1.1.2.1.1.%.F.{.1.%.%.%.%.%.-.<.P.%._ %.2.F.I.F.1.F.2.}./.I..Xg.P.-.} -.1.,.<.OXP.+X<.-.%.s.P.}.P.}.P.g.+.s.@.<.T.t.k.+.T.k.y.-.T.t.s.",
"*.*.=.=.=.=.=.$.=.! H #.W ! =.S W W Q D S U W W S W *.*.U U D { I X.I I 0.X.I I X.t.X.U *.*.*.;.$.$.L.;.$.` $.;.' #.&.&.$.;.;.#.=.#.U.&.&.` A.F.&.I.A.L.&.%.<.&.` %.2._ D &.F.<.<.I.<.&.&.I.F.[ %.&.F.<.F.'.` %.F.<.&.] &.A.;.<.%.` #.&.%._ #.} s.U D 7 R 6 x I I D D L L A A A L 5 L } 5 D D 7 } } D } -.I I R I 5 4 5 l < f g g < f X.g , 5 = I 7 -.D D { -.A X.7 A X.5 U 6 F D D I A I I 1 * T O b e.# 9 s b a # 6.u # s ; > T i Y 1 K 2 K Y i 2 K Y 2 * p A p V A P S V S S Q S S W H J G J J n.S.C.n.b.J.).-X_.fX_.-XjX-XhXvXfXfXhXnXSXlXcX-XNXcXvXbXVXhX_.SXSXlX_.AXNXSXcXfXAXVXjXVXcXVXcXjXcXlXkXlXbXlXxXBXBXbXBXzXzXbXVXKXfXlXfXNXZXZXgXMXkXxXlXxXMXMXBXlXBXzXBXlXBXxXNX[.gXkX'.ZXlXNXjXlXNXlXkXNXZXjX_.sXNXJXzXhXjXnXZX].fXfXgXlX[.[.gXBXlX_.MXZX`.NXNXfXBX_.[.gX).].].].xX[.[.[.xX].].].lXsX`.J.].J.H.J.v.n.[ ' G J ! A.H H ` ' G S G ~ H S S C S ~ S A P S V W S G m.$.M.` &.#.F *.U A 5 A 3 R U A - V * * h h < L ; , , 1 < * < 2 * 5 1 1 L * 2 p L ; 2 K 2 . = 3 g ; 2 2 > 3 R i h L P p 2 i 3 3 . s ; p p > ; ; s   > < . g g l 0.5 6 L I I { { } A 7 6 D { } 6 7 ) 6 _ 6 _ { -.%.[ F.'.'.%.2.2.2.F.F.F.<.F.<.+XP.F.{.{.{.}.%X}.;X&X;X&X&X}.+X+X;X8XI.+XF.;XF.F.F.F.}.<.F.F.D.}.F.F.}.F.P.{.F.'.1.1.P.+XF.<.A.%.&.F.2.F.F.F.D.F.2.P.1.1.1._ %.%.,.<.s.<.g.+XP.OXU.<.<.+XP.L.}.P.<.%.%.1.} %.,.P.T.l.P.T.s.t.s.y.<.",
"=.*.W =.=.H =.W ;.! ! ! $.F =.W *.*.y.*.W U W =.S W =.*.F U I U I R L I 0.X.5 L 0.-.U U U -.%.-.F H &.%.A.$.N.S.$.N.;.;.#.` ` _ } } F.#.[ _ <.' _ <.%.;.&.] <.&.&.%.;.%._ F.I.I.A.I.&.&.] &.&._ 2.V.I.F.I.D.%.2.2.&.%.%.&.%.G %.#.F #.;.#.F _ _ s.} I D | L 5 I { L R R 6 2 h I I D X.y.X.} @.D @.<.@._ @.D A 7 5 1 5 , f . 4 T , . O T L 5 { R 5 I s.R U F t.5 -.5 5 D - U Z 7 D A I 5 L 5 , < i @ s s X w 4.s t 9 6.s . Y u > p ; p ; p ; p K * > K E p i L K K 3 A V Q H S C S S ~ H C J G J v.n.J.J.H.sX_._.`.).-X).-XhXvXkXfX:X-X-XkXcXhX-XkXkXcXcXSXcXKXjXMXBXAX_.NXNXlXhXhXcXcXVXVXhXcXNXAXZXbXkXgXBXMXxXZXzXlXBXbXNXCXjXSXMXAXMXbXkXnXBXgXBXAXBXxXgXlXMXgXMXzXMXfXlXlXzXfXBX_.MXkXKXNXNXfXMXkXfXMXlXfXZXCXNXbXbXcXhXZXjXNXZXlXZXMXMXBXzXgXgXlX_.fXgXlXgX_.`.BXMX[.J.[.kX`.`.].gXJ.].`.H.].`.`.`.`.[.J.`.=XC.b.J J G G G N.$.H H ` ! J J H J ~ H ~ S W S C S S C U S C $.G ` H N.F Z W U Z * - C *.U L P I 2 L Y i   O   < , , ; 1 T L ; 2 3 2 L . p L p P P K Y = 1 L Y ; L * V * 6.= i E 2 K P ; > E s Y ; Y p p p K Y 2 T g * , = = x L 4 7 6 l A I O.| I D 7 D 6 7 6 6 _ _ @._ { ,.-.%.%._ 1._ 2.1.1.1.}.F.P.P.1.OXP.1.P.F.1.1.&X}.&X&X}.}.}.}.&XP.I.}.A.*XP.}.D.}.*XF.I.*XZ.V.F.Z.F.F.}.}.F.V.&.F.%XV.%.F.&.&.<.%.I.}.<.%.%.<.{.1.%._ 1.F.P.@.,.s.P.s.P.P.<.<.%.F..X+XP.8XI.P.F.<.P.<.s..XP.3XT.P.1.<.,.g.P.P.k.T.,.",
"*.#.W $.=.H K.$.=.$.=.=.$.F y.=.U P #.U P C D Q F W =.*.S U I } I I L I O.r.l } *.s.-.;.-.;.=.A.%.&.A.%.L.$.&.' F &.&.;.&.;.L.;.%.;.U.&.&.%.F.%.%.A.%.A.;.] &.%.%._ &.<.%.;.<.&.` ` ` ` &.F.D.&.] V.F.S.F.2.&.2.[ &.%.&.$.;.#.%.` #.<.L.#.F F } U.*.} A I A x X.U 5 U *.U L 5 5 } D } } 6 7 D Z Z ,._ D } F U I D I I L I , r x j l g < I < h 7 D | t.D 5 I t.7 X.A A I 7 F A Z P 5 R 7 L 2 1 ; p u u m u s s t t w m 4.# j u u r , L p L p 3 > ; 3 K K ; 3 3 3 K V E C S S W W ~ ! ! J G $.' ' C.n.n.Z.).sX).H.fXjXkXhX-XhXhXvXkXkXcXvXcXNXcXcXnXcXcXjXhXcX_.jXAXMXAXkXlXkXlXKXZXkXjXNXJXcXZXAX).lXgXkXMXZXBXxXZXzXzXBXBXbXCXgXBXZXBXNXZXbXCXZXlXCXkXxXzXMXxXMXBXzXxXlXzXNXMXlXkXBXNXZXlXkXAXAX_.AXMXAXNXNXfXZXnXjXVXNXhXbXZX).zXkX[.MXzXgXlXfXlXgXgXNXCXsXNXZXzX[._.kX].gXzXfXgX`.sXzX].[.[.[.`.].`.].[.].`.J.`.J.n.b.' [ [ J N.m.N.' m.$.$.J $.! ! J S ~ S Z S W S S =.W S m.H ` [ &.G Z U P P A U 2 U U A 3 3 = L h , = n , , . . g g 5 5 1 1 1 h L * 2 Y p K K 2 2 * . < 1 = p * 5 3 X.* i E 2 2 L * * K ; s * b > ; i K i . p > < h 1 < I I I 6 l 5 U | X.D } { { { } { 6 _ 6 { @._ D %.} %.<._ %.2.}.rX}.P.+X8X8X6X8XoX1X$XeX%X%XrXiXrXiXiXiXiXpXpXtX8X+X8X8X;X}.P.F.<.S.] ] }.V.V.'.'.'.'.;X;X&X}.2.F.'.D.&.F.F.I.;XV.}.F.<.1.] %.2.2.<.%.&.<.<._ ,.,.<.P.{.<.F..XF.}.P.P.F.+XP.}.}.F.%X8XP..X%.<.P.<.P.%.1.,.T.L.tX.X} ",
"W #.#.;.N.H ;.! ! $.=.$.! ! =.W U F *.U W Z W K.S W *.Q P } U U R U I I R t.D } X.-.} #.#.%.#.%.$.&.&.$.I.;.M.$.A.A.&.;.%.#.;._ #.;.&.` ] %.&.&.;.A.#.<._ F [ %.G Z %.-.%.A.I.<.F.%.&.%.A.A.V.G F.I.D.'.D.&.<.F.<.I.A.$.` &.#.F F #.;.-.#.F U -.l.X.D 6 A 7 L X.I 2 I R I A A I I 5 U I D D +.%.@.,.} { } 7 7 D I I 1 , g , . < % < < O 0.4 6 I 5 L I A 7 *.y.- D 7 6 } U I U } } A X.I R 5 5 . r s # : t + # 8 s ; w 6.; ; ; p p h p p p Y p K E K 6.K 3 p K p P P Q V ! S =.=.! F C G J ! J [ C.v.b.J.H.J.J.].`._._.-XfXhXlXhXlX_.-XjXvXjXhXNXcX-XcXAXcXNXAXVXlXfXMXSXzXZXkXcXNXcXKXcXkXhXJXVXSXAXkXkXzXgXzXzXzXzXBXBXxXlXBXBXkXZXlXlXCXzXnXBXfXZXBXNXlXMXxXZXzXlXxXgXlXgXgX_.lXNXlXNXNXlXlXZXMXZXMXlXNXNXkXVXCXkXbXJXNXbXKXjXlX[.ZXgXMXMXBXBXZXkXZXMXzX].H.gX_._.BX_.zXkX).].].`.gX].[.J.].[.].zX[.].].n.gXJ.n.b.n.J [ J J G $.` m.$.` J ` ' m.J J G S C H H U W S C S G C H ' ` G H Z F F Z A - A A *.L A 7 A = h L r ; f < : < < , < * 2 1 5 2 1 Y > 1 L K L K P L = * 1 5 2 2 2 3 E R L R R E L E K p 3 > p * K i 2 i p > i L 1 ; i , % l 4 < * 4 7 l 5 D = D L D 6 I } D _ 6 D D { _ } @.%.#._ <.E.{.}.<.P.P.{.+XU.+X,.1.%X2X$X$X$XtX%XaX8XoX3X&X$X$X.X+X&X}.P.}.}.&X'.}.}.1.&X2.S.}.2.F.:X;X*X'.*XD.F.F.}.D.*XD.F.'.&.S.] F.;XF.2.1.1.F.1.<.P.%X1.<.s.<.F.P.1.1.}.I.%X{.F.;X+X}.+X}.F.}.F.1.P.<.P.1.s.1.s.P.P.P.P.+Xs._ ",
"W $.#.=.$.$.&.H $.=.K.N.#.y.=.W U A W U Q Z *.K.W #.#.W U W U U U R U I I t.A U y.s.U } } ;.$.;.;.I.A.' A.$.$.` &.&.#.$.#.$.K.F ;.P.&.%.2.<.2.A.<.<.$.A.$.<.<.F.<.%.P.;.%.<.A.%.&.` <.&.A.A.&._ V.F.V.1.<.] [ &.[ F.` F _ ;.#.` ` #.#.F F F _ s.;.U D 5 A I A L U A U D 7 D A } U I { } } D D 6 @.<._ _ +._ } _ -.0.5 5 l T g j T r f g t.h 4 R - 4 } { 7 t.s.5 D R D U } A A D A - I X.5 1 1 . u u u # u b b b b w 8 6.u ; ; i > h ; ; * Y 2 K p 3 Y s ; 3 p 3 P V P P =.W =.! m.H ! ! m.J J M.=X=XJ.J.dXsXjXkXfXcXlXSXcXcXSXhXZXfXlXVXjXkXhXkXhXkXSXNXNX-XNXAXkXMXMXlXlXZXSXkXZXhXNXcXNXkXkXkXMXSXkXNXNXgXzXzXZXbXMXBXBXBXBXZXfXVXkXkXbXjXbXbXBXbXkXbXxXBX[.].lXgXMXMXlXlXlXMXNXBXzXkXMXSXMXlXlXSXAXMXBXfXkXbXfXBXNXkXfXbXZXsXkXZXzXlX_.[.BXMX`._._.ZXMXlXfXMXMXCX[.).fXgXgXxX[.gXNX[.gX`.gXxX`.xX].`.`.n.gX].J.b.G.n.[ J J [ J J $.' J J m.m.m.J J Z J C ! =.=.=.S S Z S G $.N.&.] #.G #.#.P X.- D U *.L 2 V L = 1 L < O ; , . < g < O 5 L l 2 3 1 2 p p p 2 L p L 2 2 < < L 2 3 2 * E R L R 2 P * L > K i p L . K > p ; i i p p , ; < O = T , < < T 5 4 5 X.O.r.{ D 7 D +.X.{ } @.} +.} } F %.} %.P.+X<.;.1.%X+X+X+XOXs.%.,.{.{.{.{.1.{.1.E.{.1..XE..XOX.X$X{./.E./.{.F.{.{.&X}.{.'.&X&X'.{.(.'.n.n.n.Z.C.V.;X=X'.'.D.*XF.'.F.F.*X}.F.{.<.1.1.F.1.P.%.,.P.+X<.F.1.&.1.<.}.F.3X3X}.8X;XF.%.+X+X8Xs.I.8XP.rXU.1XL.oXL.6X<.#.,.",
";.;.#.#.H N.K.=.$.=.=.$.W K.Q S W S #.*.;.S *.N.#.=.=.*.D } F U L U U I Z y.I U #.-.} ;.#.<.;.F.$.A.<.` &.' &.&.$.] #.;.#.#.L._ =.U.#.&.;.%.%.&.&.&.#.-.` ;._ ` #.Z -.<.;.&.P.] &._ S.2.&.<.] &.F.&.V.2.V.V.%.D.&.F._ ` $.;.#.#.#.#.#._ *.} Z #.-.D A I A } I A U D R A L *.A 5 } A D U *.} } _ -.L.#._ } } } A U r.6 L l T < < M 4 , & x k = 6 5 I *.X.* X.*.D P -.7 A U I *.D - - U 0.< h k i j : 4.; @ b @ @ b u s n > r r > ; Y s p ; 6.; p K > 7.K E K Y K E V S ~ N.S ! J H ! J ~ $.b.J [ b.G.C.n.).-XfX)._.-X`.hXhXjXjX-XSX-XfXNX-XbXlX_.cXhXhXSX-XNXcXcXkXAXfXkXNXAXNX-XZXNXNXNXcXLXAXKXjXZXNXBXAXBXZXCXMXBXMXZXbXBXgXZXfXNXNXNXCXZXCXbXZXbXCXCX].xXxXxXxXgXMXMXgXkXlXMXMXlXzXNXMXlX-XNXlXSXkXcXkXNXAXCXbXhXnXkXnXKXsXjXZXlXMXNXZXBXlX`.xXzXMX_.fXfXlX).NXkXlXlXzX].gXgXfXH.[.fXJ.].[.`.J.J.`.`.].`.J.`.H.b.sXH.b.[ J J J ` S.M.' m.S.m.$.m.m.! J C C S F W S S C S G $.F ' ` ` G F F D A * - 2 R U D = - < h h . ; r j < , g g , 5 g , 1 i i 2 p h h 3 7.K L . l 5 , L 2 2 V 2 R R 2 A L E V L . 2 i 2 Y . p p L ; 3 K 2 > > i i ; < n x l = L 6 R L x 6 A 7 6 D { } { { @.t.7 D D { _ %.#.<.%.F.,.%.F..X+X+X+X.X,.|.@XP.1.g.{.,.1.1./.{.1.1.1.g.1.1.{.E./.R./.R.1.&X{.{.:X1.&X'.1.2.2.F._.&X-X*X:X}.`.'.'.S.'.C.F.2.D.'.1.F.1.1.}.<.2.P..XP.s.<.U.$XU.F.}.}.{.}.F.;X{.}.vX}.F.}.;X&X8X<.+X$X+XP.<.P.P.<.s.+XT.6XP.@.P.",
"#.;.#.#.` $.L.=.$.! ;.=.C =.#.#.U U *.$.W D =.;.=.#.=.W *.#.F U U A U U A y.-.} #.} -.<.&.&.&.A.` &.&.` &.I.A.' ` M.&.#.;.F L.} W L.%.;.&.&.` ` #._ #.;.F #.#.G _ } <.%.` %.&.%.1.` &.A.&.&.&.2.*X<.V.F.V.F.] S.F.&.&.<.;.#.Z F _ *.;.D ;.F F -.;.U F I Z } L A F } *.*.U - A U 7 Z 7 } _ Z _ } _ } _ D _ } _ D } X.U 5 5 l < l % j 4 & I I = 2 I I t.L 7 y.y.7 P U I D Z - - D - A = T < < > . . @ : b @ @ s @ b w s 5.n r p > > Y p Y 3 Y p Y 7.s K K K K K E ! K S H ! C ! J B.c.~ J m.b.c.H.J.G.gXH.].dXsXsXxXdXfX-X-XlXkXbXfX-XkXcXfXjXcXhXSXkX-XAX-XAXVXNXSXAXfXZXNXlXMXBXlXZXNXMXcXkXNXMXMX`.BXMXBXlXMXNXbXkXBXJXzXzXxXCXlXBXzXjXCXNXzXjXzXBXxXgXgXMXMXMXMXgXMXMX[.MXBXBXzX[.fX[.MXMXNXkXAXlXNXNXNXcXVXkXkXNXZXNXjXbX_.bXzXBXBX_.lXMXMXlXAXlXlXBXCXzXgXfX_.gXfXlXzXsXJ.[._._.[.`.`.].].`.`.`.[.xX`.`.`.J.J.b.b.J.b.b.J J G C ' ' G m.' m.G ! J J J S C J W U C W - S S $.` M.V._ G #.;.U U Z L A R U 5 - * - < < < g . : ; . = , h , l 1 < * 1 2 2 ; p p 7.L 3 2 1 L * 1 S * - 3 r.P 2 A A R 2 2 2 P 1 1 L . * R 3 L > p L . p > ; i . b n g k T I 1 = I X.t.7 I I } | D D } s.D *.-.} %._ _ %.G %.}.}.1.1.{.P.{.,.1.1.1.{.1.1.F.1.F.1.1.{.{.F.{.{.{.%X$X$X.X$XaX%X&X{.$X%X1.&X2.'.F.&X&X'._.:X'.).:XhX:X-X:X(.&XV.F.'.'.}.P.F.;X&.F.P.}.%.P.8X+X<.%.P.F.;XF.1.F.F.;XI.F.2.}.F.F.;X}.{.;X+X.XU.<.} ,.<.<.} P.k.6X+XX.%.L.",
"F U.#.=.;.H U.J N.W =.=.S ;.=.=.U G *.#.W G #.;.=.*.;.U -.;.#.*.*.S W U D y.*.U U F ;.U.%._ F N.&.A.A.&.&.A.N.` A.;.$.H &.#.L.#.L.<.Z ;.<.<.%.$.#.H -.=.F %.;.%._ Z &.<.%.;.<.1.V.' %.[ ' A.<.G A.[ V.D.F.V.V.F.&.L.;.H ` &.H #.=.;.;.G } U U F -.U A A - U D A A A U F D I Z 7 U U D } @.6 D D D @.} _ D Z Z D %.X.5 5 L X.g g f T g k ..I & 7 X.} } U D -.-.A } S - D } F D U A A P T , j < n u r b n u u b p Y s ; Y b : > . s K s 5.s > * 3 Y 3 * E K K K P E Q ~ P W J $.H J C J b.B.c.c.Y.C.H.].H.H.sXfX].xXhXkXsXhXhXcXSXAXhXhXcXkXhXkXkXcXcXAXZXcXbXcXfXkXMXNXSXSXZXkXNXkXAXcXSXNXNXSXkXZXkXZXBXNXNXZXAXZXBXCXzXxXBXZXMXkXBXNXxXNXkXbXkXMXMXxXzXxXBXMX`.lX[.MXBXBXlXlXMX[.MXZXAXMX[.MXMXZXSXkXkXlXAXAXbXVXjXCXbXfXbXZXbXlXBXMXlXzX].zXzXBXxXzXkXCXlXkXzXkXBXkXkXkXkX`.).[.`.[.].xX].gX[.[.lX].`.[.].[.J.J.].J.J.C.C.v.' b.J ! m.J m.' B.J J G J ! H C W S S C S C H H m.$.N.&.G G F F S A 7 I A U 5 2 5 2 L 5 g , j . j g ; , , 5 , 1 1 , = 5 h > 3 L 2 K 2 > > < g = 5 L * 2 3 E A S A 2 L * 3 2 Y Y h > < i Y > E p 2 K 2 ; ; r p , ; # < g 1 T X.l 5 7 L = 6 I @.{ { 6 +.k.D } a.%.%.%._ 1.1.1.{.,.2.1.}.P.1.%.1.1.%.}.'.}.%X}.+X&X{.{.;XaX8X+X{.&X+X$X}..X%X%X%X:XrX&X&XiX3XrX&X;X;X'.;X:X_.:X:XpX-X;X;X'.*X;X;X;X'.;X;X:X:XF.}.+X8XI.}.}.P.A.P.}.s.<.&X;X&XF.&X{.F.{.}.1.1.%X&XF.1.s.L.L.<.-.-.s.-.-.g.U.L.s.-.l.a.",
"F L.H #.;.#.K.#.=.$.#.$.U K.=.*.#.F y.;.;.U #.;.;.$.-.F =.;.W U F D W *.U -.#.} *.} =.L.&.%.%.A.#.A.A.<.M.A.&.` A.$.;.` <.=.;.F s.L.%.L.&.%.&.<.%.#.;.<.%.;.` %.;._ <.V.%.] &.[ }.&.%.<.<.&.&._ D.] V.F.%.G ] ' G A.` G F F C F _ #.*.F F #.#.U *.U A D A } F D F D #.F U *.U 7 } I 7 } I D } D { ;.-._ F D D %.%.U - - L X.5 = 5 l & x l x * 7 } } 6 } F X.;.A Z 7 P Z A U A S 5 L L L < <   p O : b i ; @ 8 ; p u @ s Y p r ; K ; s E K ; p L K K * E V E E ~ Q =.S J ! B.$.J m.! J J c.J J.=Xn.`.].J.G.].dXfX-X_.jXsXkXfX-X-XhX-XkXNXkXlXcXkXkXhXNXkXcXkXcXSXMXlXMXlXfXZXkXZXMXMXSXZXMXMXcXcXZXMXkXMXkXZXNXhXVXgXNXkXZXNXBXxXMXCXzXzXbXjXBXnXBXxXMXBX[.[.BXMXzXMXgXlXMX].MXAXzXzXlXzXSXzXAXlXMXVXSXAXNXNXNXcXkXsXkXjXLXJXsXKX[.zXBXlXMXkXkXfXZXMXzX_.lX].bXbX[.jXfX].[.kXgX_.[.]._.].gXJ.xX].J.[.J.n.J.[.`.b.J.J.gXJ.b.C.J b.J Z G G J J J J m.! G J m.~ C G C S V C C W G $.` ' ` [ F H F D - 7 L 5 L - = A * 5 ; ,   &   : g . < ; < , = = 1 = 1 p * 2 Y K 2 p p , * 1 1 L 2 * V V A A L 2 A L - = L h h p 2 1 * i 2 L K ; 2 Y > > p > p O . : h l T 5 = 5 U { 5 7 7 6 6 D 7 } ,.D } <.#.-._ ) Z _ _ %._ 1.1.'.1.%.2.1.,.2.2.F.F.D.F.}.F.F.}.}.}.}.&X}.+X+X}.}.+X&X&X;X8X;X;X;X:X;X&XF.;X;X&X(.&X'.'.'.'.'.&X'.'.&X;X:X:X&X:X*X+XI.F.+X+X}.P.I.+X}.P.<.P.1.&.F.}.F.F.F.F.F.F.F.P.F.<.&.<.&.s.-.a.-.-.-.U.-.t.-.l.k.-.+.s.| ",
"W =.U #.=.$.$.K.=.$.W W #.K.W W #.Z s.=.;.F F ` H #.#.W y.;.W W F U =.;.#.=.*.=.#.` #.%.$.L.;.#.#.&.A.&.;.M.M.$.&.&.A.<.A.&.#.F #.#.$.%.&.&.<.&.#.F ;.;.#.&.- F &._ <.%.` 1.F.` V._ [ A.[ Z G G &.%.] A.] [ P.D.[ I.' %.%.` G H F F %.;.#.F D F *.#.F U U #.W D F _ *.} } #.*.D U D - 7 D D } { Z } } _ } _ F _ -.} 6 D X.t.5 1 x f < L 6 L 6 D | *.U } I ;.y.U A D y.*.A U } U D *.5 L T ; : r o o b u u s ; ; ; s p s y . ; i K s b K 3 > K s K K V K C E E P V ! S ~ J H J ! b.J J c.b.b.J.).H.J.b.J.sXsXgXsXjXfXjX_.NXNXSXkXjXkXAXAXcXcXSXkXNXcXNXSXZXcXfXkXkXSXSXAXMXcXMXZXZXMXAXAXSXNXNXMXNXAXBXZXMXBXSXkXZXkXBXBXZXxXzXzXZXZXzXzXzXgXCXzXMXlXlXMX[.xXzX].lXMXxXMXBX[.BXBXgXlXMXzXkXzXZXAXAXcXkXlXVXjXNXBXBXzXfXZXNXkXNX].lXzXZXgXNXBXgX].fXfXgXfXzXzXzXjXbXNXlXgXgXzX[.`.lX].J.xXgXn.`.[.`.`.zX[.`.`.J.`.J.b.H.=Xb.b.[ ' ' J J J $.J m.J B.M.! m.$.C C ! P S S C S S C H ` &.` ` S ` F A Z 5 5 A U 2 = L * I l l . , % l i & ; < l 5 4 * 1 = 1 h . L Y K p 2 3 * & 5 h = V - L U P P P A L U 5 2 L 2 1 l p 1 ; E p i K 2 > Y ; i Y # s u T y > k 0.5 * h I I { x 6 D 7 D } @.} { _ U 7 _ [ 2._ _ %.2.%.P.%.,.%.2.1.F.{.}.F.D.D.}.}.;X;X}.}.+XI.P.}.}.+X}.I.I.;X}.}.*X;X;X}.I.F.*X*XF.F.A.'.'.'.'.'.}./.'.'.F.&X2.}.&X*X}.}.P.rX}.P.F.1.&.1.<.%._ %.F.}.V.F.F.<.A.P.I.P.}.}.}.}.}.F.{.+X1.g.-.-.%.%.X.>X%.s.l.l.k.t.t.a.} ",
"*.K.W #.=.=.#.=.$.=.W H W ;.W #.=.Z -.*.-.F F F #.#.#.#.L.=.F U F W W U S U F S F #.=.;.$.A.$.H ;.M.M.&.;.&.&.&.&.&.;.A.` #.G _ <.F L.A.P.&.&.A.<.&.L.L.;.<.F <.&.%.F.%._ ] V.[ F.F.&.<.G G <.' <.D.<.I.] ' V.%.` I.` ` G _ #.F _ G %.s.*.} F F ;.;.U F F #.U F #.` #.*.#.F -.U U { A D D D I Z D } U D } } D D } F D U } X.5 5 5 , = 4 5 7 A 7 7 U } A Z *.*.D S * F #.Z Z A A = P = < Y O O ; r : r : y n u u u p s ; n u : > ; K 4.E ; p K 3 2 3 E P K Q E ~ P P S C ! J J J C m.J J J.Y.J.b.).H.J.].gX].jXnXbXkXkXfXkXvXSXfXSXhXlXcXcX:XfXfXcXfXkXfXAXcXjXKXgXAXMXAXMXfXMXVXAX_.kXMXBXAXZXNXZXAXNXBXVXAXVXNXcXcXNXzX[.xXBXxXBXxXlXzXzXgXZXMXMXMXMXAXMX[.lXAXBXlXMXMXBXlXMXBXBXlXNXMXlXMXlX_.cXkXkXkXJXjXNXNXBXJXhXkXbXNXBXBXlXlX`._.gX[.MXNXNXNXBXBXBXbXlX].kXkXzXlXlXkXkX).MXgX`.[.xXxX[.J.lXJ.].[.n.].n.n.J.b.J.J.b.b.b.b.m.! G G J J J G m.! J ! ! C ~ W W A P C F S S &.` &.' F G #.F D A h A L } 5 - 5 = 5 g l < % % j ; 3 ; 5 5 * l , < < 2 k 3 E Y p p 2 ; = 2 T I * 2 L V V S P A U A L * A 2 L h R > < p r.i * L 2 2 p ; ; Y > s ; b p , 1 R k h l k 6 } I D { D { D } _ _ %.<.<.P.%.1._ _ %.1.2. X%.1.F.}.+X}.{.}.2.] n.F.F.F.A.&.` &.2.1.<.2.%.1.%.2.D.V.&.] A.2.V.&.[ <.2.&.F.F.1.2.2.F.}.}.F.2.F.%.F.%.1.1.1.F.F.G _ 7 %.<.F.<._ <.<.A.F.{.}.V.F.8X;X8XtX;X;X+XI.P.F.<.I.+X+X%.s.*.-.t.s.} T.{ T.7Xs.t.O.l.t.+.",
"*.U.W #.W *.K.$.=.$.W H W $.#.*.;.} #.=.#.F #.#.%.=.$.*.U.$.U $.K.;.W F F ;.*.#.} #.;.s.=.<.-.&.L.A.;.A.A.M.&.&.A.N.A.S.&.A.%.&.L.&.}.&.F.2.] <.&.%.A.;.` ` G <._ _ <.2.] <.F.F.F.S.2.] ` ` &.G &.A.[ V.[ %.&.&.&.<.` ` F ` %.` G F %.#.#.#.#.A U *.F #.#.#.F Z %.#._ %.-.F s.D F } A 7 A D @.I } } #.} _ #.#.#.;.%.D } X.t.x A k 5 x 5 0.6 X.A I } #._ F #.-.#.} - D Q Z D U U - I I , Y f O r T b ; # ; n > u s s ; O 5.Y j ; s K Y Y > K K Y L V Q V ~ P r.! ! F F G $.J J J J b.J J H.B.B.J.`.J.n.).gXsXdXxX).fXgXjXlXlXkXlXSXkXkXcXcXlXkXzXSXbXKXhXZXkXjXNXzXAXSXNXSXAXBXSXZXlXZXSXMXzXMXkXBXNXzXzXBXNXcXkXfXNXNXCXMXZXBXMXBXzXMXMXxXgXxXxXMXMXxX[.lXlXMXMXMX[.MXMXMXMXlXlXBXlXBXBXSXZXNXMXVXZXNXcXbXkXVXZXKXbXZXgXNXNXsXBXxXkXgXkXBXlX[.].lXgXkX[.lXfXjXjXfXlXzXjXlXgX[.J.`.J.].].[.J.).].[.].J.].J.].J.n.n.J.J.b.B.).J c.&.$.J ~ J C ! ! $.G C ~ H C ! H C 3 V * C C C W F $.` [ G =.=.*.A L I R I - 5 - 5 , , T l O $ n . < ; g 1 . T T < 1 > 2 ; p K 2 3 2 K 1 L I I = U *.S P Q W S U A P * D L I p L h L K R K L r.h 3 p i . s ; s ; O > y > n 5 I 5 X.I I I 6 D { } D @.D D @.%.;.%.%.1.P./.}.{.P.}.F.1.1.I.P.<.` 1.[ _ ] ] 2.[ ` _ _ %._ @.<.&.,.2.2.V.I.F.F.V.F.D.F.S.F.I.F.1.V.F.2.1.}.F.I.F.1.%.'._ <.1.F.1.%.1.P.<.F.F.I.P.<.F.F.}.2.F.}.;X:X}.*X}.L.F.L.<.}.;XP.P.+X}.}.P.+XL.s.-.a.s.s.-.l.@.T.>X+.O.a.l.+.O.",
"*.s.S Q F =.K.=.H W W W U #.*.#.#.*.#.;.F F %.#.#.#.#.#.Y.L.;.L.;.;.F H U $.*.;.F U W #.H N.=.;.A.;.A.A.A.;.&.M.&.' &.<.%.` ` ` A.A.F.] F.*XF.&.%.&.A.A.' %.` V.&.F.F.1._ 2.2.F.F.A.A.<.<.' _ F <.A.G %.` <.&.F.] ' F $.` ` #.F ` ` ;._ #.#.U Z Z #.S } %.=.#.G ` G F _ #.S -.- U } 6 - 5 D t.-.D I } _ D } -.} #.} D D _ } 7 5 h 5 5 5 y.D @.D D } } F } G =.#.F W W S L U U F A L I * Y j : % m 5.o u @ b s p ; s Y ; p O u > b K s s ; ; 2 2 K L P - V C K.~ S P W H G C G b.C b.' b.Y.H.J.J.J.J.`.gX].sX].zXNXAXbXcXhXhXlXhX-XlXkXkXlXcXcXMXkXfXNX'.cXlXhXSXjXlXcXcXBXZXMXkXMXMXZXZXMXAXZXKXlXBXKXBXNXNXkXZXBXNXlXBXxXzXxX[.[.[.xXzXBXBXZXZXMXMXMXMXMXlXlXMXMXMXMX[.[.MXlXMXZXMXlXlXMXMXfXlXAXZXNXVXJXVXVXkXfXNXkXlXbXkXCXfXBXMXMXlXBXZXNXBXzXlXkXxXzXjXlXkXfXsXgXlXMXzXlXgX[.[.`.].[.].zX].J.n.H.`.].J b.J.b.].b.b.H.S.B.c.F H S H C C J $.S ! H $.C C ! Q W P P S W P ! $.$.&.` ` G #.U #.7 - I I L - l = 5 5 O T r < $ j ; 1 r l 5 & T T 2 5 1 = 3 > p K * p 2 < l g l . S L V U W A A V L U 5 L L h 2 5 ; 2 * 3 2 L L 3 3 p K ; p O b s j > u > T l T < 5 5 6 X.6 { D { 7 @.@._ &.%.<.,.%.,.%._ _ _ @._ %._ _ %._ _ _ ] [ [ [ %.<.` &.%.2.%.G _ ,.2.%.` <.V.1.2.}.V.F.}.F.1.2.%.%.[ 1.1.] 2.P.2.<.[ 1.2.1.%.<.&.F.<.<.&.<.&.%.2.F.P.<.%.F 1.<.&X&XF.*X8X}.I.A.+X;XA.}.L.<.P.P.<.+XP.P.g.U.,.s.s.s.-.g.s.s.s.w.a.T.d.+.a.",
"Q P U ;.#.=.H #.S H W W W ! $.W _ ;.*.L._ F #._ $.N.$.m.T.L.=.=.=.$.W #.U F U ;.Z F =.#.S ;.N.=.;.$.;.A.A.&.M.A.A.A.I.;.&.` <.<.&.D.<.F.F.2.] 2.<.V.<.F.&.<.V.1.%.D.1.2._ '.F.F.] 2.S.V.M.#.[ A.S.<.[ ' V.&.[ &.&.<.%.[ ` %.#.G F F ;.#.%.#.#.} #.;.G F F $.#.#.&.F #.F } F ;.D } -.F D 6 D -.%.7 Z F D Z _ #.G *.} F F U } - 5 I 6 5 L l.L } U F *.U G U Z y.W A U Z G *.U A P 7 L * . Y , b   o n . y ; b s p ; ; s . p ; i . s s K 3 K p L K - P V S P C K.C W S ~ J G J [ B.J B.B.H.J.J.Y.J.`.].`.[.sXbXsXgXhXjXsXkXkXcXcXkXAXSXcXSXcXkXhXkXMXkXBXcXJXZXlXNXSXkXlXkXNXNXMXSXZXAXzXMXlXSXNXzXzXMXMXlXkXZXhXNXBXzXgXBXMXMXxXlXBXxXMXgXzXBXMXMX[.lXMXMXMX[.lXlXlXMXMXBXMXBX].lXNXlXfXMXZXAXNXBXVXcXcXjXAXsXCXNXbXJX].NXCXbXZXZXzXNXlXMXNX[.fXlXBXzX_.zXlXNXlXNXbX[._.sXlX_._.fX`.gX].lXJ.n.`.H.[.].].].J.xXJ.J.`.`.b.J.J.J.B.J.J ~ H H S ! $.H J ! ~ $.~ S *.S C V S V S V W H ` #.S ` G #.U U = * - D 5 2 I . 1 l . k . j f f , < < < < . , < * g Y p L 3 ; 2 ; L p ; I L L 2 P V V W Q S =.W U R L 2 2 = L 0.. L L L 7.L 2 p p 3 i p Y . Y j u ; r < i < R , L 6 = I < D Z 6 7 } _ _ 1.Z %._ _ _ @._ _ D _ _ %.%._ <.` $.%.&.2._ ] F.F.&.%.&.%.<.%.%.F.1.1.F.F.F.2.[ '.<.F.F.1.[ 1.2.1.F.2.2.F.F.F._ &._ 1.` %.%.1._ %.<.<.%.%.1.F.1.P.{.I.F.F.F.&.}.;XV.}.}.+X8X}.P.P.L.+X-.F.+XP.L.8XU.P.U.,.-.-.-.+.-.s.l.+.a.s.@.a.+.a.s.",
"Q *.S =.#.=.$.=.S W S W ! Q L.$.=.} -.L.} - %.H ` A.M.` L.N.H =.$.F #.#.$.W -.F F S ;.s.#.;.L.N.;.&.A.I.D.S.V.` I.&.$.` %.%.&.P.+X' ] F.F.] 2.] F.&.I.F.&.F.F.D.%.F.[ &._ 2.}.V.2.2.V.D.2.A.&.&.F.D.` A.F.&.] A.[ A.&.#.#.$.` H _ G ` &.;.' #.&.` ;.$.F G $.` _ #.G #.} #.#.F D D U } U *.L.-.} ;.,.G D D _ #.U #.F U F U U Z U U -.U I s.U D U #.A W - F G ;.! A S Z G U U U 7 L > > : . 0.# j   O > O r y ; : i O > j ; Y ; g s K Y K K K V K V P P E W =.P W ! C ! H ! $.c.b.B.b.n.G.J.J.J.].sXH.).sXCXjXjXCXcXkXNX_.cXcXNXkXfXcXMXKXcXkXhXZXlXcXNXkXlXlXzXAXAXJXhXNXKXNXVXNXZXNXNXZXNXKXMXzXBXzXZXZXxXMXzXBXxXBXlXlXBXMXxXMXlXAXlXMXBXlXgXMXBXBX[.lX[.MXMXMXMXMXMXMXMXMXMXAXAXAXAXAXMXlXlXlXfXMXKXcXSXAXNXNXAXkXjXNXkXVXjXBXlXNXzXMXBXlXlX[.MX[.lXZX[.lXfXNXgX[.gXlXlX_.).]._.`.].].].sXgX].sXgXH.).b.).b.n.v.J C.J M.v.J J H S C G S ! ' ' $.H W H S C S ! C S C V y.! W F $.=.L.#.G $.U *.5 - L A 5 R L ; * p . k f O O M . j .   h , . = ; > L L * L 2 * K . L * E 2 A L A S - S U P Z A - 2 A 2 3 3 L L A 2 K L R E * L R 2 V p 2 ; E p # ; r > k < 1 T M L < = l I | 5 = X.D D D @.G _ %.7 >._ ,._ _ 1.1.%.<.1._ _ _ _ _ _ _ %.&.%.P.L.%._ _ %.1.F.&.1.F.[ _ [ 1.<.&.F.<.[ 1.'.F.F.V.F.(.*X}.2.F.1.1._ %.@.<.,.%.L.P.<.{.F.F.I.}.F.F.%XF.V.V.;XI.+X*X}.<.g.<.<.%.|.P.P.P.+X<.<.8X;.%.P.,.s.-.s.-.,.-.P.a.T.a.} s.k.@.k.",
"Q r.*.=.#.$.H $.H =.=.W ;.#.K.W #.G =.s.#.- %._ $.A.N.N.Y.m.H N.;.H #.=.=.U =.} S F ;.=.S F N.L.$.%.A.A.<.<.S.<.;.&.P._ $.` A.F.D.<.F.F.S.1.2._ F.A.V.2.V.F.2.F.[ <.%.D.2.` <.V.'.Z.F.D.S.A.M.%.A.<.[ 2.D.2.&.&.H &.&.M.&.H G G H G F $.#.;.G H #.$.#.F #.$.#.` F F D F A U U I P D 7 F -.s.} _ _ %.Z D _ } #.F -.D U D U } A U } } S D U.P U U y.F F Z U Z y.#.H F S } } D A 1 l > u y @ 5.. : j ; u u ; y r i ; O r : n T O > 3 E s K K 3 P K V P P W ~ W S H C C m.$.J G J J.v.J J.b.J.b.J.).sXsXn.`.nXkXsXfXhXfXjXVXfXkXhXjXfX[.lXlXAXlXcXZXfXKXhXZXSXSXZXMXVXSXhXLXVXNXSXjXZXcXNXNXkXNXMXNXBXMXzXBXNXZXNXlXNXZXzXxXNXzXgXlXMXBXlXlXAXBXBXBXMXMXlXxXMXMXMXlX[.lXMXMXlXMXMXMXMXMXlXlXlXlXSXAXSXSXkXlXlXkXkXVXjXNXKXkXkXbXNXzXfXlXMXNXAXlXAXNXSXlXlXNXzXjXNXNXzXBXkXzXzXlXbXlXfXgXlXgXsX].gXxX].fXfX].H.J H.=Xb.=Xb.m.m.m.M.m.S S G ~ G H ! m.H ! H ! W ! W S V S S S =.#.#.;.;.W ;.;.Z ;.#.#.A 5 U L 2 L i ; Y k O r ; O & x   l g f g < , h h > h > * L p i L 3 E 2 L - P W C - C U #.! F 3 S P L A A 2 V 3 L L 2 - L - 3 V U V 2 A 2 * p p p s s ; j p Y T g k 4 g l g I I D { - 7 _ %.@.%.%._ %._ _ _ _ ,.<.7 _ _ Z D @.` 2.%.` %.2.%.P.1.%.%.%.{.aX{.1.{.1.2.2.&.1.F.s.F.2.2.Z.Z.'.-X:X(.:X:X*X'.'.%.%.} ,.} -.} @.g.U.P.F.2.F.}.F.F.2.] F.F.;X8X&X;X;X8XP.F.L.,.<.<.<.s.<.g.,.&.+XP.P.P._ ;.-.k.-.-.t.T.t.k.s.-.U.s.t.8X",
"U *.y.$.=.;.F $.$.=.=.W K.*.W W =.F ;.s.<.A ;.%.$.S.N.A.A.$.H N.;.F W #.#.G F P W U =.*.W F W #.&.;.A.S.2.V.I.S.I.%.F.;.I.%.<.D.}.<.&.D.&.` &.D.F.F.V.V.}.}.V.F.%.F.&.1.[ A.*X}.'.V.Z.V.D.2.<.&.&.] &.&.;.&.&.[ G ] H G #.;.H Z F H F &.N.N.%.$.` ` %.H #.` #.F Z U A *.S } *.*.A U S -.%.#.#.-.Z F _ #.#._ -.F U Z U Z A F - #.*.U D A y.Z #.F s.U A S #.S s.#.U S D F U A A I j > ; @   s u O T : w r O u j j y ; , ; 0.T O Y s 3 3 K V V K E ~ E W =.W F Q =.H S S S C G J c.J.b.J.J.b.).).).hX].bX`._.dXsXbXfXjXkXKX_.hXkXZXBXSXZXcXSXkX-XcXSXAXkXfXlXzXAXMXcXJXSXNXCXVXNXNXZXNXAXZXAXNXAXZXzXAXNXBXzXlXlXBXMXBXzXxXMXzXMXZXAXZXMXzXMXMXlXMXMXMXMXMXMXlX].MXlXlXlXMXlXMXMXMXMXAXMXMXZXAXNXlXMXSXkXZXAXSXkXAXfXkXNXNXbXBXNXNXlXNXAX_.`.[.NXlXMXlX`.lXzX_.fXgXfXzXxXfX].[.lXlX].n.].[.gXgXxXfXH.J.).n.J.`.H.n.C.C.C.Y.G J J J S J C J H H J J J B.! G C C C C P C S C F W S H #.Z F $.- $.F A C - L A 2 p 2 > j : . r . f : M . : ; < < ; , > i 2 Y 3 ; p 2 2 2 2 2 A A E Q U *.S W #.U F =.S U *.*.E *.*.U A Q *.A V U - R S P S V A L 2 p p K b p * , , , g , L I T I l l I I X.D _ _ } 7 D 7 _ _ %.@.%.D %.P._ %.1.%.@.T.+XP.}.;X+X1._ s.<.@.1.1.%.P.}.+X}.'.2.{.1.<.P.L.<.F.F.;X-X;XvX:X*X-XvXpX'.F.%.1.,.-.D s.<.<.<.#._ %.}.}.I.%.F.2.;XF.2.;X;X}.}.L.I.%.@.P.<.,.} @.s.P.T..XU.+XU.1X1.%.g.s.P.,.-.-.l.,.s.a.-.l.a.-.k.",
"V Q s.U $.N.! &.=.! ! W L.W Z W %.F *.s.-.Z %.#.` A.S.m.&.$.$.=.=.H W #.U #.#.} =.*.#.%.;.=.G G N.A.<.A.V.A.F.&.V.&.I.&.%.` &.F.2.;X;XI.%.F.F.2.] 2.%.F.}.A.] ` [ 1.%.<.&.D.}.V.Z.V.'.F.F.S.A.A.' _ V.V.<.V.I.F.&.A.&.` $.I.;.` G ` ` $.I.#.A.N.S $.N.#.H #.$.#.#.%.} =.D F P A Z } D *.#.D @.%._ _ #.-.#.} ;.U *.F =.U U } A ;.U S U G -.Z F D F A G G U F =.F A S U S U I I j . w s u ; b m . n w p j r j n b O j 5.r Y p ; 6.K * s K V K P Q V ~ C W S C W ! S J ! m.B.m.b.c.c.J.c.J.c.xXJ.).).sXbXH.fXzXsXVXNXzXjXcXlXSXAXBXlXkXcXNXZXKXkXMXNXcXKXhXNXNXAXAXhXCXNX-XVXCXVXCXbXkXMXZXBXMXMXMXMXZXBXxXMXzXxXMXxXBXNXBXNXgXgXzX].fXlXlXlXlXlXMXMXMXAXlXlXlX[.ZXMXMXlXMXAXMXMXMXlXMX[.MXZXZXZXSXcXcXMXZXSXMXcXZXVXVXcXZXkXNXfXkXMX_.fXzXAXSXlX_.`.NXBXBXlXzXkXfXkX].BXlXfXlX_.xX`.].xXn.].[._.J.gX].`.`.n.J.J.n.v.M.C.J ' G.J J G S C G ! H C J B.L.! C ~ S ! V W C S S S H F S #.F #.=.Z ;.F Z - - A L 2 1 p p T ; % j . . . l f , . . , i > < 1 < T * p 3 ; 2 p E 2 U U W =.A P W ;.=.#.W y.;.U *.U F *.U } F U *.S A U S *.Z U L S L E Y P 2 p p p i > . * i < k j 1 f 5 5 < 2 D 6 7 7 _ D ;.1.1.%.%._ _ _ %.%._ _ @._ _ ,.<.%.<.F.<.<.` <.%.G %..XF.F.1.1.}.'./.&XF.;.F.1.&.2.D.:X:X'.'.'.'.&XvXvX*X<.%.1.1.,._ g.-.;.<.<.F.F.F.}.}.2.F.F.'.}.F.}.&XP.P.&.<.-.,.g.,.%.} P.8XOXP.s.s.s.s.U.T.;.s.-.s.s.<.l.k.s.P.s.s.s.s.,.-.",
"S U K.U &.N.#.;.#.$.#.S L.#.S $.$.F *.s.#.D *.#.$.V.N.B.M.&.=.$.` H #.U W -.=.*.;.*.;.-.y.=.H $.L.A.A.I.S.F.D.2.F.&.<.&.<.V.F.F.[ I.F.A.] *XF.[ I.&.[ F.*XF.%.[ F.F.%.<.<.S.D.D.F.Z.D.v.V.D.[ M.V.%.D.<.&.2.F.&.] <.V.;.$.$.F ` J $.#.F ;.H ` #.G #.#.W G #.#.F } G F F A I U U D } A #.} F =.F F D } #._ Z -.F #.D F Z D #.Z U D Z #.F W #.Z Z F G } U U #.#.*.A L R U X.L 5 ; u n s ; # s e.p   : w ; ; % > > . j R i > Y i ; 7.K 3 K K 3 Q P Q W ~ =.W C $.N.C ~ J J J J c.b.c.b.=XH.b.].xX].n.].).BXsXjXNXzXfXbXbXNXAXMXlXlXNXMXNXkXAXkXhXAXcXbXSXMXNXlXkXkXKXJXJXAXcXAXMXcXZXbXkXZXBXZXNXBXMXZXBXgXMXZXMXlXMXzXgXgXzXMXBXZXzXAXZXMXzXZXCXxXlXMXzX[.lXBX[.MXMXlXlXlXMXMXMXMXAXZXzXVXZXNXSXMXZXcXAXcXNXkXkXKXkXBXVXVXkXNXbXkXZXMXSXlXlXMXAXkXBXgXfXNXzXzXfX].NX`.lXlXlXMX`.[.zX`.xX].[.`.[.].H.`.bXsXH.H.J.v.C.c.b.B.J G J G C ~ C G J ~ S ! ! $.J C ! C S S S C U W H S #.H W &.L.#.W ;.=.F - 2 5 A 3 ; 1 > Y # . b   O : 6.: g < O r r < k T 1 L . 2 > 1 L 2 P L A P F =.F H #.F ` #.#.#.#.F *.F G U G G A G F Z F U U F - =.D S R U K E 1 > 2 2 p > * ; 5 l T i < 1 l T I 5 I } I D D A } ` #.%._ _ _ 7 D D %.D 7 _ P.1.<.{.F.1.2.<.%.1.1.G _ @.Z %.{.;X1.2.%.F.<.%.<.F.F.F.}.}.2._ V.'.'.'.'.F.F.[ _ _ %._ _ -.%.%.1.<.<.*X}.F.2.I.}.V.F.F.&X}.}.<.F.F.<.<.P.@.-.-.s.+XT.s.U.s.+XU.y.} -.s.,.-.<.s.s.k.P.-.-.-.+.-.a.<.<.",
"S *.;.#.;.N.$.N.H N.=.W =.#.#.#.#.} *.U.%.*.%.;.;.N.N.A.S.N.$.#.! #.#.F F $.U S U F W U W H S H #.&.$.I.&.F.F.2.F.] V.&.&.` ] F.;X}.M.I.<.V.] <.F.] &.<.<.&.2.&.` ' &.<.2.<.<.] Z.'.Z.2.2.F.G %.` ] ] ] ] &.A.V.` ] V.&.` &.` &.F ` &.G F A.F #.;.&.#.;.U %.#.F *.G } D D Z A U A } D #.} } <.} -.%.#.;.-._ ;.;.#.F U Z U #.D W #.G F F F K.S Z F Z P F Z S V r.P 2 L L P * ; : w s u b s ; n r . p r u r : r i j i r n ; Y , * 6.2 2 P ~ V ~ V W P W $.! C W $.J ' m.A.B.B.m.B.b.b.H.J.J.J.].J.].jXb.).].sXfXsXCXnX_.fXkXcXhXSX_.NXSXAXSXSXkXcXLXNXAXhXNXNXkXNXbXhXhXcXVXNXcXSXJXzXkXBXzXZXMXMXxXMXZXzXMXMXgXMXBXzXMXNXBXZXxXgXzXBXBXBXMXbXbXBXMXBXBXBXMXZX[.lXMXMXMXMXBXMXAXBXNXNXlXNXZXcXcXkXAXcXAXcXVXVXkXVXgXNXjXNXkXAXNXkXSX[.[.kXMXfXMXAXlXgXzXlXfXkXBXBXZXlXgX[.lXzXgXxX[.BXMXJ.].].].J.`.J.].b.b.dXH.H.sXY.[ J m.M.B.C H J J C J G J $.G H ! S ! 3 W W S S S F W F =.F G $.;.G F W H U D A A L h h T j 6.w # Y : ; # y # : e ; i , * j 6.< p * L L L L 7 P A D U U ;.U #.;.S S #.` G F #.$.#.U =.#.U Z #.*.U #.#.;.F F K.A W y.U 3 L h K p > > ; f , O * ; . ; < * > L 5 5 L I r.+XT.yXrX;XP.<.<._ #.%.7 F.@._ %.:X+X8X8X;X8XF.<.` 2.<.+X{.%XrXrX{.}.%X%X}.:X8XP.1.<.<.1.'.:X;X:XvX:X'.(.'.F.D.<.F.1.%.F.1.%.@.%.P.F.F.F.] F.F.F.'.&X;X&.}.F.I.&.1.%.%.@.s.%.d.s.k.P.@.s.k.} ,.s.T.L.T.s.P.U.s.U.,.s.L.-.s.s.$XP.s.,.g.",
"U W *.=.;.;.;.N.#.N.$.#.F #.#.#.F F ;.s.} } %.;.;.M.M.A.I.N.W $.;.=.;.U F =.D U } W -.;.;.;.W F ;.;.&.}.V.D.'.D.D.I.F.&.V.I.V.] &.V.2.F.&.I.F.I.V.A.I.A.&.V.<.I.` 2.F.&.] A.D.S.D.'.Z.2.Z.V.[ F.&.F.] &.2.&.] &.` [ ` G ` A.&.#.` ` ` ` ` L.#.$.#.F F _ G F F G F - D D U Z U =.A F U } #.F <._ #.#.F #.#.F #.#.Z F F Z G F U F H F Z F F =.F } =.U U } U U D y.E 1 1 ; 2   < f ; u # u 8 # s n O , : r ; O p p p > p 6.; ; * Y K * P P K P V P ~ S H W $.C S J C J J m.c.b.b.=XY.b.J.).b.J.].]._.fXzXBXNXdXhX_.fXzXkXNXcXzXlXAXMXAX[.fXlXAXNXlXNXjXSXlXAXZXMXNXLXAXSXcXJXhXNXZXAXkXNXBXkXZXzXNXNXgXMXBXBXzXxXMXzXlXzXlXMXBXMXlXBXBXzXCXBXfXzXCXMXZXBXAXMXMXlXlXMXlXlXlXMXMXMXMXZXBXlXNXSXNXZXcXBXMXNXkXMXNXkXNXVXBXfXCXkXkXkXkXlXMXMXSXkX_.lXlXkXkXkXMXzXfXfX].zXlXgXsX[.fXgXMXJ._.[.].].J.gX].gXsXJ.`.H.J.G.H.G.[ J [ J b.b.J ` J ~ G H J ! J ~ G C G ! C =.Q =.S S S #.=.#.G A H #.F G F U F C - - 2 = 1 h ; ; .   Y i u r y < % r r l g ; > Y . 5 2 L L L A A A Z S F Z G 3 Z H H &.N.#.` %.H _ ` #.;.H _ F ;.$.H W =.#.F W =.S U *.U 2 A L Y L p h < l i * < , ; i p ; > 2 L 5 L A X.X.D D _ _ %._ %.D D } D -._ _ D ,.1.<.` %.%._ %.2.1._ 1.2.<.1.1.}.}.{.1.F.}..XP.P.<.P.1.2.F.}.'.'.'.&XF.Z.2.F.2.{.'._ %.1.` 1.1.F.2.%.2.F.F.*X*X}.<.1.}.F.1.P.F.1.%.1.,.<.P.1.<..XP.a.P.s.} -.s.T.s.U.<.g.P.k.T.,.U.P.-.U.P.8XP.1.%.<.",
"U U } =.N.;.&.N.;.;.#.K.#.S *.&.F } ;.%.U F %.;.$.M.$.' N.N.#.#.=.#.#.W U *.S *.U #.=.=.*.=.#.F $.#.` I.&.V.F.V.F.F.V.D.2.'.2.F.F.A.&.I.D.D.<.V._ S.}.] &.A.` 2.] %.A.F.V.F.F.D.n.}.Z.n.Z._ ] '.[ D.%.V.V.&.2.V.F.` ] V.&.A.' &.H ` G =.$.Z #.#.G S #._ F #.L.%._ A G F } A y.T.*.U } #.-.} ;.D #.%._ -.%.#.} } S _ F D #.#.-.` Z H Z #.F F F #.} U Z P D U U *.p p Y > 1 . u e # 8 8 s u > i n r : > b u O Y h . u i L > Y p p K V V P K S W ! ~ S H ~ $.J G ! J J m.b.m.B.c.J.b.J b.`.b.b.].].sXlXJ.`.]._.BXbXgXkXkXlXlXkXNXkXNXMXkXAXKXfXNXcXkXKXfXAXlXSXkX-XJXbXNXAXMXcXZXVXBXjXZXNXlXNXzXZXBXBXZXBXzXMXZXzXMXBXZXzXlXMXMXBXzXZXbXbXBXBXZXNXMXMXgXzXMXxXBXBXMXlX[.MXlXMXlXMXzXNXMXZXZXAXKXcXSXZXSXZXVXNXNXVXVXNXNXkXNXfXBXZXlXlX[.kXAXlXlXfX`.ZXfXlXfXBXMXfXfX_.xXkXlXlX`.fX[.gX`.].zX].fX).).[.].J.J.J.H.n.n.J J J [ J J G G C J G ~ G H J J ! ~ =.! S ! F W Z F C S F Z C Z F #.;.F #.#.F U I - 1 1 p Y # ; s # j O # : r g O i g : , < * 5 * I L 2 2 5 P U F U #.#.F #.$.` ` #.&.&.G $.&.F H ;.;.#.Z G F =.#.A S =.F F F F D A Z *.P P 1 1 2 < Y ; , ; < Y Y i ; > , i > T 2 I 5 - A A -.Z _ D ` _ F } <.%.} %.%.<.P.}.}.1.F.{.[ %.1.1.%._ %.1.P.F.+XP.1.1.1.+X}.{.}.P.1.F.1.{.}.1.'.F.1.2.F.F.;X2.1.%._ %.1.%.F.2.%.2.F.F.*X;X:XF.'.2.F.P.F.}.<.<.<.1..X1.1.$Xs.+X6X<.-.U.} } %.L.g.T.8Xs.L.U.<.P.-.s.s.P.6XP.8XP.{.F.{.",
"F S ;.N.;.F N.L.#.=.$.#.#.W $.s.F F *.#.#.} #.%.&.;.;.` &.$.;.=.H #.W W F *.U D *.U *.*.F #.W G F #.#.%.;X;XV.;X;XZ.}.I.D.V.V.'.A.D.[ F.2.V.S.` F.D.A.A.&.D.D.] ] F.V.}.A.V.V.S.*X(.] Z.'.] ] &.[ 1.&.C.F.[ }.V.D.%.V.] V.&.` &.&.` $.#.;.F ;.F - _ D F %.#.<.#.} F } D U G U -.D F } } %.F #.F -.<.#.G F ;.#.<.#.#.G #.Z #.W S G F F H =.-.Z - s.S U A U X.*.L r p ; u > O : @ 9 w s m : u > i   < . i j . p T u p Y > > 3 p 2 V P V E P ~ W ! $.W B.! B.! G ' J c.b.B.C.S.B.B.J.c.J.J.].J.`.].`.].jXxX_.CXlXBXMXlX[.AXAXMXlXlXlX-XlX[.lXfXKXMXfXZXcXZXcXBXSXAXNXcXcXjXSXkXNXNXlXlXMXBXAXzXMXMXAXlXAXMXNXBXNXBXBXNXBXzXBXMXlXZXBX[.ZXBXlXNXNXbXbXbXCXVXzXkXZXCXMXMXlXlXZXMXBXMXAXMXlXkXcXkXJXNXNXlXcXMXNXSXZXAXVXjXAXZXNXjXkXNXlXAXlXAXBXNXSXkX[.ZXNXzXlXlXjXlXBXzX).[.].fXlXgXgX].`.[.`.`.].`.].`.J.n.J.J.n.J.C.b.G b.C.G J J C B.J ~ C $.J H ! J ~ H ! Z W S W S F W W H S G - S ;.F * F #.#.- - 5 A = 2 p j O i # i @ . y ; j   L < h h , 1 1 - I - 2 5 A 5 D Z #.Z Z F H &.H $.F A.A.;.I.L.N.&.#.F #.#.F F #.U W F #.W - #.Z #.C A A * A L 1 2 < p i . 1 > . K p ;   ; 6.K > h Y L E 7 X.I &._ _ %.F _ -.} -.Z _ _ P.<.<.<._ %._ _ _ %.2._ ) 2.{.1.1.<.1.F.:X.X}.{.}.<.1.F.1.1.rX}.}.F.&XF.'.}.F.2.2.] {.F.%.%.1.2.1.1.F.F.}.(.}.F.F.F.I.{.&X<.<.P.1.1.P.{.1.1.%XF.%X{.}.<.%.%.&.<.L.+XA.<.+XU.-.<.P.P.U.<.P.{.I.+X+XP.1.}.",
"U W *.;.$.F A.A.;.;.;.;.;.;.*.$.G D ;.X.*.} %.$.<.&.&.' &.` #.#.U F U W S *.U #.*.W #.*.W W =.U F F #.&.D.;X*XmX'.] D.D.2.V.(.F.V.V.;XD.D.2.F.S.D.;XA.[ <.D.&.&._ F.V.D.I.&XI.V.D.'.n.2.'.n.V.2.] D.&.2.F.] D.V.F.[ [ &.] &.' I.A.N.<.&.` A.#.#.F F G _ ;._ F _ _ D F } s.s.L.s.%.#.} G *.%.;.} #.#.%.%.%.%.F $.F #.Z D G U F Z N.W Z H #.=.W S Z - I I T L T h Y s # u d . $ y + 8 b 8 # b . Y : ; : : k ; i Y p p 2 p i p i 3 A C V W P C S H ! $.S.K.N.$.J G J b.b.m.J S.J.b.b.b.c.].xXJ.[.[.bXgXgXjXgXJXzXbXMXMXMXAXlXMXlXMXAXMXlXLXAXAXBX:XJXZXNXAXcXZXZXNXkXVXAXJXKXZXNXKXNXlXBXZXBXlXBXMXMXzXZXAXBXBXMXMXZXzXMXBXMXMXlXMXkXfXzXNXCXNXjXCXJXkXbXbXNXkXBXMX[.lXMXlXMXMXAXMXZXMXNXZXZXMXNXhXAXZXZXSXkXMXbXfXNXkXVXkXAXBXjXjXzXSXlXMX_.[.[.MXSX[.[.lXfXAXMX_.zXlXlXlXgXlXlXgX[.].xX].J.gX].J.J.xXgXn.].n.H.b.b.G J J J J J ' J b.G G J J J ! $.! ! F H S ~ S S S S #.F H Z Z ` ;.U.K.H $.*.F 7 2 5 2 = h g O # . # T b O i h T < 5 . < 5 5 A 5 * 7 - A D A F Z F #.=.` #.$.A.N.*XA.U.A.I.L.&.#.U S - - #.W S S C S A S P C Q - P - Z A 2 L L 3 p 3 j i ; , : > s 5.; i > p u > h E 2 I 2 R D _ 7 } -.} F #.D _ 7 D _ ;.<.%._ ] %.[ _ G G _ %.2._ _ 1.%.1.P.8XF.P.F.1.1.1.<.1.%.%.1.2.1.F.{.V.2.2.<.F.{.<.F.1.P.F.[ {.F.;X}.;X;XF.F.}.;XD.1.2.}.<.F.+XP.<.s.}.F.1.}.{.rXF.}.{.g.2.1.F.<.F.%.}.A.F.<.I.P.+X*X+XI.{.}.P.I.}.{.&X",
"X.L.=.s.;.#.N.;.&.;.L.y.-.#.U _ D F ;.*.} U } #.&.N.A.$.$.F ` #.=.=.*.W U =.U Q U U *.W *.W =.#.*.=.G G A.S.[ F.D.*X;X;XD.Z.Z.Z.C.F.] ] F.] *X'.D.V.] 2.*XD.[ 2.] D.V.[ &.D.V.] F.V.2.2.1.2.] ] ] F.&.2.F.2.V.V.V.[ V.}.A.S.' &.N.&.` $.G ;.F G %.} G _ A.1._ ;.%.;.1.-.;.-.#.Z } G G D ;._ #.%.&.#.&.;.<.` } #.#.;.U F U #.#.Z ;.H ` #.U H =.A A U L L L 5 Y n y s # @ % # o 9 u 8 s @ : p . T n O > . j , u i K p ; E 2 K p L V A Q S =.P ~ S ~ J $.K.m.m.J b.c.J c.c.b.c.b.B.J.b.J.J.].`.`.J.`.`.`._._.fX[.kX_.[.MX[.[.MXMXBXMXlXMX-XNXAXkXlXLX-XLXkXhXkXkXNXVXAXhXlXbXAXjXZXNXZXAXlXzXlXMXAXZXzXlXMXBXMXMXMXMXxXkXNXlXNXNXNXNXBXMXgXBXBXkXjXbXjXBXbXbXzXkXkXlXMXAXMXMXMXMXlXAXlXkXzXcXSXAXNXAXkXcXSXZXkXNXkXkXgXkXfXkXNXlXlXNXfX[.zXlXNXNXAXBX_.BXNX`.kXgX].kXlXzX].fXkXgXMX[.J.lX`.`.[.].[.`.[.J.`.n.b.J.b.[ b.J b.J c.C.m.J G J G J J J m.$.$.! $.! F H C F H S =.F $.G G #.&.U.;.$.*.#.P A 2 A 2 1 5 i < ,     j >   ; < h I R h 5 5 - C - - A S F Z D F #.#.G ;.N.&.A.A.N.A.$.&.F G G Z Z Z #.W Z A S U y.U L U A U P Q A A V A P A L 2 , Y , k j p i i . ; 5.O ; # . ; . > T . 1 * h L *.7 } F } U } } } _ _ L.<.+X}.;X}.N.1.1.L.}.I.+X%X}.1.F.;XL.s.} %.<.g.P.F.P.1.<.P.<.<.s.P.&X{.}.1.'.%XrX;X}.8XpX}.+X}.F.{.&X}.}.&X'.'.F.'.1.P.P.&.%.F.}..XP.}.&X}.{.%X}.rX}.;X;X:X*X}.;X;X;X}.;XA.F.}.;X+X;X+X8X;XI.;XP.&X;X;X;X",
"P y.=.*.%.$.$.#.#.;.L.;.U #.} #.F F ;.#.} } } #.$.A.N.` #.&.$.} =.#.#.U U W D S W U *.*.K.W =.#.W =.U ` ` ;X;X*XG.;X;X*X(.;XD.'.Z.Z.V.-X*X[ [ '.2.=X*X] }.D.[ ;XF.'.F.2.D.I.V.D.(.C.2.n.Z.F.[ V.[ %.] V.D.[ ] F.] G [ V.&.V.&.2.] ` _ ' #.F ` F G F F #.-.%.G _ #.%.} Z D F #._ Z } #.} L.#.%.%.` %.%._ _ $.#._ } ` F Z Z F F - S H #.=.F A } - 5 R 2 1 Y > <   t y @ O : e % 9 s u @ @ s ; . i T u > ; h p p > p > i Y ; p 2 E V C V C =.B.J C m.' B.A.[ ' J J b.b.b.c.m.H.b.J.b.c.J.].].xXJ.].[.jXxXzXlX].gXbX[.lXAXlXkXAXSXMXlXlXNXMXzXNXKXhXNXZXkXcXkXZXjXAXZXKXKXBXVXNXzXAXNXzXNXZXMXlXMXMXMXMXNXKXZXMXMXAXAXZXMXNXMXNXlXBXNXMXlXMXCXkXNXnXjXzXAXjXjXNXzXZXMX[.lXlXlXBXZXZXZXAXZXBXNXZXAXcXSXcXkXcXVXAXAXSXZXjXVXJXlXjXVXBXAXlXSXMXMX[.lX[.kXNXZXMX_.fXfXlXkXgXMX].fX[.`.`.].gXxX].n.n.J.`.J.[.[.].H.J.).J v.b.b.B.b.G.H.B.' b.m.G J J J $.m.! $.N.N.W W Z ! H S #.F H F F F F #.G G F D F A - L A 2 < O j r . . ; 3 i Y 1 g I I L 5 5 = 7 = 5 U G F A G F #.<.N.U.;.#.A.N.A.&.H F #.#.#.D U U #.S - S U D A C A *.L Q A A R U L U L L 2 1 1 L > i Y r u b s ; 5.; p u > p ; i R * Y 1 5 L *.D #.A U } } #.#.F _ %.G %.%.<.Y.+X8X;X+X+X}.P.+X}.<.:X8X8X+X8X6X+X;X%X}.&X8X}.+X+X+X%X+X&X}.;X{.&X}.}.+X8X8X+XP.8XrXP.{.F.F.1.F.F.F.F.+XF.}.A.{.}..X+X+X+X}.+X&X;XpX&X;X&XpX;X;X}.}.*X;X*X'.'.}.I.*X}.S.I.D.;X;X<.}.'.;XI.'.F.",
"*.y.L.#.#.;.;.L.L.*.;.*.#.-.} #.} F *.} #.} *.#.;.A.%.` $.A.;.F W W W S S *.*.U *.U =.*.U.! W U Q =.W A.Z 2.*X}.I.C.;X(.] Z.Z.'.2.Z.(.[ n.2.V.Z.pX] 2.D.*XF.] V.v.Z.D.D.;XD.] D.*X'.F.V.V.:X<.2.F.&.F.*XD.2.S.D.D.[ 2.V.&.[ H [ &.` ` &.A.F %._ Z ;.&.<.%._ %.1._ #.} %.<._ G 7 ;.P.U.;.L.` _ F G ` ` ' _ &.;.` ;.S #.#.F *.*.S F W F W #.A U 5 L 0., i Y d s @ 3.s   X 4 d % d 8 9 8 u > O < * k j . i i u h i 3 p E E K p K L L S S S W H ~ ! ' J B.B.m.B.' b.J.B.c.J.B.J.J.J.c.b.J.].`.xX].J.[.].gXlXBXgXzXzXlXMXMXMXMXMXMXMXlXMXSX[.MXzXjXcXVXhXKXcX-XZXLXkXhXjXfXSXSXAXZXzXfXZXAXMXBXAXMXMXZXMX[.lXMXNXAXAXzXAXlXBXAXZXzXNXzXMXBXBXBXfXbXCXCXjXnXbXNXCXlXZXAXMXMXBXAXBXlX[.NXkXNXBXNXZXVXkXKXZXMXAXkXSXhXgXAXjXNXKXhX_.MXkXkXlXSXlXMX_.NXkXMXzX`.`.kXNXzX`.lX[.lXgXBXzXlXBX[.MX[.gXxXxXxX].[.`.`.n.J.[ [ b.J b.J b.' M.b.b.C J J J G ~ J B.m.J ! $.$.G S S W F S H F F G G $.;.A.#.W =.$.=.C - A 5 , < . 4 % . < 4 g k I < 2 2 = - - 7 * - _ #.#.#.;.&.;.A.#.A.U.A.N.$.&.` G &.A.F H F L.U.A D *.} S U *.U U L P r.A Q U E P 2 A 3 3 1 g L > > ; O n . O s > u   ; s @ s ; : # p . Y > * < = 1 t.I } *.} F %.G %.%.F _ F G F _ ` <.+X8X;XI.U.I.;X#.-.<.+X+X+XU.P.+X&X;X%X}.%X8X8X8X8XT.F.%X&X%X+X+X%X8X+XP.F.}.s.+XP.8X+XpX:X'.&X;XpXI.+X:X8X+XU.;X%X{.}.;X+X}.;X*X;X&X;X:X:X;X-X:X-X'.(.;X-X;X:X;X*XmX;X;XmXF.;X;X:X'.'.F.",
"R Q K.U F $.` ;.A.U =.*.U #.} #.#.F *.U } } %.#.&.N.&.&.&.;.#.} =.*.*.S F *.*.U U U *.Q T.=.W Q *.*.A ;.] &.*X;X;X*X*XC.[ ] v.'.-X'.n.'.)._.(.:XG.C.-XZ.(.V.V.V.F.'.Z.'.*XD.2.C.Z.C.n.V.2.n.[ ] F.[ V.S.2.] 2.F.] 2.I.S.V.V.V.` &.` %.[ ` $.F Z } %._ ,.%.G %.F.G _ D G _ 7 G D -.` _ ` <.` $.;.2.<.%.%.` %.#.%.%.F #.#.Z W W Z C ;.=.Z U P U 2 2 Y * O : @ 9 t @ t + %   f   t # 8 5.u O i < ; i Y . j > > p > > ; p ; 3 ; L V 3 H W W H H $.I.B.J B.J v.S.J b.=XB.B.b.c.J.c.b.c.c.J.].`.`.`.J.sX].lXxXlX`.gXlXlXlX[.lXMXMXMXMXlXMXAXZXZXNXZX_.jXJXcXNXzXkXNXZXVXCXcXKXjXlXAXfXZXAXMXAXMXMXBXZXBXZXAXBXAXBXZXMXMXBXMXAXlXkXMXzX[.ZXlXgXzXzXNXJXCXbXBXNXCXZXfXzXlX[.[.[.lXMXBXMXKXBXBXKXVXNXNXcXAXSXNXAXAXkXlXNXNXNXfXNXcXkXcXNXMXMXlXlXMXfXNXlX_.gX_.zXkX`.kXgXzX[.lX].[.[.].MX`.[.].].J.J.J.`.[.J.].].b.J.b.J C.G.J n.C.m.b.[ J ' J [ J C J b.m.H ` $.! G G C =.H ` #.` W F F G F #.#.Z F A Z = = 5 * 2 L < < . < < k , - < 2 6 A I U Z S Z *.U #.#.%.L.#.$.A.&.$.] Z ` %.H G H H H Z F S =.#.G S U #.S S *.y.U P S P 3 L P A 3 * 2 1 3 > 1 h , . > ; n   # : . n . 6.s ; b > ; ; Y s Y , i L * * R A U -.;.#.F Z ` %.%.` #.} Z F ` <.&.H <.}.+XI.+X+XU.8XP.U.U.g.P.{.}.+X8X+X%XT.6X8X;X8X{.;X}.}.:X:X}.{.{.:X%X8X3X&XF.+X+X;X;X%XrX}.+XF.+X8X}.P.}.+X+X*X+X%X+X+X+X}.8X;X;X-X=X;X-X-X:X-X-X*X'.(.(.*X;X:X;XD.*X*X=X}.*X'.(.F.",
"Q *.y.;.W %.` #.;.S *.#.D U D } #.} -.F } } #.#.#.&.&.A.$.%.#.#.;.W #.S P S A P S D W P U.Q U W *.P *.=.G &.nXN.:X-X] [ Z.'.Z.Z.-XfXn._.n.'.(._.-X[ n.Z.V.] Z.2.Z.`.2.v.2.V.V.D.D.V.n.D.2.[ ` 2.V.] V.2.2.2.V.] 2.'.D.] [ V.2.[ ] ` &.%._ ` G F &.#._ %.1.` %.7 _ 1.%.%.` G ` %.P.%.` %.<.G ` %.&.&.` %.%._ ` ;.W #.F F Z S S C C =.y.V U I L 3 1 g : y y e X 9   M M 9 o d o 4 # u M ; ; i > 1 g T g n p i 2 p Y K L p K K 6.E W ! S C ! ! B.G J J c.J J ' ' m.Y.J.c.J.b.b.c.J.J.b.gX].gXxX].].[.].BXBXxXsXzXBXZXMXlXMXMXAXMXMXlXMXMXMXkXZXkXVXZXcXkXcXKXAXkXSXSXAXNXZXSXAXZXzXMXKXNXMXAXAXMXBXZXAXMXfXAXBXBXMXzXMXNXSXzXMXZXAXZXZXgXzXzXfX`.kXBXNXbXkXlXBXzXNXMXAXAXMXBXMXBXMXNXkXlXZXSXNXNXVXlXcXAXkXAXVXZXVXbXkXfXfXlXSXlXSXlXlXlXfXzX[.lXlXlXlXlXBXBX[.lXgXfX`.lXfX].zX).gX`.xX[.J.].gX[.].].J.H.n.sX`.b.J.Y.B.v.b.b.Y.J J b.J J b.b.J J m.$.$.m.;.$.G J S #.W #.$.#.! H F #.#.;.L.F ;.#.U - 3 L * 5 R , , . g . I 5 < 5 R L 7 U - . - G L.#.;.N.A.A._ [ &.F #.` Z G H G ' ;.=.#.#.=.Z U #.Z U U U P D P * - - A P A L L 2 2 2 L E L 1 p i p ; y r n @ O : # n 8 6.; # m s   ; s p r ; p Y r ; 1 2 2 D -.%.%._ $.` ` ` #.$.#.#.` #.` F ` ` A.&.P.L.U.8X8X;.U.U.P.1.<.F.}.;X+XP.+X8X+X;X+X;X%X&XaXrX3X8X%XpXP..XeX}.{.3XtX&X&X;X%X}.;XtX8XP.8X8XpX8X%X;X8X*X+X+X;X*X;X;X:X;X=X;X:X-XkXhXjX'.(.(.(.;X-X:X=X*X=X:X=X-X;X*X=X*X",
"Q *.U ;.F #.$.y.L.A U } U #.D F U F =.U U } %.` #.;.$.' ` ;.#.} #.P Q U *.S P U U *.*.F y.W S W *.A =.L.<.C 8X*X(.=X] 2.V.] *X] Z.F.hX:X'.`.n.n.-XZ.'.'.*X(.-Xn.`.&X2.'.D.D.S.F.}.C.F.n.'.V.F.[ D.F.I.2.D.'.2.[ V.V.] F.V.2.[ [ _ ` ] V.] Z %.;.%._ %.G G <.1.[ } %.G F _ _ ;.%._ ` &.%.%.` <.2.G %.` &.D.%.#.&.Z L.G F S S U S W F #.S Q A A p i < # : 8 w X 8 + v t % % N . 0 9 s # @ n . > 1 g Y Y i j i ; p > > E L K p K V S S G ~ K.=.Y.m.G B.S.S.S.b.C.G.J.J.=XJ.c.J.b.c.c.c.J.).[.].n.[.zX_.lXMXBXMXMXfXMXMXAXMX[.MXlXMXMX[.SXMXZXkXkXZXNXAXhXAXVXLXkXSXAXAXZXcXAXMXZXkXSXZXMXBXNXMXlXAXzXlXkXzXZXSXMXNXAXZXzXzXZXAXMXlX[.lXzXCXlXbXzXbXVXjXjXbXNXAXNXKXMXMXMXMXAXlXMXlXAXAXkXAXMXcXAXNXZXZXkXNXkXZXkXVXZXcXZXVXfXNXlXkXKXMXNXlXZXkXNXNXNXfXgX[.NXkXsXlXBX_.zX].).BX_.lXgXxXgX[.zX[.[.[.[.`.xX].).).v.J J.[ m.b.J m.J J b.[ b.J b.' J G J J H J ~ C J G H S Z H Z F G S &.H W ;.Z F S S Z 5 U < i x . < & I . L 5 5 - 5 U A =.} U ;.s.U.A.U.;.$.;.H H ` ` &.` F $.&.H ;.$.;.H =.#.S W Z Z U F F F Z A F A A Z - 2 Z P 2 V 2 A Y 1 * 1 2 l < i > u @ : @ u i   n # ; 5.: y b ; > ; > j ; . ; T R = = D U } %.#._ _ F G #._ ` ;.$.#.&._ G F _ %.A.#.%.s.H D s.+XI.}.;X8X8X;XT.8X+XT.+X8X8X}.8XiXrX}.8X%X8X3X.XP.8XP.tXeXP..X}.{.}.&X8X+X+X8X}.8XpX;X;XrXrX8X+X$XrXrXP.%XvX:X;X-X:XpX`.:X_.;X*XZ.;X-X*X-X;X;XpX*X:X;XZ.'.'.",
"y.W Q *.*.F r.y.=.} U U *.*.A A *.U y.F #.} #.%.$.&.%.$.&.&.} } =.*.A U U U Q U U U F *.*.U S U *.L *.=.#.G &.;XY.I.I.D.] _ [ [ G [ n.2.`.`.n.2.-X-X(.hX&X_.Z.n.`.&Xn.2.n.(.V.V.Z.2.2.n.Z.2.F.2.F.n.F.'.'.'.2.2.[ 2.'.'.] '.[ [ [ D.&.] ' _ &.` G %.<._ I.G } _ F <.#.G _ _ %._ ` ` G &.H ` &.&.<.` P.A.A.G &.` ` H H H S W C U U =.A L y.0.> . b u s 8 8 u q 8 0 0   $ $ m : :   O y n r < j i o 6.T i ; ; , ; 1 3 2 2 L 2 P C Z ! H J m.G M.] G m.J b.J.J.c.b.).c.J.c.J.c.c.J.J.J.J.`.xXJ.J.xXMXMXlX`.[.lXMXMXlXMXMXMXMXMXlXMXMXMXZXMXlXMXZXMXlXZXAXlXZXMXZXAXlXZXlXZXZXNXcXSXNXKXNXAXKXZXZXSXZXNXAXAXNXVXMXNXSXkXfXfXMXkXfXlXcXkXKXkXKXBXZXAXcXZXZXJXCXbXhXMXMX[.MX[.MXlXlXMXNXNXlXZXNXAXMXlXAXSXZXZXAXAX[.kXMXkXkXkXlXZXlXfXSX_.[.MXlX[._.[.[.[.MX[.-XlXMXlXkXfX[.kX[.kX'.lXgX_.`.J.].`.J.J.J.J.].`.J.n.b.b.G.b.G.Y.b.b.J b.B.v.J M.J b.J ' G ! J ` H W G J H F =.G #.W Z H F F *.;.S W Z D Z - I 5 2 5 h R < 2 2 U 5 - = - #.#.;.s.} U.*.;.;.- W S S W C Z S W F #.$.;.W #.Z G U U S F F F S _ G Z - Z F &.%.#.G W F #.*.F F U - A - U 3 - E < h < Y > p y . r . % <   n w O 5.u r b u O j > ; b 3 * . L U D *.#.G ;.#._ A.$._ $.%.` G _ F $.#._ $.-.#._ - ;.8XP.<.T.+X;XrX8X+X8X.X+XOX8XP.1._ .XP.P.P.g.+XP.|.s.g.P..XU.%X8XP.}.P.8XI.I.:X;X;X;X}.D.}.;X'.3XtX8XpXrX}.%XrX}.}.'.;X:XD.:X*XdXvX-X:X-X;XvX;X(.-XD.Z.:X-XdX*X",
"y.;.;.=.=.U *.*.#.U *.*.} R I D U U =.F #._ $.;.` &.<.&.#.#.#.=.*.#.A A S A D P A W *.=.*.;.F } *.U #.;._ ;.I.}.I.' V.' H ' ' &.` ` 2.n.`.`.`.`.`.(.D.(.Z.Z.n.`.'._.'.(.'.'.2.'.'.'.'.'.F.2.F.Z.F.2.'.2.[ 2.[ F.'.V.<.n.2.Z.2.[ F.D.` ` [ G &.P.] _ Z %.U.` _ %.;.s.} #.%.<.%.F ` %.%.%.&.$.&.&.[ _ <.%.` _ ` G F H F F S W W y.V U R I L k Y i # 8 u 9 8 q 8 8   5.0 o @ j O y r : u p r : n j > Y Y : > > p > > > P L V V E W ! ! G J m.D.m.[ M.S.J M.b.b.J.b.).dXb.J.b.J.J.J.c.J.].].].`.xXxXlX[.xXBXMXMXMXMXlX[.lX[.AXBXAXlXZXkXMXMXSXAXAXlXSX_.ZXMXAXAXZXSXZXZXMXSXNXKXSXBX_.kXbXNXAXNXNXMXZXAXLXkXkXZXNXMXfXkXAXAXNXAXNXNXNXAX-XNXSXkXVXNXVXJXcXhX-XhX-X].MX[.MXBXMXAXMXMXAXNXMXNXMXZXAXZXMXlXAXMXSXMXlXMXzXSXcXAXcXKXfXSXSXlX[.MX_.lXAXlX[.lXMXlXlXfX_.-XMXlXfXkXZXMX[.MX[.zX`.fX`.lX[.].].`.J.J.J.J.b.[ b.c.B.B.J J J ' b.M.b.v.b.J M.m.J m.! N.! S C 3 Z ~ N.S Z #.#.- U #.#.D - #.A S 7 . = = 5 R R R = 2 - = = U ` #.s.;.=._ - G Z #.F C #.W ! W W =.` F C G C Z - } C - Z G F #.` G Z G ` ` ` ` _ ` ` $.#.A.$.$.&.` W #.F #.U D - D D A L 2 L > h Y < 4 % x 4   r O   m : y s b u u 8 p 5.. > O Y h = U U D #.Z G G ` G ` ` _ [ H G _ #.H _ _ F #.} F ;.F F &.A.;.<.N.A.<.1.8XU.P..X8X+X{.{.OX3X.X3X$X5X$X+X<.+X+XP.+X}.%XU.%X;X8XpXpX;X;XpXpXvXpX;XrXiX8X8X%Xg.}.%X}.+X}.8XrX*X:X'.;X;X*X;X;X;XpX-XD.:X:X;XvX*XD.V.",
"=.y.*.W =.#.U *.*.*.U t.R U } U y.} -.F #.#.$.%.#.$.;.#.;.` #.-.*.*.U Q R U *.R *.R Q U Q L.#.#.P t.*.U #.<.$.S.I.[ A.` ' &.` ;.$.' 2.'.'.`.'.`.-X*XD.'.'.Z.n.F.n.'.'.`.n.2.2.n.Z.F.F.2.[ n.D.'.2.2.2.2.2.2.2.2.F.2.F.2.F.v.Z.V.2.}.1.[ _ V.I.` F <.&.<.` 7 F ;.} ` D _ -.%.%.%.;._ ` [ <.&.&.&.&.` &.2.#.' ` G G $.W H C S A =.L A R L * l 5.u u w s 8 8 8 8 8 z d e f   : u i i > ; r : : j j > u n ; r r h > * 2 E 7 - V P W ! J J $.J M.C m.m.M.Y.sXB.c.J.H.H.J.).J.b.J.J.J.J.b.J.J.[.`.].].`.[.[.[.[.lX[.MX[.MXlXlXlX[.MX[.ZXSX_.[.SXAXlXAXlXZXlXMXSXlXlXAXZXlXSXSXVXZXjXLXVXAXAXkXNXNXlXzXAXkXZXzXVXZXjXNXZXZXcXlXcXNX_.jXkXSXMXMXJXNXcXcXhXcXhXcXkXVXJXAXAXMXMXAXAXZXAXMXAXNXNXlXzXAXMXZXAXMXZXSXZXSXMXMXSXAXSXMXfXZXfXNXMXMXlXZXlXSXAX[.[.MXlXlXSXMX_._._.lX[.[.SX_.`.[.`.fX`.gX`.[.].J.J.].[.`.H.J.b.b.Y.v.b.b.B.C.B.b.b.H.C.C.C.J b.J J J G C C J W =.W H H *.H F F H #.#.U #.U #.Z U = D R - = L 5 - = A U y.;.;.#.=.L.;.;.F Z F #.L.#.F G H F Z G J Z G G F Z H G $.$.%.G F ` #.;.&.S.U.I.L.L.I.A.A.&.$.` <.&.N.L.&.I.U.;.;.U.%.;.s.*.-.*.I L - * - & . . < ,   . %   s @ s O s u # ; s Y O d ; , < . 5 A P *.U #.#.#.#.` #.$.%.$.` H F F ` #.#.-.#.F #.G D #.&.G _ Z _ G %.} -.P.L.+XDXiX8X+X+X.X8X+X$X+XP.%.U.8X+X8X+X+X}.8X;X;X;X}.I.*X:XpX;X:X;X8XtX8XeX6XI.8X8X8X8X+X;X8X8XvX+X+X;X*X;X;X}.:X;X=XpX-X&X;X'.'.V.",
"=.*.U A U Q U #.*.*.A *.U U } A *.#.*.U #.*.%.&.&.#.&.H ;.} $.#.S D P U U P U U U S U *.y.L.D A A U #.*.F F F &.A.A.N.A.N.#.` &.H Z 2.&X`.`._.`.(._.Z.C.'.n.`.lX'.`.'.(.2.'.n.F.Z.'.&X2.[ '.}.D.[ [ 2.2.F.'.;X&X2.F.(.'.'.V.'.'.F.` [ V.1.` ` ` _ G F ` %.G #.} #.F } F ;.} ;.#.%.G ` ` ` [ H $.<.[ ` ` [ ` ` G #.;.W W S U A R P = 5 2 O T T   w w 8 8 8 0 w 4.v v o $ r r # j ; : r p , < y p r . Y : p > p * 1 2 E 2 - U P P $.G m.M.S.V.J G.H.b.Y.m.J.c.J.).b.J.].c.J.J.c.b.J.c.J.].].[.xXzXlXMXMXMXBXMX[.[.MXMXlXMXlXMXAXMX[.SXZXAX`.MXAXMXMXZXMXZXZXlXAXZXMXSXZXZXNXzXkXVXfXcXNXNXZXZXAXZXKXkXkXcXNXNXhXKXZXSXVXNXZXAXNXKXMXAXAXfXNXNXcXVXVXJXcXCXZXkXcX).BXlX[.lXlXMXlXMXlXMXzXMXZXBXlXzXNXMXMXAXMXAXMXlXZXMXNXAXkXNXAXMXkXlX[.AX[.lXlX[.[.MX_.[.kXlX_.-X`.:X_.`.MXMXkX-X[.J.[.[.[.`.].`.].[.`.J.J.b.n.b.[ b.J b.B.[ J J J b.J b.' J J J C J ! ! C S C C S W C H S D Z A = Z F F S G 3 A - * = 7 A - * - S #.U Z D =.%.F F F #.Z G #.` ` F G C G C Z G G G G ` [ H &.F #.&.A.` I.I.I.A.A.D.*X}.Y.Y.I.I.I.S.L.A.A.` F A.;.G ` G ` A.$.$.%.F %.#.} y.*.I I I x T f , g d Y r : * u ; # j : w @ a m c % e < O 4 k 5 I I } U Z } Z G F #.H G H H F _ #.#.F G F D F G F #.Z G Z ` Z _ - #.P.<.%.U.+X}.{.P.P.+Xg.P.6X+XP.8X8X+X{.}.}.F.}.I.F.<.F.I.}.;X+X}.;X8X+X8X8XtX8X+XpX8X8X:X;X8X8X8XmX8X;X;X+X;X:X;X:X;X;X;X}.}.;X;X}.D.",
"=.S U F A S U *.#.*.U -.U F U A *.X.#.W #.U #.#.$.;.N.#.;.A =.#.U U U E U U U Q *.P U S D ;.U *.*.R *.U =.U ;.A.;.A.&.&.#.&.` =.&.Z ] F.'.n.'.2.2.n.'.'.).n.2.Z.[ n.(.&Xn.2.F.2.2.D.'.F.2.}.C.2.2.2.'.'.F.V.'.'.F.&X*X}.F.n.Z.[ V._ ` ] &.<.A.&.G F.<.%._ _ ;.Z } _ } %.;.-.%._ &.7 &.A.#.F ` ] &.] M.` &.&.M.H H W C S P Q S L I < 5 , g T n : 8 + @ 8 b b u m : M e % u j > h r > p i i , > h r . n u k ; , ; 5 2 L A A Q W P ! ' S.J [ J J m.' S.S.G.=XJ.).H.xXdXc.J.].J.J.J.J.b.J.].].xXgXxXMX[.`.MX[.MXAXAXMXMXMXMXMXMXMXlXlXMXMXAX[.AXMXlXZXAXlXMXAXlXLXAX[.ZXMXZXAX:XLXZXMXLXZXSXZXzXfXMXAXNXhXcXkXbXlXVXzX-XVXkX-XlXBXfXlXZXkXZXKXNXVXVXhXAXVXJXZX-XKXNXMXMXAXMXAXMXMXAXAXZXzXlXNXlXlXcXNXMXMXMXMXAXZXAXZXlXlXAXSXfXMXlXlXMXlX[._.lXlXMXMXMXlXSXAX_.lXSXMXlXMXlX-X_.`._.MX].MX].].`.].].`.].`.J.J.J.J.b.b.C.b.J b.J b.J J b.J J J b.J B.G J ! ! C H W W =.=.#.y.S ;.;.- Z *.*.#.U #.U Q A 5 U =.*.F } P.L.y.#.<.L.&.` G #._ #.F ` H G - G G J ' G [ [ ' V.[ ] S.V.] ] *XS.S.[ F.;X;X;X*XS.I.V.] ' ` ] &.&.' ` ;.N.&.A.#.N.L.$.F G Z F $.#.} #.F s.D A I I 9.0.< O j : j i O u < u . T p w + e 5.@ u y e r e k & = h h L D *.D F U &.#.#.` #.#.` H ` _ } F D %.#.F ;.F %.` &.Z %.;.%._ -.A.%.}.P.U.P.+X&X+X&XrX:XtX{.}.}.1.rXvX}.2.F.<.F.I.F.F.I.;X;X8XvX8X8X8X8X6X+X8X6XT.6X8XiXvX8XvXGX8X8X;X;X8XrXrX8XrXrX{.F.}.}.8XrX",
"U S *.=.S S F ;.U R #.*.U I *.} *.*.} *.#.#.#.#.#.%.;.#.;.S *.} P A P S P R P L E U U P W y.W *.P R *.- #.F H ;.#.N.;.G H U.W H =.Z &.D.*X(.`.n.'.'.n.F.;X*X-X:X'.'.-X(.'.*X;X-X'.'.}.*X;X;X'.}.&X'.'.'.'.F.2.2.[ F.2.V.V.'.'.F.;X] 2.] %.] %.&._ G 7 %.` _ _ D G } _ #.Z %.F _ P.G ` &.V.` ;.' H G ] H %.' #.H G *.U U U I P R E 5 , < j T b : s w 8 ; s b u u e < : r : g j > h s ; . > i > h p . p ; k ; p i 2 2 2 P S P P S ! H J ' b.v.[ C.Y.Y.b.J Y.J.b.b.c.J.J.J.c.b.].J.J.].gX].xXBXgXzXMXMX[.AXlXMXMXMXlXMXMXAXMXlXAXAXlXSXlXlXlXMX[.ZXZXZXlXMXZXAXMXZXLXZXMXZXAXlXSXkXlXSXhXlXAXAXAXZXMXAXNXKXZXZXNXMXZXMXKXZXSXBXLXSXcXcXlX-XcXcXVXVXfXKXCXcXkX`.SXfXlXMXMXlXAXMX[.MX[.BXlXAXZXNXZXZXMXzXMXlXSXlXAXkXMXZXMXAXSXMXSXMXMXAXMXMXZXAXlXMX[.[.[.[.lX_.lX_.lX_.lX:XMXMXSXkX].[.gX`.J.gX].`.`.`.].].].].J.b.b.[ J b.C.b.n.J J J b.~ J G C J ~ G C W G S C C W Z C F C F A S A S A A S D A Z - - Z A F *.#.G Z F F G H #.;.` $.G G G ` G G J ] [ ] M.' v.M.v.b.n.n.C.n.[ [ S.M.&.M.D.*XD.$.[ A.I.D.I.I.&.` G G _ $.<.#.G } G G #.#.=.#.` _ #.#.} *.U y.U X.r., T T < < T , r ; : i ; > * Y O @ + e m X t c 9 w w y @ r g Y Y L U U } U =.U #.` _ #.H #.&.$.$.F _ ;.$.G #.G ` #.#.` A.;.F F &.<.Z <.;.1._ %._ P.<.<._ <._ %.P.2.}.+X1.` <.] ;.I.<.%.<.+X+X+X+X;X8X8X+X+XU.+X+XI.*XT.uX8X8XGXmX8X;X*X+X;X8X;X%X&X8X8XtX8X%X+X%X",
"#.U #.=.U #.U y.*.F U A U S *.*.U U F } #.#.;.;.#.W F F ;.F *.F A V L L R Q L A X.U A A U y.*.*.} P y.*.W } K.#.H =.N.G =.U.U U U F ` I.D.'.n.[ '.D.'.}.'.2.Z.'.(.(.'.V.'.`.;X-X=X}.=XD.'.D.2.'.V.'.[ [ Z.F.1.'.F.'.F.'.2.2.V.2.S.[ %.%.2.<.2.P.] %.G ` ] %._ G _ } -.#.7 G G %.A._ ` _ <.` ;.$.[ [ [ ' &.H G H S #.U U A - 2 L 5 h ; . : y %   u # # @ 9 b b i O g O . Y i . i p > ; * > > ; p j u i ; j O j L 1 L 2 Q P V W H J H ' v.' b.J H.J.B.H.b.mX).J.J.J.J.J.J.J.xXJ.].J.gXJXgX[.bXxXxX[.lXMXMXlXMX[.MXMXMXMXMXMXMXMXBXlXSXSXlXlXLXAXlXlX[.ZXlXAXZXlXSXAXAXZXMXlXKXSXMXcXcXNXMXMXSXMXkXNXkXzXcXcXNXNXcXNXNXSXKXZXkXlXZXZXMXLXjXCXLXCXVXvXNXkXhXAXJXSXkXAXAXMXMXZXAXMXMXNXKXzXZXZXNXkXMXAXAXBXMXZX[.MXlXlXAXNXlXkXNXNXAXlX[.[.lXAXlX[.[.MXMXMX[.MXMXAXlXzXNXMXfX[.:X-X[.[.zX].].J.[.`.].[.[.[.J.J.b.J.b.C.B.J.b.b.J b.J J J b.J m.J ! J J J S J ! ! S H #.#.F D F -.U ;.} G D #.U S S A S U #.;.;.&.` $.` &.&.A.&.G G G ] ` ' ' M.&.A.D.D.' ' S.V.m.=XS.D.jX-X*X;XG.D.*X*XD.;XS.S.2.] ] [ M.' ] &.' %.G G G G ` #.F #.D W A #.W } W U U I A A 2 I 2 h L < g 1 ; i T > p ; j i ; < * 1 . : @ 9 9 9 w t 0 w c w 9 y @ p > I L R X.U ;.U #.S G H F #.N.#.H ;.;.s.s.} ;.#.H ;.F <.;.#.#.<.;.I.&.I.Y.8X}.+X<.I.1.1.%.<.<.P.P.<.<.2.&.1.+XL.P.P.<.=.-.U.U.L.s.T.U.P.{.+X+X+X+XP.P.P.I.Y.T.Y.T.;X+X&XI.+X;X;X+X%X%X8X3X{.+X}.+X",
";.*.W U W =.U y.y.U W A *.U U Z -.*.S U U U W F S #.#.U ;.U =.U U P U A P *.P L P L L *.=.*.S U *.P P Z *.=.#.#.W $.=.F L.W U W #.=.Z }.F.;X;XF.*XF.S.(.'.n.1.Z.2.'.'.'.&X'.n.'.'.'.-XF.F.Z.1.'.[ '.V.F.:X}.&X;XF.F.F.D.F.2.] [ V.] F.] ` F.<.V.[ _ _ _ _ 7 _ _ G - %._ _ _ #._ Z ;.&.;.;.` ` M.M.M.m.] ` m.` =.W W A V 0.P L = O n g r : r y # s O u s p n u # . g Y , ; > i i * > L > > > * L n p ; O Y * p L 2 2 3 *.W C W W G J $.J m.D.b.b.mXdXb.H.dX=XJ.J.J.`.J.].J.].J.J.].xXZXJ.BXBXxXBX[.[.MX[.MX[.lXBXMXlXMX[.AX[.MXMXlXMXMXlXMXAXMXlXZXZXSXlXlXAXMXSXlXAXSXMXMXAXZXZXSXlXLXZX-XMXAXZXSXkXKXMXVXVXCXkXKXNXfXzXkXAXkXAXBXSXNXVXcXCXjXVXbXbXNXcXNXJXlXVXMXMXlXMXMXMXMXAXZXAXlXNXBXAXlXjXMXSXlXMXAXlXMXSXZXlXZXkXNXlXlXlXMXZXAXMXMXlXAXAXlXlXlX:XMX_.-XlXhXMX`.lX[.lXlXMX[.xXJ.`.`.J.`.xX].J.J.J.J.J.J.b.n.J [ J M.b.S.b.J b.G c.b.c.B.~ B.m.~ G C S G S U F #.U A #.Z A S D U S C Z U S #.N.y.;.#.$.&.[ ] V.] ] ] G ' G &.S.V.V.V.D.I.S.Y.V.V.dXG.[ ;XY.V.'.[ [ Z.V.D.=XS.[ D.] V.M.] ` &.D.M.&.] G [ H #.#.#.;.#.D =.#.U V y.U U A L R X.P L h Y Y Y h R k ; < j T ; n Y 6.i Y k i < < > @ #   m + @ c w 4.X w b   5.> T h 6.*.I y.P U S F $.#.H ;.$.;.} _ *.=.#.L.;.F ;.F #.F U.L.;.;.A.U.+X8X;XA.I.A.P.A.F.P.&.}.+X<.<.P.1.-.A.8Xs.#.;.s.;.;.y.;.;.U.I.I.P.I.;X8XU.P.}.+XU.;XT.GX8XY.U.;X;X;X+X8X8X3X+X+XP.+XP..X.X+X",
"F S F =.S F W -.W #.A W s.#.W U -.U #.#.*.W #.F #.#.W F U #.*.U P L U 2 A E 3 P W L U U Q =.U U *.P P U P K.W =.#.W W F =.U U *.U #.D A.%.P.I.I.;X%.D.A.}.S.*XD.(.'.F.(.'.&X`.Z.'.`.'.'.'.n.'._.'.2.'.'.:X[ F.1._ '.2.[ [ F.2.F.F.2.M.<.V.<.D._ _ _ %.&.1._ %._ %.D %.F -.} %.F Z ;.H _ &.G J &.&.] G m.m.H H #.S P L R L K < g n ; O j # n m o # y b # y i > : 1 , < h R p L ; 2 , * h * > ; ; Y u r p r p 2 . L L A P W ! =.;.` S.S.b.V.=XG.H.).sXb.b.).n.c.b.J.J.J.J.J.J.n.xXJ.[.BX].].].gXzXMXMXAXMXlXMXAXAXMXlXZXMXKXMXZXZXAXAXMXlXZXlXlXZXZXMX[.MXZXZXSXZXZXZXZXZXcXKXcXVXAXSXkXNXkXKXBXAXVXAXZXVXkXNXAXKX_.AXVXZXSXAXNXZXkXNXcXKXCXKXJXJXCXJXJXNXSXKXcXlXMXAXMXMXZXlX[.NXAXkXMXkXNXAXNXMXAXlXlXMXkXNXAXzXZXMXMX[.SXMXMXSXkXMXlXfXlX_.MXMX[.fXlXlXlXlX-XjXNXlX-XMXhXkX-XMX_._._.lX[.`.[.xX[.n.].n.`.J.J.J J n.b.J B.C.H.J J J J J c.J J J ! H G S W S G W U A F U #.U - F U S U C Z F #.=.=.#.$.N.` G [ [ [ ] [ ' [ $.D.M.G.*XZ.*XG.S.C.D.G.G.=XY.G G.Y.V.Z.v.*XM.V.Z.D.S.V.] &.&.S.A.I.A.&.S.&.&.&.M.` ` F F F #.U - F Z A - } 2 - A 2 3 L * T k ; ; : j O , < Y O i i Y p p T h R h L 1 j 5.. . m w y 9 # 5.w s a w w s n r 6.L T r.L U W U F #.G F #.S Z } } #.-.*.S ;.#.;.F #.;.*.=.;.;.#.%.A.<.;.I.F.<.<.A.&.P.+X<.<.P.F <.L.F.T.s.} T.*.r.X.y.y.L.s.P.<.<.P.I.P.<.<.}.P.P.}.+XP.I.}.*X;X;X;X;X8X%X;XP..XP.+X{.P.g.g.",
"S W F y.W *.*.=.F U S S Q W U #.} F } U #.U #.U W } S S U W *.U U P P A L Q 2 I U P D A U *.U U } #.=.-.W ;.W #.;.=.=.*.=.*.W U U #.Z N.$.L.I.}.I.F.I.}.}.V.}.I.&X'.'.(.2.Z.(.'.'.`.2.2.2.`.'.2.'.2.'.2.V._ [ 2._ 2.2.%.F.V.2.V.V.&.2.2.2.&.F.<.%.[ %._ ` _ ;._ Z _ _ %._ &.F G _ ' F ' N.` %.$.J [ G ' N.F F P W Q E U 1 1 > > j % : :   d y   @ y b r i : ; ; i h ; p e.> . T < > > i ; p i > n p O y i i T 2 2 * - U W A C H J ! C b.G M.S.J.~ J.n.J H.).b.`.`.].].`.].].ZXBXxXxXzX].xXxX[.zX[.lXlXMXAXAXMXMXlXlXMXlXkXMXMXMXcXSXMX-XlXMXAXlXlXZXSXMXAXMXlXZXZXSXMXkXkXbXfXhXAXNXkXcXkXAXNXNXkXSXkXcXNXZXVXkX_.NXVXVXkXNXNXKXZXAXNXZXNXVXjXvXjXJXVXcXlXMXNXlXMXAXlXMXAXZXZXAXBXMXBXVXNXZXBXBXNXAXAXMX[.BXMX`.MXkXSXMXBXBXMXlXMXSXMXMXMXAXMX[.[.MXNXlXlXNXzXcXlXMXcXlX-XlX[.lX-X_.kX_.gX`.].J.`.`.].J.J.b.J J J.J.C.b.b.[ B.J J m.B.J ' b.$.' ~ ! =.~ S W #.*.#.*.;.} F F F W #.=.=.H #.;.;.#.H $.` ` [ ' ] G [ v.C.G.Y.D.*XZ.-X-XZ._.(.(.Z.D.;Xv.&.B.J M.S.Y.D.C.=X(.G.M.[ ' [ [ &.M.N.S.A.&.' ' M.A.N.V.;.#.H F G S G - U A Z 3 I A 5 P I 6 I < k = < 1 h i k < . i * j u Y ; i Y g R h Y L l l ; * ; . u u 9 5.8 9 s 9 @ # y . . p 7.r.L U - S S S H U F G F D A U #.#.D #.U #.F =.;.W F ;.;.$.;.;.;.A.I.<.I.F.+XP.P.U.<.P.<.-.s.T.s.U.U.y.T.L.r.y.*.R y.*.A.<.*XF.+X}.P.F.+X+XL.<.<.-.L.+X+XY.;XL.P.;X}.}.F.+X+XP.P.g.` _ ",
"W =.F ;.#.;.#.=.#.=.#.*.=.-.*.=.} #.-.=.;.$.=.=.W #.U U W *.*.W U U V U D U A P R R P U *.*.U #.U U *.*.F N.W #.;.=.=.W #.y.*.#.U *.- y.S G #.G _ _ G <.P.I.+XI.'.'.'.'.'.2.'.2.'.'.'.2.'.n.'.2.2.2.'.2.D.2.2.S.V.F.}.2.1.[ [ F.V.V.V.2.' &.] V.%.<.&.` %._ &._ G _ G <.#.L.` $.' _ H &.&.$.;.` J &.J &.A.=.! U Q r.L L > > r : f w y : % c c o y t y j u u : > 6.; L p * > T h ; > h > ; j > ; p y ; p p r T 2 L A A - S S ! =.' S.S.' H.sXv.].H.dXb.b.sXsX].].].].`.`.J.xXb.].xXb.].xXBXxX].xXBXMXMXMXMXMXMXMXAXZXBXAXlXMXSXlXMXSXMXAXAXAXZX[.MXMXMXMXMXSXSXlXlXMXZXkXkXAXAXJXZXCXJXZXNXNXAXZXZXAXNXZXZXkXAXJXBXZXAXAXAXVXcXNXVXVXNXJXVXbXcXJXjXVXCXJXVXhXAXZXlXAXMXMXMXkXMXAXzXNXAXBXkXMXNXkXNXlXSXMXAXlXAXBXAXSXZXSXlXAXNXzXlXlXMXNXAXMXlXMXMXlX_.lXcXcXfXlXSXlXMXhXMXMX[.lX[.fX_._.[.].xXJ.J.[.].`.`.J.G.Y.B.B.b.J b.J b.J b.' m.J c.! J ~ ~ S W S Z S F F } F Z Z Z #.U C * H ;.#.G _ #.J ' $.` ' G G b.Y.D.*XI.S.D.] ] [ V.n.[ n.] n.v.C.S.v.S.S.] S.;X=XM.M.v.v.] ' ' ] H J ' ' ` N.$.$.' [ M.` Z ` ` - Z G F #.} S ;.=.-.D F } 7 Z D A A 7 U 5 5 5 5 l n ; ; y O , ; T ; : p ; n p Y Y L Y 6.j u ; b s u 5.@ 8 u w u   s 9 # O p Y Y *.A E A - U S Z U U Z A F U #.P P W P U W S } U U } F #.#.&.&.;.` ;.;.P.L.P.L.s.;.X.;.X.U.y.t.y.l.T.r.*.y.R U y.#.<.A.;XU.P.P.P.P.8X}.,.<.+XL.<.+X*XF.;X;X*X1.2.P.<.}.tXP.P.P.%.%.",
"#.;.W #.#.=.W ;.W S Q F #.=.S U F F F _ -.U F #.W *.W U #.W Q U U P 2 P S L P P S U U P *.U U #.#.U =.#.F s.W =.W #.W F H y.W Q =.} S *.D U } Z Z G G F F &.I.;XV.P.I.D.*XZ.&X`.'.n.`.'.'.[ '.n.}.2.2.2.F.V.1.F.F.F.}.&.&.[ [ V.V.V.<.2.[ ] _ 2.[ 2.&.<.I.` <.A.%.` D _ ` <.#.&.$.H G ;.$.` ` J [ $.J H ! W S A E R 2 i > > j i : % :   # b y $ m u @ y ; p p u h p L i R h . i p r T , p E K p j > r r r p , 3 - P Q F W W $.H G C b.G b.G.b.J.`.b.J.b.c.J.J.n.].xXJ.J.xXxXNX`.sXbXBXxXgXBXxXMXMX[.MXAXMXAXMXMXBXZXAXlXMX:XSXMXAXSXlXAXAXMXZXMXlXSXlXAXMXZXMXZXNXAXZXMXcXZXZXNXcXkXAXVXzXMXMXAXkXAXNXkXNXkXKXNXVXNXNXbXAXNXkXkXVXNXbXVXcXnXbXJXVXkXcXVXZXMXNXNXMXMXMXZXlXlXAXkXlXkXNXNXlXNXZXVXMXlXAXMXSX[.SXAXSXlXMXMXlXZXAXSXkXlXMXMXMX_.lXMXMXAXfXlXkXNXMXNXMXfXZXNXlXlX_.lX[.[.lX[.[.[.].J.].`.J.b.b.b.J.H.B.C.M.J b.b.C.J b.J ' ' m.$.S ~ H C F W S W U F } D U #.Z Z H G G A.&.' G H ' ` J [ G G v.*X*XG.V.Z.*X*XdXG.D.V.C.Z.v.n.[ v.V.C.dXM.V.S.D.' m.G G [ J G [ ' ] ] ] ' A.A.M.A.$.$.A.Z ] A.M.&.&.%.;.;.L.L.L.F #.=.F S _ L.;.-.;.} } } +.U X.l 5 ..5 < Y n ; ; O T > ; u ; h < 2 s ; 2 Y p u > ;   u m 8 s w s y # y m # @ Y T R 1 V L U 2 *.*.A L A 7 I } L U U U *.P U S - =.#.D #.F } =.;.#.#.` A.A.;XU.%.%.} ;.U.s.*.l.T.t.R t.l.T t.t.L r.X.y.s.I.%.+XF.<.+X$XP.s.s.P.s.%.;.yX8X&.I.I.U.&._ P.F.s.6XL.s.<.%.P.",
"W ;.=.#.#.W *.=.#.W =.W W =.U W *.#.#.#.;.*.#.=.W *.U #.*.W W U } U S P U V U U V U U D W } U ;.#.#.=.*.F ;.W W H #.=.W U ;.W U W A A P A y.*.U F U ;.` ` F S F ` %.D.F.'.C.-X'.;X'.`.*X'.D.'.*XV.2.V.2.F.V.2.F.I.&.] [ %.M.[ J V.V.] 2.] V.[ F.<.I.&.&.<.G G _ %.` _ ` ;.&.H H ' ' G M.&.$.H ` $.N.$.W $.Q W E L L * p u u b m r j : $ @ 5.c y b e $ y # p n i L i R ; ; T n ; r . p ; p p s s Y u > ; > i > 2 U L P U W S H H A.Y.S.dXxXH.J.J.].b.bXxXb.J.].J.`.xX].b.ZXKXfX_.ZXlX[.lX[.lXMXlX[.[.MXMX`.lXMXlXlXMXMXlXZXMXZXAXAXZXSXMXMX-XMX[.ZXZXMXAXlXAXMXAXSXMXlXAXkXVXNXAXZXbXNXSXZXZXAXBXjXZXSXBXBXSXKXVXNXbXAXVXZXkXbXNXZXKXJXJXCXCXVXJXNXVXJXNXNXAXZXMXAXZXAXMXlXMXAXzXKXZXZXBXkXAXZXVXSXAXAXZXBXNXkXNXMXhXAXNXhXlXcXAXAXMXlXlXAXAXAX[.lXAX[.lXMXMXMXMXlX-XSXlX_.fX_.`.hXlX`.MX`.n.H.xXxXJ.].J.H.dXsXJ.M.C.C.J m.C.B.' ' ' J J ! ! C 3 S Z Q S A ;.=.} Z 7 F H - - H ;.F M.' ' J [ G G ` S.S.D.=X;XmXY.*X;X*XD.D.] v.Z.(.V.v.v.n.Z.G.*XV.[ [ ] ] ' ] ' ] M.] Z.*XD.G.;X-XI.;X;X;XY.I.U.S.] F.&.A.*XI.V.S.N.&.&.I.U.U.I.U.A.#.<.` #.<.%.P.s.-.X.-.X.I 0.g : n T p b p b y ; u > Y > ; ; > > K u p m 8 8 8 b # 8 8 @ 9 X 5.4.X # y s 6.R p 2 E L E L - V A - U U P U P L U - L U V } D D *.U U } } H #.#.;.;.;.<.#.A.s.L.s.y.-.-.T.h.R 0.l.6.l.r.A t.*.y.<.L.` U.s.s.+XU.,.-.<.s.%.%.U.1XP.D.I.I.<.<.<.+X6X<.U.s.s.-.-.-.",
"G *.N.*.=.#.=.#.Q W ;.U F =.#.=.#.` _ } ;.#.#.#.F F S W #.U } U W R U I *.L *.U A U W U U =.*.L.#.F F ` F L.H F $.=.y.F F *.U #.Q D Q U U K.R Q *.F =.F *.;.;.;.%.` L.D.rX;X*XF.*X*X'.(.(.Z.'.(.C.Z.Z.<.2.2.%.&.<.[ [ _ ] D.] V.F.S.] V.] F.' &.] F.&.` <.M.<.&.&.%.#.&.&.M.` ` $.&.H $.M.M.G [ H &.$.W W W P L L 2 ; i u r u b : w o % # M w 9 w u b y O s n u p . Y R T r . i n ; j p n p p p s j @ i p ; h 1 L P F W =.H H J $.S.m.V.Y.J.).xXb.b.J.sX].b.).J.].`.xX].b.`.n.MXlX[.lXMXxX].lXxXlXAXAXZXAXZXlX[.lXMXlXlXZXAXSXlXlXAXlX[.MXMXZXZXZXMXlXlXMXAXZXlXZXAXAXZXkXbXkXNXJXNXMXNXNXSXMXzXNXVXkXKXNXcXkXZXNXkXNXNXVXjXkXNXZXNXjXcXZXKXJXcXcXcXJXcXfXbXMXzXSX[.MXAXlXSXLXAXNXfXNXNXkXVXNXjXMXlXlXSXVXkXkXcXKXcXcXjXcXSXcXlXlXAXAXMXlXlXAXMXMXMXkXMXMXlXzXNXKXlXzXkXlXAXlX:X-X_.kX`.[.[.[.].`.J.zX`.b.n.b.B.b.c.J G J ' m.b.J J J J ! B.J S ~ S ! F F #.} *.} F U #.#.=.M.&.$.$.[ [ [ v.D.(.G.G.G.*X;XG.S.S.S.S.M.b.v.v.v.v.*X(.mX-X(.V.] [ J ] C.V.] M.A.D.*X*XG.V.v.] V.G.V.[ ] M.L.S.;X*X;XD.*X'.*XI.A.V.Y.}.A.&.A.I.I.;.A.L.A.I.I.A.L.%.;.;.=.} *.U U R 5 j g T b Y b p 5.i > : Y ; ; ; Y ; ; O s s # a 5.6.8 a a t d 8 X a 8 8 8 ; Y u K L r.E 5 2 L 0.I 2 I A A I U 2 P P *.R D y.*.y.U *.*.*.W ;.$.-.U.;.#.#.D y.*.s.-.-.y.} y.t.t.t.y.t.r.t.X.r.s.K.s.#.s.P.l.U.s.<.s.<.d.,.,.oX6Xs.P.I.P.+XL.P.L.+X+Xs.OXT.s.s.-.X.",
"D $.K.;.=.$.;.=.=.$.;.W U =.=.=.-.F #.%.;.*.*.#.F S S F U S D U U Q *.P *.Q *.U P A =.U F y.W ;.;.` #.$.W L.$.$.=.W ;.Z A #.F *.P A P P E *.V U U S =.W F - U S F D F Z F.I.F.D.Z.F.'.V.Z.2.V.'.2.F.] 2.] V.I.*X*XF.I.&.&.A.G M.C.D.V.v.] V.&.&.[ %.' _ ` &._ [ %.` ` %.` ' ` $.&.m.H ] m.&.G J H $.#.S W Q A 2 K ; s p r b ; w d r d j e n c e t 9 b y u r b i p i p ; l i ; Y n : u y p > > > > n u h k ; 1 2 L U A S C H H $.m.M.S.dXb.sX).).).b.H.).xX=XJ.`.`.gXxXxXbXCXlXAX[._.BXAXMXMXMX`.[.lXlXlXlXMXMXZXZXAXMXMXAXZXMXMX_.MXAXSXZXMXlX[.MXAXSXlXAXMXMXMXSXMXzXSXNXKXKXNXZXNXMXSXkXMXkXSXAXAXMXNXcXZXNXkXAXbXNXVXZXAXZXAXNXJXJXJXcXjXNXJXJXbXcXbXNXKXBXfXLXlXAXAXZXNXlXlXKXkXKXKXVXZXbXkXZXNXSX[.VXNXZXcX-XNXLXAXcXVXcXSXAXSXlXlXMXMXlX[.lXlXZXMX[.[.lXlXMX[.fXhXlX[._.kXZX-X`._.fX`.[.xX[.J.`.n.b.H.C.J.J J J J J ' b.m.m.' J J J G - C S C Q U P A - U Z D F F S ` G C ' J J [ S.;X=XG.G.=XD.C.S.Y.;XS.S.V.' M.M.=X*X(.D.S.G.C.G J [ ] C.[ V.D.Y.D.A.=XG.(.:XG.'.).=X*XD.D.Z.D.D.V.S.[ ] Z.}.*X*X;X(.v.D.}.Y.A.A.M.&.` G ` $.$.$.F H F F U W U R V 5 5 1 k : 6.r r p b 5.j p @ b > s u Y ; s u s @ s u v 3.8 q t X o q q u X X # u Y # . 2 h L 2 h R R R 5 A 2 P E R L 2 R R L L *.*.y.1 P U P D *.S Z #.#.;.#.#.*.y.6Xs.l.L.t.y.t.t.0.l.y.X.t.U.r.U.s.L.} L.l.U.s.-.-.s.s.s.} } a.T.T.8X<._ ;.s.F.g.s.t.P.k.l.d.s.t.t.",
"#.#.=.#.F =.;.#.;.=.$.F ! ;.=.F ;.` -.;.L.&.;.#.#.=.U #.#.U W W A U U F *.=.U U } S y.} #.U.#.*.#.#.L.L.F $.F N.#.#.L.#.=.L.*.;.y.*.U P E P 2 Q P V D *.#.#.U.=.} F s.#.` %.] F.'.}.V.(.'.D.v.;X] Z.n.D.D.}.}.V.A.] I.D.D.*X[ V.[ V.[ ] [ &.S.S.V.&.A.%.' %.G &.&.%.A.A.&.` ' ' ` M.&.B.H ' G $.F W U Z U R V 3 2 ; p p u n # @ d r m n m m b t b : w r n y n p h > > ; h g r k p < > p p s i u > u b p > > < Y A P U K.=.! J $.B.b.B.H.H.H.J.J.b.).xXdXxX[.xXxX`.J.J.J.lX`.fXZXn.[.AX[.[.AXAX`.ZXlXMXMXMXMXAXZXZXMXAXSXlXAXZXSXAXZXZXMXlXSXAXAX[.MXAXMXAXSXSXSXAXNXNXNXkXcXVXkXSXNXNXZXNXZXMXAXkXcXKXVXZXNXVXbXJXAXAXAXNXNXNXVXKXCXVXVXVXnXcXVXcXCXNXVXkXZXZXfXAXlXZXMXBXMXMXAXZXfXAXNXjXAXcXAXJXMXNXNXJXkXVXKXkXKXJXcXfXKXNXkXlXMXAXlXMXMXMX[.AX[.lXlXMXlXlXlXNXkXzX[.NX-X_.lX[.`.[.[.gXJ.].].`.].`.J.n.v.J J b.b.m.m.b.m.' ' G H $.$.! m.~ H W W ;.=.;.s.G _ _ Z ` F &.I.' &.M.V.Y.S.H.Z.M.[ n.b.' n.M.m.b.G G ' V.*XV.D.2.] V.] V.] G [ [ ' *XV.C.] V.C.D.hXD.] '.n.V.n.v.] n.'.2.D.D.*X;XD.;X(.'.=XD.F.I.}.D.A.F.A.Y.;.` ' H =.A.;.y.#.#.*.*.A A L R 2 L L g n O 0.y ; u u p p b w 5.p > O s ; 4.s 8 u 4.8 q 5.8 q t X + v a 8 8 5.m w n r 5.e.Y 1 2 Y r.R U - L A R r.y.*.P *.*.y.y.l.-.T.R *.X.} #.y.F U U G W S s.y.*.=.X.*.X.s.t.O.T.T.HXl.t.s.>Xs.*.<.>X%.-.T.s.} +.t.a.t.O.@.-.a.s.U.%.<.<.s.s.,.OXT.s.OX-.t.T.s.X.s.",
"$.;.$.` H $.$.;.=.$.W =.W =.=.=.;.Z K.;.;.#.&.#.#.;.H F #.=.S F =.F U W U *.#.#.F W L.y.W L.#.} =.;.W =.F F ;.;.=.=.;.#.#.#.U U P U A E L V Q U P *.P y.=.F S U W Q y.=.;.;.` &.V.;X] F.G.V.v.C.V.2.C.F.(.}.*X;XV.D.V.V.C.v.] b.] C.[ ] V.] D.I.M.I.&.&.G H ' A.%.` ` ' &.` ' J ' N.H B.J N.=.H F *.S U *.Y 3 > p > u y j o e e : b y y : : b e : O n O n r T Y : n i ; . 1 R . > i i i r ; u p p s u , p p p L L S V U.! ! m.=.Y.m.b.S.(.n.n.H.b.xX].xXxXjX[.xXxXJ.`.zXxX].xXBX[.MXlXMXlXAXMX[.MXAXAXMXMXMXMX[.[.[.lXlX[.kXAX[.[.AXAXlXSXSXMXZXlXMXZXKXkXNXlXkXMXAXKXNXkXlXZXzXAXSXZXZXzX[.KXSXNXZXZXlXzXJXKXnXjXNXnXJXNXcXJXcXZXcXKXVXJXJXnXbXCXVXVXVXfXcXcXMXBXlXZXkXAXZXVXlXKXNX-XNXSXcXAXhXKXAXZXNXNXhXAXMXAXjXMXlXkXMXMXNXNXlXZXlXlXAXMXlXAX[.lXlXMXlX[.[.lX[.MXMX`.lX[.[.[.xX[.].`.].`.].`.].].J.b.b.J.H.b.b.v.J C.b.v.B.J ' $.B.G H Z G $.H H S Z H Z G G G &.A.&.J ] ;XD.Y.b.Z.G.S.M.D.C.v.S.V.] V.M.v.V.v.I.n.] [ V.n.[ ] S.C.v.D.'.V.(.*XD.vXvXcXY.=XZ.F.-X*XZ.C.*X=X=Xv.n.*XdXY.:X=X-XD.*X;X*X;XA.V.I.' M.Z N.$.K.;.#.-.F U - D U A R I 5 h 5 T . h p O # b # p u u s u w # e.4.s m u w # w c b   9 a 8 t 0 + b 8 9 X q 8 w u 8 a X 5.6.u Y 2 L R Q 2 U E 2 r.*.*.Z P *.*.R y.y.U r.A L r.} E - U ;.*.U *.#.y.#.*.l.*.7Xl.T.T.{ t.l.I | +.-.*.s.s.-.t.-.k.+.X.O.y.t.0.X.X.O.-.a.s.-.,.L.U.*.OXL.>Xl.-.s.P.a.-.s.,.-.",
"` &.$.$.$.#.$.$.$.#.$.$.=.$.W #.;.#.#.#.;.#.N.;.H H F $.=.$.G H U G #.#.#.#.U U F =.T.;.=.;.=.#.F ;.#.#.} #.=.;.;.;.;.F U #.=.;.S R I E E L R A P Q S *.W U =.*.Q E =.Z W ;.` ` ` *XV.V.G.D.V.G.n.Z.(.D.V.C.V.'.V.D.D.D.Z.C.v.n.V.D.V.S.S.] M.M.` N.&.&.` ` ` #.` &.<.2.<.' ] ' &.&.$.N.$.! S S S W I R E 2 . . r # u m : @ Y y X e y j d d r O r : Y ; Y p T n ; , > Y h < p > 2 p p , > > i u > r > r 2 2 L E U P V K.W $.N.B.V.J.H.H.n.J.J.].gXsXsXsXnXsX[.BXxXgX`.[.xX[.xXxX`.`.[.lXlX_.`.lXAXlX`.[.MXMXMXAXZXZXMXAXlXLXAXMXlXAXMX[.ZXKXlXMXAXZXlX-XSXfXzXLXAXlXkXAXAXlXAXAXAXzXNXMXMXMXZXlXMXkXcXSXNXkXcXbXZXAXVXCXnXVXJXNXAXcXKXVXCXZXZXJXJXVXcXVXAXKXAXkXKXAXMXZXNXlXBXNXKXVXLXkXVXKXZXhXkXhXZXZXJXAXKXVXZXkXBXAXSXzXMXAXAXMX[.lXMXAXMX[.[.[.lXMXAXlXlX[.[.lX[.J.`.lX].`.].[.`.].[.J.].[.J.b.J.`.J.b.b.b.b.b.m.[ n.J [ J S.' G J J ! J J m.H H H G G - G ` &.[ H ' ' [ v.[ S.] M.S.D.V.C.v.[ v.[ [ S.D.D.S.V.] G V.C.Z.Z.[ V.V.V.Z.`.-XZ.(.*X(.Z.dX;X=XY.*XZ.D.(.'.F.Z.C.:XmXcXvXvXZ.G.Z.2.F.V.V.M.A.$.G ` H =.F W S F S D U I #.D U L A 7 T L T i k * O s *   6.w b @ s s # b w 6.# 8 b # b u @ w u + t c 3.  a 8 8 @ a 8 a q s X 8 3.# s y ; 7.7.h K R P L - A r.U Q - U } *.U *.;.W *.I I I L I R E A U U L y.U I *.U L R U I t.T 0.X.I { } -.-.-.%.} %.@.-.+.+.| 0.h.I T a.U y.-.U.-.s.1XyXs.U.s.U.s.@.,.s.l.s.s.-.@.",
"$.A.K.` N.$.&.N.$.` ;.W ;.=.H W #.;.F $.L.#.;.;.F $.#.;.N.;.W #.#.H *.=.=.#.H F #.y.L.=.y.*.=.#.Z #.$.G #.#.F #.=.-.$.C U F F =.A U A A U P *.P L Q *.y.=.*.=.Q y.=.T.P #.;.` H _ *XY.D.Y.(.C.G.] C.n.2.V.D.V.V.2.2.D.V.] v.[ [ b.] ] ] V.] &.V.[ ] [ &.%.' &.&.` <.V.%.&.&.&.&.' H H ' =.W H Q D Q U R L r > j y j y m 9 + u u @ $ r w r b r ; n n 0.r p ; 1 i > < , Y Y 1 < p 2 h j > > u i > u , i p k h 2 U R S S =.S $.$.S.S.b.G.b.J.b.].].H.xXsXsXxXnXBX[.].].J.J.MX[.xXZXlXAXMXZXMXAXZXMX[.[.lXZXAXMXAXMXMXMXMXSXSXMXSXZXMXMXAX[.ZXAXAXMXNXSXMXZXcXNXLXlXkXAXZXAXkXNXZXzXMXfXBXMXZXBXAXMXKXAXNXZXKXKXVXNXVXcXCXJXCXCXZXVXNXVXJXZXCXCXbXnXCXnXKXVXZXSXZXSXMXNXNXAXMXAXNXVXSXcXZXJXJXKXVXkXVXNXLXNXAXNXbXkXKXMXkXSXZXSXcXfXMXAXlXBXMXlXMXlXMXZXMXMX[.`.MXMX[.[.lX[.lX[.J.xXxX[.].[.[.[.[.xXJ.n.J.J.J.b.b.J b.J b.b.B.b.S.S.m.' C G H M.m.B.$.$.$.G G #.F ` G &.m.] Y.=XM.M.[ S.' M.M.S.&.V.D.v.V.] A.G.M.' [ J S.D.V.C.Z.v.] (.Z.Z.] [ Z.V.(.'.[ ;XG.V.=XI.Z.S.=X*X-X;X*X*XvX:XY.S.=XI.*XD.A.A.` 2.<.` $.<.#.=.$.U S #.*.y.U D 2 A R 0.5 5 = Y < h p k b > u u u 6.s a # 8 b # # y u s X w a 9 w u t a 4.0 v 5.s # 4.@ # s 4.#   5.0 8 a 8 # 8 ; b 6.L V E E U 3 U Q A *.U U #.F U y.y.*.U I I R U L Q U 5 U L X.R } U I t.X.I t.I y.O.X.5 X.-.+.t.l.-.-.*.d.a.s.O.+.w...X.X...r.>Xg.-.%.<.T.<.%.s.g.s.y.s.} -.%.,.,.%.s.1.",
"$.N.;.H ;.$.=.;.$.! ;.H N.;.#.$.S N.F =.;.` #.` G &.$.$.` $.` ! #.F #.#.y.;.N.;.;.;.W #.$.;.F #.F #.;.F $.K.#.#.W $.*.F #.U S #.P P A V Q P r.*.P S P U U S *.#.W U K.U *.#.F &.G &.&.[ [ [ [ C.[ ] [ [ ] *XV.V.] ] D.Z.v.G.C.Z.v.[ V.v.V.v.V.S.M.&.[ &.V.%.&.V.&.F.A.' V.2.] M.' [ $.H N.=.m.N.U y.R 2 < < > # s n t u @ u 8 s d 9 u @ w n y j Y j T : r . < : j p , , h L > L 1 L p > > u i u > > > 2 p 3 2 P P S W $.H m.H M.m.b.b.sXJ.xX).].xXb.].].sX).J.].xXxX[.].ZXxXlXlX[.MX`._.AXMXMXlX[.AXMXMXMX[.AXMXlXlXAXMXZXSXAXAXSXMXAXAXAXAXAXlXAXZXfX-XZXlXSXzXlXlXMXlXNXAXZXMXZXSXZXAXZXlXlXzXNXkXkXZXVXkXcXJXCXnXJXJXcXNXBXVXZXAXNXnXnXJXnXJXCXnXAXbXNXNXZXkXMXlXKXZXfXKXZXfXLXAXvXKXVXSXbXSXZXZXZXkXkXkXkXkXlXcXcXNXlXlXZXAXkXMXAXlXMXAXlXlX[.lX`.[.MXlXMX[.[.xXMX`.MX[.].MX].gXxX[.`.[.J.].J.b.n.b.[ J J J v.n.B.J b.[ b.B.G H J ] B.! ` ` &.m.&.' &.N.$.` &.A.S.S.Y.Z.J G M.V.] M.&.] [ &.&.A.D.&.[ ' G ' D.M.S.C.G n.V.[ v.'.V.(.(.`.:X-X-X-XhX-XhXvX*X-XvXZ.F.S.D.] [ V.M.&.2.' 2.J G Z ` L.#.#.%.` %.#.} U D U - P Z L 5 P A 5 A R < P h , ; ; r O u O @ u j   # ; b Y b u   s 8 m b # 8 u @ X 4.m c 8 9 0 b @ x.# 8 5.; 8 X 4.X + 9 X X + w ; R T 1 P * S L y.P Z } U D *.R =.K.=.*.D R U R Q 5 U L P P A *.- R R A t.X.A X.< R 6 X.I L O.U U ;.} +.-.{ O.O.I T | T T | U a.l.L.+.,.,.<.;.s.L.s.s.U.P.;.,.-.;.<.,.P.P.",
"&.K.A.&.U.N.=.$.#.$.$.H ;.;.$.;.#.N.$.;.$.A.;.;.N.N.N.A.&.$.$.N.N.` #.=.;.W #.S K.#.#.F W N.U #.=.H #.H #.L.#.W S #.#.U ;.W S #.U Q W E *.P L E V C W *.y.W W U U W ;.#.*.=.! K.H F I.;XY.C.V.G.n.Z.V.V.V.}.V.S.C.v.*XC.] D.n.v.n.[ D.V.C.2.] V.] &.] V.S.V.V.V.2.A.<.` [ ] ` V.M.` N.` N.=.W S V E L 3 3 s j @ m 9 w s X s v u j w y u y n j y j : i . p h j , g k , < 1 Y 1 T i > 1 i , , r i p g p h 1 2 P y.U F =.$.$.I.m.Y.Y.S.Y.J.gXdXxXH.].J.gXxXxX[.lXMX[.`.`.`.zX`.].[.lXMXlXMXAXZX[.AXAXlXZXlXMXZXSXMXMXZXAX[.MXAXZXZXfXMXZXlXMX[.MXAXZXAXlXZXNXLXAXfXKXMXSXkXAXkXMXlXZXNXkXkXZXNXZXZXMXNXSXAXVXcXJXJXJXcXJXVXcXVXVXVXAXZXSXCXJXLXVXnXKXVXCXnXNXJXKXfXAXNXNXZXNXNXZXNXAXbXNXcXVXcXVXcXcXJXAXVXCXVXJXAXZXZXMXBXSXMXAXfXZXNXAX[.kXZXNXMXMXAXMXlXlXlXMXMXlX[.[.[.[.lXlX].`.xX[.[.`.[.xX].[.b.J.sX].n.J.J.Z.H.H.S.G.J.C.V.' ` G J M.M.S.Y.` H $.$.%.` &.*XI.` G ! A.S.' J H ' M.A.A.A.N.D.I.M.] G H ] ] M.] ' V.C.C.-XG.Z.).-X(.dX-X_.hX-XvXhXmXVX;X=X;XC.*XG.;XG.D.D.F.I.mXM.;.&.S.<.L.;._ <.;.*.&.#.A = D - - 7 7 L L Q * 5 2 5 5 R . > p ; 5.> i   ; w ; m e.@ : w @   8 y m 9 s X 6.X @ 9 m u 8 t 3.+   5.o X b 5.6.  8 Y u m + 8 0 a + X 9 ; 6.Y ; K A E A *.U L *.U W y.;.*.y.S Q U r.U U Q U *.P E R U A E h *.I 2 *.X.t.T | h X.| R -.X.} ,.X.y.s.{ | w.0.X.I I t.k.t.s.-.s.%.s.P.%.%.P.s.L.<.s.;._ %.g.s.P.U.P.P.",
"=.N.;.=.I.N.! H #.$.#.W ;.$.! H =.W F #.W N.;.` &.;.;.V.$.` $.&.` G F $.A.$.$.H $.#.K.G H L.=.$.N.W #.$.F ;.W W H W =.G #.W S #.W U U R R S A Q *.P Q *.K.U =.=.F ;.;.#.F W $.K.F C ;.Y.S.' V.Y.V.Z.D.(.D.(.V.D.}.V.=XD.V.C.[ [ V.v.C.C.v.V.V.Z.D.(.V.2.] ] [ [ H ] V.A.&.[ G ` D.' N.M.N.$.H U R Y 1 < s ; ; # 5.s s q 8 s s 8 d t y r b M j r i : j > j p h j g Y , k k i 2 R > 2 , i i > , i > , ; 2 L 2 V D U S H H $.M.[ S.G.H.J.J.].H.].].gXH.].].J.MX[.`.AX`.`.xXZXzXMXAXMXAXZXMXAXAX[.lXMXAXSX[.AXMXlXMXZXZXMXAXZXZXSXMXZXAXlXSXSXZXAXMXkXkXAXkXhXVXBXfXSXSXZXcXAXSXAXSXNXBXBXkXAXBXZXlXzXAXBXlXNXVXJXcXJXcXCXJXZXJXZXNXKXJXVXcXcXCXVXJXnXVXVXVXkXCXVXhXAXMXMXNXAXNXVXKXNXZXNXJXJXVXLXKX-XZXNXNXVXkXVXNXKXZXkXBXMXkXZXAXlXzXNXAXlXMXfXfXlXMXMXlXlXlX[.[.lXlX].[.n.ZX].n.xX].].`.`.`.J.n.n.J b.b.J.[ J J b.b.' [ b.[ J G G ' V.M.J G H A.S.` G ' A.N.N.L.J N.mX;XH G M.*XM.S.S.S.M.] H F H [ &.H G [ ' V.V.n.*X(.V.(.Z.`.'.-X(.-X(.'.hXhXvXhX*X-XZ.G.G v.v.V.=XM.] V.] ' Y.#.A.N.#.G ` #.*.D D - 7 - * - A - A E A 1 = A 2 L 2 2 E e.2 . p > T ; p s s w b y s @   y w b # 9 y a v   3.X u a a q a 8 X v c m c m b # u u u s # w t # # a 8 8 w # n n u p L D 2 I 2 Z P P ;.*.R S U S *.U P L U A A Q A A R r.R E L X.E R P R X.*.*.5 5 5 R O.w.} *.} U U R T R X.X.O.I O.L.@.} s.@._ } <.P.%.%.%.L.,.<.-.%.s.+X$X8XpX8X%X",
"L.N.=.$.K.;.$.=.#.$.$.H N.H $.S L.#.#.N.N.N.N.&.&.A.M.&.' N.N.&.&.H ' &.L.` ` F ` $.K.H #.L.K.=.;.=.#.;.#.K.H #.=.=.=.H ! #.W W S Q S U U U P =.P S =.*.K.U W F W K.;.=.=.*.T.T.#.Z $.U.Y.M.M.H.V.V.V.V.C.D.<.V.V.] V.V.] Z.v.] C.] ] v.[ v.2.] V.C.] n.v.V.V.M.F.V.V.' G v.] S.A.J $.#.S F F U U 1 ; ; > # u u b u 0 8 a b w y y y e y y d j y j i Y r i r i i T R < T h 1 ; k > 1 h g , 1 i , i i 1 g Y U A - #.$.' $.M.V.[ J.H.dXH.sX].J.J.H.`.xXZXxX[.lXMX].`.`.lXxXlX[.zXZXMXlXlXZXMXMXMXlX_.lXMXlXAXMXAXZXSXMXSXMX[.`.[.ZXZXMXAXAXMXMXNX[.-XlXAXZXkXNXzXAXZXMXkXMXSXNXlXkXlXkXZXNXBXVXZXzXkXNXNXVXVXhXnXVXKXVXCXJXVXCXCXVXNXcXVXSXcXJXVXVXJXKXVXVXJXLXVXVXKXfXKXZXkXNXAXhXAXLX-XAXcXjXCXJXhXKXAXVXZXNXAXKXkXNXAXLXSXzXMXlXKXAXcXZXzXNXVXAXMXMXMXlXMXlXlX[.[.[.MXMXn.J.].xX].b.].].].[.J.J.J.].sXJ.dXJ.J.H.J J J [ b.m.b.J V.J ' m.M.S.$.A.$.A.Y.A.N.` [ H ` ` H J ' N.$.Z ` H ] $.$.` ` ' &.` F.A.V.Y.S.V.C.[ *X-XH.=X).(._.-X_.-X-X-X-X(.n.(.V.Z.Z.C.dXY.=X[ ] ] A.S.&.M.I.` #.F ;.=.F - } U A . = A I I 5 L L I 2 P I r.L I T T I Y T j L n u O y p ;   n O u y # w   e   #   c e 8 + 8 a X 8 8 q 0 X t m 8 t @ 5.5.u ; u u u # s e v 8 9 s a # 9 s i p L R *.*.-.*.U U *.S S C R U *.Q Q U y.P Q *.P r.E *.r.2 R E 2 y.E I L I X.I T X.*.X.r.X.X.-.D I X.| 0.t.t.k.-.-.@.} s.%.P.s.T.s..X+X+Xs.g.P..X+XP.U.+X+XP.+XP.s.",
"K.N.=.$.&.;.$.#.=.=.$.` K.W L.H K.;.W ;.;.F ` N.M.' H %.$.M.N.S.N.` $.&.N.H M.$.` H ` N.=.L.N.$.F ;.W =.$.N.S W W H =.U #.W W H D *.W =.Q =.S *.P U =.F y.W #.#.%.=.F #.L.P T.T.K.-.W H L.S.D.Y.=X*X*XD.D.D.F.S.D.V.S.F.S.*XG.(.V.n.] Z.] (.G.Z.(.Z.v.(.'.n.[ [ V.&.2.] ] '.M.' S.&.A.N.F =.#.U E L Y h p ; s u 4.X u u u b a w @ y w d j r j e j : > ; k T h ; r.0.. h 1 5 h 1 < p L p , > i < < h L 2 2 V I U U #.H ] N.v.J C.b.Y.].b.[.J.bXBX[.].xXgX`.`.J.J.[.`.[.gXlXgXlXAX[.MX[.lXZXAX[.AX[.MXlXlXAXMX_.MXlX[._.MXZXZXAXSXZXZXlXMXSXZXZXZXkXzXKXNXMXVXKXcXAXMXkXAXMXAXlXAXZXkXZXcXMXMXkXBXNXZXNXZXBXVXJXVXcXvXVXJXCXVXJXCXJXNXKXVXVXKXnXvXcXKXjXdXKXZXfXVXcXAXNXKXKXNXcXNXVXcXcXAXKXJXbXVXhXZXAXNXNXcXkXZXZXZXkXkXlXAXZXNXNXlXSXAXMXNXMXMXAXlXlX[.lX_.lXlX[.xXlX`.].xXxXxXxXgX].xX`.].J.J.J.J.H.b.sXJ.n.H.b.v.v.v.M.M.J G M.[ M.A.[ &.J M.S.A.;.&.M.H _ ` U.I.I.` ` M.M.M.S.J ` ` ` J ` U.A.M.I.&.[ [ ] ] V.v.(.(.).sX(.jX_.fXcXcXsX-X=X(.G.;Xv.C.V.G ] ] G G S.&.$.;.$.F =.#.#.7 *.*.D - A * Z I R A L U 2 L P R L X.Y R R L T I 0.l r.l j T > Y T 5.p n 5.% 5.b $ w w M w w @ e 9 0   9 X 8 q X 8 e.8 t X M + y ; m ; p n @ y # 9 X m 3.9 8 8 s t + w n p R R A R y.#.U V - Q D W P U Q Q S E V *.Q K y.E Q V X.E T R R X.R R V r.I L I 0.h X.0.r.U.X.y.h.t.h.P.X.@.D _ ,.%.-.s.P.P.+X+X+XT.1.T.P.T.s.OXT.oXP.P.P.P.+X}.",
"=.N.U.W #.N.W #.=.$.$.#.$.N.N.` =.=.L.$.S N.N.$.' ' ' %.M.' A.&.` N.$.' A.N.N.$.$.&.$.N.N.=.$.$.S H #.! N.N.K.F N.S =.F ! K.#.H P *.W #.=.U W W S *.=.y.K.*.;.W &.;.;.F y.#.S A y.W C F N.D.$.G.Y.D.G.M.[ ' ' [ [ &.[ D.&.G.v.*XC.V.V.D.] ] Z.v.V.Z.(.Z.G.n.v.n.Z.[ &.[ *XD.V.V.M.&.#.$.U F S S 1 1 > p < ; n # y $ w e b w b w : y 5.d n j y r y < > j i Y g j L i * i l i i ; L i p p i > * > > 1 L 2 R I P S $.F G ' M.V.M.G.J.G.J.sXzX[.gX[.].gX`.].[.BXgXxXlX].[.MXMXAXZXZXlXMXZXMX[.lXlXAXAXZXMXAXMXlXZXAXZXAXZXZXAXMXZXZXMXlX[.SXMXAXMXAXlXNXAXMXlXZXNXNXSXNXSXBXAXVXJXlXZXNXCXAXbXbXNXNXAXAXzXBXNXcXJXJXNXvXJXJXbXcXZXJXVXAXJXvXhXSXSXJXLXVXVXVXVXVXVXVXNXZXAXZXVXVXkXLXCXnXNXJXcXAXJXKXfXJXVXNXNXcXKXbXkXAXKXNXNXNXkXNXAXcXAXlXVXlXlXNXKXbXMXMXMXlXMX_.[.lXMXlX[.[.[.[.[.`.].J.`.J.J.n.`.J.].).G.sXb.H.B.S.H.Y.v.' C.Y.M.M.' V.' V.;.;XN.&.G [ ;.M.A.V.$.&.M.&.' &.' ` G [ G ' ` Z J ' _ [ [ 2.[ V.Z.'.hX-XVXNXfXkX).-Xn.Z.`.(.v.n.S.G.V.(.V.2.S.A.V.' M.;.A.&.$.A.F H #.G - Z - U U 2 A R A P = R L E R 2 I *.L R = r.L 5 R T T < k g h r k l f 6.T y m j T T 9 w w 5.y o b 3.+ 5.  8 q q X q X 4.q 0 a m   9 b s 5.u 5.i b w 9 # t 5.w 5.# 5.8 # s 9 k = r.E I R P - Q S P S P Q C y.Q P Q V Q Q V R Q K E R E E E 6.L E I L X.R R 2 R T R X.R y.y.l.t.P.t.X.} 6Xs.<.} <.P.$X;.L.U.8Xg.,.1.,.T.g.-.<.s.g.+XT.+X+X8X+X",
"#.=.K.W W =.=.$.$.=.N.;.$.#.W S N.=.%.=.H ;.&.&.A.;.$.M.N.$.S.N.J V.M.A.I.m.N.! ;.$.S ! ! W S =.J W $.$.K.K.K.W K.H ! H W ;.W W H W S F U W =.Q =.=.=.#.=.F W #.G =.=.=.L.y.*.*.=.*.H $.N.S.M.S.D.] [ [ [ [ [ ' ' ] &.V.] D.m.D.D.V.S.D.v.v.D.S.(.G.Z.C.(.'.Z.Z.Z.V.Z.2.D.M.[ ] N.` G F #.*.U 2 L h i j g j T : j y d b n t b y c b m b d r y w n w ; i i T j 1 l p , g l i h l k 1 r , > > ; > 2 h p 2 L A y.Z F ;.` [ M.G.Z.=XH.dXsXY.J.].].zXb.].gXxX[.[.gXxX`.xXMXxXlXAXMXMXlXMXAXMXAXZXlXSX[.[.SXlXMXMXMXAXlXAXSXZXAXMXMXlXlXAXAXMXlXSXAXBXAXlXkXVXVXcXhXSXNXMXNXSXBXSXNXhXZXkXkXMXNXAXBXzXMXSXBXKXZXNXCXJXJXcXCXCXVXVXZXZXJXJXZXnXZXLXJXVXVXnXLXKXJXVXVXJXKXVXcXKXjXVXKXjXNXVXJXcXfXVXVXcXjXcXkXNXLXNXJXNXLXZXkXNXVXAXNXAXZXAXZXNXZXZXZXMXkXlXBXzXfX[.lXMX[.[.`.[.MX[.lX[.`.].[.[.[.].].b.`.J.J.J.J.G.b.n.n.S.n.J C [ C.v.[ C.S.' S.S.] [ G G ' ' ` H F G ` ` ` $.` J J ] [ J Z J &.&.M.[ [ C.D.(.Z.sX-X=X=Xn.).(.H.).).cX).Z.D.-X(.C.C.;XS.I.&.A.I.M.<.$.&.;.$.#.H #.Z G *.U A R L R *.R 7.r.r.P L P A E L P L 2 5 L 2 y.k = k 5 , 5 g < 1 . < O < n k ; f w c m d b u d @ c u M + b t 8 v 8 q X q 8 8 a X 5.m w s u 5.s 6.r j m 5.s a m X 0 4.a 8 9 0 # 6.Y 1 X.L U P L U Q *.P P *.U P S r.~ W P r.Q *.*.Q y.E L E E r.E S A L R L R T X.L L L I R X.U } y.s.+Xs.-.%.U.1.%.P.%.L.GX1Xs.|.T.6XOX6XyXeX6X6X8XtX8X8XrX8X%X",
";.! K.$.=.$.;.=.;.=.$.=.$.#.H H #.$.;.$.H ` ` N.&.$.' M.S.$.N.A.J $.H F $.` #.H N.H S W =.*.W ;.H #.=.#.;.N.F S y.H W #.H =.W S W W W =.! W ;.*.y.W #.W K.W #.L.#.;.H W y.#.Q W S =.W &.N.S.S.S.v.[ [ M.S.V.&.<.&.` M.` H &.J ] ] M.S.Y.V.v.C.Z.C.V.n.n.Z.n.n.n.D.C.C.] V.C.S.I.I.#.#.*.*.Q 2 * i , i < n n m e % % 9 : w o w @ r c y n j d n O n r r j n T h > L L 1 p g 1 l n j : i > > , i 3 1 i 2 L A V T.A - N.` G ] D.C.S.H.H.sXH.`.[.`.[.bXxXxXxX[.ZX`.`.[.[.[.[.[.[.lXBXlXlXMXMXAXZXMXlXMXAXMXlXMXAXMXlXlXZXMXSXSXMXAXAXMXMXSXAXAXlX[.MXNXSXBXkXNXAXNXNXNXAXSXNXNXNXAXNXKXNXVXVXNXVXVXzXjXNXcXlXhXkXNXNXVXbXJXCXJXCXVXVXVXVXcXhXVXSXJXvXPXjXJXVXJXcXcXVXKXKX(.ZXLXVXcXZXbXZXJXZXhXLXVXCXJXJXkXVXNXAXCXcXNXSXcXNXcXAXVXAXzXSXMXfX-XlXSXkXzXNXZXgXAX].MX_.xXBXZX`.MX[.[.lXxXxX].].xX`.`.`.J.).sXgXJ.).J.G.v.b.B.J.*X-XdXV.[ m.S.S.M.M.&.V.&.F.I.G ` ;X*X&.' &.&.&.&.D.S.V.] ] Z.M.] [ C.F.;X-X-X-X-XpXfX:XVXhXcXvXhX-X(.sXC.[ M.] ] [ [ S.' $.` ' ;.` ` F Z G C Z F G - U P A P U P U *.r.R A r.P R V 1 2 2 R 5 * p = 2 5 I & & O = 0.T = , = , < = = g % u ; o @ O y % O o e % y o v t m a a v 8 8 a 8 4.a v s 8 b w 8 ; r r ; u s m y 9 # a u a 8 s 4.# ; ; ; p V 2 V V V S P P S Q Q A ! r.P E Q Q P P R V E P K P K Q Q R R E R L T P R T R Y R T R R D *.;.>XmXT.8X+X6XY.P.U.Y.GXpX6XOXOX8X7X$XoX$X8XOX8X+X+X+X+X+X}.",
"L.#.y.=.N.=.K.$.$.#.$.$.$.&.$.#.;.$.W H $.N.&.$.I.N.S.I.I.M.$.$.&.&.' &.L.N.$.H H W F F W W =.=.H $.=.=.N.K.H =.$.H F =.W =.W H $.W =.;.=.W =.! K.W F W L.F F #.;.;.F F N.Q *.=.W =.#.$.B.I.Y.C.G [ b.V.S.A.&.' L.&.A.' ` ` ` ` ` ] D.*XD.] v.V.*X(.D.(.(.Z.(.Z.Z.(.'.(.Z.V.] &.' H L.#.U L 2 2 * ; , O k j r % d e y y c w m y d b y n e e j # > < r g > l > ; T Y > > i i y i i . p i u > p i 1 3 3 Y E V y.A F &.' G ' G.V.C.C.H.J.J.n.xX].MXJ.b.xX].[.AXxXxXBXMXBXMXZXZXZXBXMXZXAXAXAXSX[.AXZXAXAXZXMX_.lXAXSXAXlXMXAXAXAXSXMXSXSXMXMXkXMXNXMXcXzXlXAXcXkXNXkXNXjXbXkXkXMXVXjXkXNXVXbXNXBXZXKXNXNXZXLXAXSXJXJXVXVXbXNXcXNXJXKXKXZXVXLXSXLXJXLXSXJXSXJXJXKXVXNXKXfXAXJXAXZXSXcXVXCXcXNXVXNXVXVXjXcXAXLXvXNXkXJXZXZXZXNXZXNXNXMXAXSXAXzXkXAXMXkXlXMX[.gXgX[.lX[.[.`.[.MX[.J.`.[.].`.`.J.J.b.b.b.b.b.).J.J.[ v.[ [ v.C.v.J [ J V.=XY.S.A.D.[ &.I.S.&.G ` &.$.G G G G [ ` M.[ ] [ G [ ] D.*XpX;X).'.'.-X-X_.Z.Z.Z.n.n.[ n.n.b.V.] 2.D.V.D.I.&.&.H A.;.;.;._ G C G F Z F *.#.A U *.U U L A L A 3 L 3 r.L E L 1 A 2 R 5 < L 2 1 . I < 5 , . X.< O , < , ; ,   , O j n r $ O e : w d u @ d + $ X s X 0 8 s X 4.X v X # # u b u O b j 6.r n ; n u # s m X t 8 # 5.8 @ * Y > Y R L P P P P W P A Q W P Q C W y.P y.*.y.U E 7.E V V K Q *.R P E L E p L Y X.E R L R L 7 } -.y.T.8XFXtXT.GXtXPX8X8X8X8XOXP.+X$X.XT.P.T.U.+X+X+XP.}.}.+X",
"=.W K.Q =.=.K.#.H $.N.=.$.$.$.#.L.N.=.#.N.L.N.&.N.H $.A.B.N.B.A.$.&.$.` ;.' W F U ! Q W S S W W U #.#.$.$.=.F $.=.! F ;.W ;.=.=.W S ! F F ! ;.W K.=.S W U.W ;.#.=.#.$.W L.W ;.#.*.=.H #.N.I.Y.M.[ S.S.V.S.S.A.$.A.&.$.&.#.H H ` &.N.V.M.&.] M.Z.=XZ.v.n.C.Z.Z.Z.Z.Z.n.C.v.V.V.A.N.%.U.*.E L 3 > * u s u m j O 9 s w w 9 s 8 a s y c o y # : n r b p j k p n p p Y h > > p i s s u   p j s * u p 2 3 3 R Q L U S F F $.` ' Y.V.G.sXH.sXH.gX].J.n.xXgXxXCXzX].[.gX[.MXlXMXBXlXlX[.AXlXlXMXAXlXlXZXMX[.ZXAXMXMXAXAXMXMXZXAXMX[.[.MXlXZXSXlXMXSXZXZXAXlXlXNXZXkXkXAXVXcXkXZXVXNXcXZXbXbXCXNXbXNXbXbXBXlXjXNXCXcXjXCXJXnXnXkXVXbXcXZXJXJXcXSXLXcXJXPXVXVXSXvXnXcXJXcXVXJXZXSXbXNXJXcXcXLXNXAXjXKXJXJXhXcXkXVXkXJXcXhXKXNXNXNXfXhXkXNXAXZXMXZXNXBXZXNXNXlX[.[.ZX].lXxX[.lXBX`.[.xX[.[.[.J.[.[.`.[.].`.J.].J.J.J.J.H.b.[ b.S.V.[ [ G.D.Y.' v.M.V.[ &.D.&.<.A.&.&.Z F ` [ ' ] F.M.V.V.Z.Z.v.(.(.(.F.'.(.vXjX_.'.).-X).-X).=XhX*X*XG.V.C.v.[ ` G $.` F ;.L.A.` - - Z U #.D Z A - U #.- A *.A A L R U L L L 2 r.2 1 L L R L T L L g I M = 6.f k l O T , , l , ; : n ; g O : n y r @ ; # ; # y   5.Y e v b 8 # s s 0 a X a 8 a a a a 4.# 8 j j < Y p y u b u u s 8 s X b w s s ; ; ; 7.3 K V ! K P P C P Q *.! =.W P P P K.L Q P 7.Q E y.E Q E P 2 L L R Y L L E h R L E 2 U U P D I *.-.T.;.;.8X;.<.+X8X8X}.P.g.<.<.}.P.<.F.P.S.P.V.<.2.S.",
"=.P N.=.W G =.$.=.;.&.$.#.&.N.&.N.;.N.N.N.H m.A.N.$.A.L.N.L.$.K.&.<.;.#.$.W #.;.$.*.=.W Q S P *.=.N.;.=.=.$.U =.;.#.W N.$.y.#.$.H H H C W K.K.Z W W Z W N.W K.W W *.s.U *.F Q F G #.` ` M.N.N.] [ V.v.M.A.M.&.` ;.$.G =.H G J H G ' N.A.V.V.J [ Y.Z.C.Z.Z.n.n.n.Z.G.Z.*XZ.C.M.&.$.F U S K L , ; u b b s b d w e 4.a a 9 u u v t w e o u O e T b r > > y i Y > . L p i i u > i ; u ; Y n s * > 2 i p p K R R P W Z C &.$.J S.C.Y.S.J.J.`.`.J.].].zXgX`.xXxXxXxXlXlXZX[.lXlXBXAXMX[.lX[.lXZXMXlXMXlX[.AXAXlXAXAXZXAX[.ZXAXMXMXMXAXZXAXMXMXZXMXMXAXNXSXSXNXNXcXNXcXcXNXcXSXNXNXcXjXbXNXVXVXVXJXCXVXBXZXZXNXVXJXKXJXCXJXJXVXJXNXcXNXVXVXnXJXJXmXZXKXDXJXJXJXVXVXKXVXVXKXJXvXJXVXkXJXhXVXcXbXJXbXZXVXKXcXNXnXVXNXNXcXVXNXCXVXNXMXAXZXMXZXkXMXgXlXMXlXNXAXZXBXMXlX[.MXBXxX[.].].[.[.xX[.[.xX`.[.`.`.`.].xXJ.`.`.b.J.J.[ v.V.C.C.n.S.V.' V.V.G [ H ` 2.A.I.A.%.&.G A.m.[ <.V.A.&.*XD.D.-XZ.).:XcXvXvXhX-X-X-X).'.`.`.H.Z.2.M.v.v.&.] M.M.` &.A.N.H Z F S - - - Z S A A U A U C L *.A U y.A A E P - * P p i R L < L j l 1 5 n k ; g g < e., : g p e.n y r : r r n r j r j 5.n Y n n r y : y # r w @ w # 8 X 8 8 9 # X 8 X v w 8 s 5.s a Y ; j r T b T 6.; b s ; s 8 4.s w s # s s K K E K y.W Q Q P P =.S E Q P P K *.E Q *.P Q E S ! K Q E L P 7.P E E E Y L Y R p R L r.R Y E I X.I *.l.L.U.{.+X&X%X}.}.P.F.F.U.8X8XiX8XvXpXvXvXmX;X:X",
"=.W y.=.=.Z =.=.K.$.#.#.$.K.A.$.K.$.$.$.N.#.M.$.$.H N.N.$.N.` N.H &.N.$.;.&.#.#.W Q Q U Q L P Q S #.#.=.=.#.;.;.=.#.=.y.=.K.#.U $.! N.H N.K.$.Z #.=.W N.#.H ;.F =.W ;.F W =.$.=.H #.N.&.I.B.M.M.[ v.M.S.S.M.A.&.N.#.H &.#.H H S $.&.J ` ` S.` ] C.(.G.).'.J.n.J.(.(.Z.*XZ.V.S.A.I.;.*.U K Y s ; s 5.u b a s e e a a s q 0 8 a u y y y r d y r @ g r p n k T 1 ; K Y i i i u s ; ; u 5.s p ; i p p K p L E E U y.Z F $.=.' M.A.Y.G.n.J.n.).`.[.].].gXnX].[.gXzXMXMX[.[.BXMXMXMXAX[.MXZXAXAXSXAXMXMXAX[.lX[.ZXAX[.MXlXZXZXSXSXMXZXZXZXfX[.NXMXMXMXNXkXkXAXcXlXcXkXSXSXSXNXcXVXJXkXVXVXCXbXbXVXzXzXNXNXVXJXZXnXCXVXCXJXKXVXZXVXVXZXVXKXJXJXJXvXJXLXJXnXJXJXSXJXJXJXcXKXLXjXSXLXJXVXcXVXbXJXZXbXcXjXVXVXVXJXSXLXAXbXCXVXZXcXJXJXVXlXMXZXZXAXMXNXMXlXBXAXzX_.MXlXBX[.BXMXMX[.xXlX[.[.`.[.[.`.MX`.J.].J.].J.J.].b.b.[ n.C.C.G.S.V.S.=Xv.J ' S.M.S.2.&.S._ G G &.' L.+XF.&.v.'.*X=X;XhXdX-XH.(.-X`.'.2.(.Z.'.Z.n.n.'.(.n.V.C.D.A.A.' H ` ` F ` F A Z - U A V P U U A A U - U 2 - A 7 V R - - E A 2 3 r.L 1 L T > l 1 , . O < ; : < :   5.: y O @ : y : O : s ; : @ : r p Y : u y u u r j u b y ; m b b u u 8 c 8 v m 0 8 v a 8 0 8 # b i O j   : p s j p 5.# u b s b s 8 8 s s s 3 K E Q 7.P Q S Q V K Q P y.K W W V 3 r.E S Q Q Q Q ! Q E P Q 7.E Y Y Y E L E Y s E Y j 6.6.6.Y R L U *.%.D U.}.'.rXvXvXvX8X:X8X;XI.vX;X;X-X;XvX-X;XhX",
"=.=.K.W =.=.U.N.$.H #.N.N.N.$.$.;.=.;.&.$.$.L.$.I.m.S.N.! N.H N.&.;.;.#.;.;.=.W U #.#.U =.W W S U $.;.;.;.=.L.;.K.$.;.;.#.K.$.#.N.! N.$.K.! H $.S W =.L.W W #.F L.U S W W s.F *.$.N.L.N.Y.N.` v.J M.&.M.' #.S.;.N.F W #.W $.W H &.A.J ` $.Y.' M.V.S.n.Z.n.n.n._.(.H.Z.=XG.V.S.N.$.*.I P 3 p p s b 5.# 4.u s a 8 s a a s 8 8 a a w @ u O n n m j Y n n p > b h j Y b > p Y n b u # > 5.* i s p p L 2 3 E P A U y.S =.H N.N.' M.D.J.H.sXfX[.].].[.].BXzXzXBXbXBXxXlXMXAXlXMXlX[.lXMXlXMX[.MXMXAXAXSXAXAXMXAXlXMXAXAXAXlX[.lXMX[.lX[.lX_.lXAXSXMXSXNXcXzXZXcXNXAXcXAXlXjXNXNXjXJXZXBXVXNXkXNXZXBXnXAXZXVXZXCXNXJXnXVXVXJXCXJXJXCXVXVXJXVXJXLXJXSXcXVX:XLXVXVXVXcXJXcXJXKXCXVXJXVXVXbXCXJXnXJXCXJXNXVXcXZXJXcXVXbXVXCXcXNXfXVXkXSXAXBXAXlXlXAXZXBXlXMXgXlX[.xX[.xXgX].MX[.MXxX[.[.MX].[.`.[.`.`.[.J.J.J.J.b.H.J.c.b.J.S.b.M.S.C.C.*XY.M.C.[ [ H ;.A.F G &.] A.` ` ' &.V.V.C.D.(.*X(.=X:X(.(.*X'.`.n.'.`.`.n.n.Z.Z.[ ] V.I.A.G H $.#.#.` Z =.F S U U S L U L A L D 5 U A R U L 5 E S R U L R L E L l.h ; O < . ; : : O % o   N e d   y # @   @ # y   u t y @ @ u # O u n o ; O # # : u 9 9 T s 8 a u s 8 # 5.s 0 v 0 X s q X 5.8 8 @ O . y h u n ; Y 5.w b ; 4.b # 4.Y b s s ; 6.3 3 y.7.~ Q P =.P ~ S P C ! P y.Q *.P W r.Q Q ! 7.r.7.Q Q E 7.R r.E 7.6.K 6.E L E L E 0.Y 7.7.T R T R 7 } %.U.L.P.F.P.P.<.A.*X;X<.D.I.Y.Y.Z.(.D.(.-X",
"W N.=.! W #.L.=.W #.K.N.=.N.$.! $.;.N.;.N.#.&.;.Y.N.L.G N.M.m.N.;.=.;.F #.#.*.F #.#.U #.#.W F U L.K.#.L.;._ K.L.N.W #.W m.L.H U.U.$.L.N.! N.=.N.! S F K.H S s.=.F F K.F =.H N.$.=.B.U.N.I.H H U.J $.` ' N.$.$.H N.&.H H #.` $.L.' ` M.` ` S.N.m.` S.V.n.Z.] [ `.n.n.D.] G.D.N.` #.W U R 2 ; i b s b 5.4.a t a s 0 8 s 8 a w a a X b : @ r 0.u j T y j i u s r j b s > s b > ; i p u > p n i > j K 2 3 L E U S #.W W F H m.$.H S.J.b.H.gXJ.J.].[.lXMXlXMXlX[.lXAXMXMX[.MXAXAXAXAXMXSXAXkXAXLXKXlXAXAXAXSXZXMXMXAXAXMXlXMXlXAXMXMXAXAXlXAXVXNXcXAXNXAXcXAXNXbXcXnXSXcXfXSXAXlXNXMXNXNXSXZXZXlXNXNXJXVXnXNXNXVXKXVXcXZXJXcXhXVXKXZXVXVXAXSXVXJXJXJXLXDXPXNXJXJXLXJXMXSXlX:XZXAXKXSXKXKXlXNXLXJXcXJXJXkXSXJXSXSXJXVXSXVXcXSXVXNXCXKXkXlXcXZXAXMXMXAXlXMXMXlXlXNXNXzX[.[.[.lX`.[.[.[.[.[.`.`.gX`.`.].`.].J.n.J.sXC.n.vXG.=X=XV.H.n.M.D.S.V.M.V.G G [ G ] %.[ V.D.M.M.C.S.V.'.;X*X;X-X'.(.Z.'.-XF.V.=X-X(.V.S.C.] V.C.I.N.$.H Z H #.U 3 Z G A S U A A L 6 A 5 5 I 5 L A L L I L T L L 6.L i > Y O . ; w   j O # O O w + y + t @ w 9 + e + + 0 X 0 3.X + v 0   + + + c   a X t 9 X + 8 0   0 X m 0 9 8 m X 0 0 N q X 8 X + w X v 8 q b # s s u : 6.O 6.j # 6.# 4.s   m 8 5.8 # p ; K E 3 y.y.~ V ~ ! C c.V Q S L L R L E Q E Q P 7.P r.K.Q Q E Q 7.Q Q E Q P E E R E E E 6.6.r.> 6.y.Y X.R X.I *.X.l.;.+X;.I.L.A.Y.I.S.G.;X*X*X;Xn.-XfX",
"! W G W H F K.N.$.#.! W $.L.m.G N.N.=.$.$.H $.$.N.$.A.` &.` N.L.K.;.=.W #.#.#.G %.$.#.$.;.&.$.#.#.-.=.;.#.F ;.;.#.$.G H #.=.J $.N.G $.W W =.S H =.$.W ;.W =.y.S U #.L.#.$.#.K.$.$.U.B.$.A.' $.I.' $.` N.N.$.$.H $.$.$.' $.] M.S.V.' ] ' ` $.H ' A.D.V.v.'.`.n.n.(.Z.V.V.*XY.I.$.U *.A > > j m y 8 4.6.w 8 s a a s @ e 9 b a s u   u w w e Y # : b : i y b n s p > s p > i s u u u : u i j r > p V K A V A S V F #.H G F $.&.! ' b.b.n.].`.xXgXJ.[.[.lXMXlXlXlXAX[.MXlXBXAXMXlXlXMXlXMXZXSXMXlXlXAXZXZXlXMXZXAXAXlXMXAXMXMXMXMXBXlXlX[.MXhXNXbXcXcXbXkXcXlXSXVXkXNXAXMXlXkXJXBXSXVXNXkXNXAXNXZXJXjXVXVXVXZXjXVXKXJXVXZXZXZXAXAXAXSXKXJXAXSXAXSXnXSXnXnXJXCXJXKXJXSXLXLXZXSXkXcXcXAXLXKXvXCXAX).LXSXVX-XJXJXJXVXvXJXVXAXVXJXVXJXNXZXNXAXZXAXkXSXAXAXZXMXSXMX[.zXMX[.MXlX[.[.lXlX`.`.`.[.[.xX`.[.zXxXn.n.).H.).(.] S.C.H.[ ] ] [ v.V.*XJ &.' ] <.%.2.[ G &.&.V.D.G.'.(.D.*X=X(.(.(.2.] [ ] *X(.V.&.] V.[ [ ' $.I.;.H F F S S U U A - A L Z A P A L L - 2 2 2 L 1 5 Y I k Y 1 p < : ; % O # s y ;   u # b w @ y u 8 d 9 o 9 @ X 9 $ 9 0 X e o a 4.9 X $ X 8 $ 9 X 0 X q X 8 8 8 X 8 4.X 8 q 0 q v 0 3.0 t X q o X t X 8 t m u 8 b b 8 5.8 8 @   8 n u : n @ b b u s c u s s @ Y p > K E V 7.! E K.~ E ~ Q K P L y.E K E 7.7.E R L Q E Q Q E P P E Q Q E V R E L P R 2 E 6.7.E T T h Y I R R 6.R *.Q U.&.L.N.N.I.I.I.M.D.Z.).-X(.hX-X",
"=.! ! $.N.W K.;.$.F W $.N.=.! $.=.$.$.$.;.$.N.=.=.$.N.$.N.$.N.&.$.#.W #.=.#.#.F $.#.#.$.N.&.$.&.#.%.;.;.H W ;.=.K.L.$.N.&.K.N.=.K.H N.$.$.K.H ! K.N.$.#.S ;.U F F #.&.F F H N.$.! Y.N.&.;.$.$.N.$.` J M.m.H $.J ' J M.J ] M.M.] &.M.&.$.` S.] &.V.A.M.V.F.`.'.n.`.(.n.D.I.&.I.;.U U * * , u u y w m 3.# 8 w s u s 8 w @ s s 9 9 u b j n m 5.: j b w y k n Y b u u p s ; > p s > > u r r i r , p 2 2 2 2 P U S U W W $.$.&.N.$.G n.J.].b.J.[.sXgXlXMXlXlXMXAX[.lXMXAX[.[.[.MXMXAXlX[.lX[.lXlXAXSXZX[.MXMXMXAXlXAXMXAXMXlXAXMXMXMXMXlXMXMXfXZXSXAXNXcXlXNXSXcXcXZXhXlXkXSXkXkXfXcXjXVXAXZXAXzXAXAXkXAXJXCXJXBXKXbXJXNXAXVXZXJXVXcXcXZXVXAXJXJXLXKXLXLXJXLXSXVXVXNXSXZXZXcXJXZXKXnXcXVXZXAXNXVXJXVXJXLXJXSXJXSXcXVXAXcXAXSXKXVXJXNXZXZXSXlXMXZXAXMX[.[.AXlX[.kXlXNXlXlX_.lX[.lX[.xXxX[.`.`.xX[.`.`.b.n.H.`.C.n.).hX=Xb.V.dXG.-X-XS.] ' V.[ <.A.F.&.%.A.F.*XV.v.D.D.S.'.D.'.(.'.D.Z.Z.(.(.'.D.2.V.V.&.V.V.S.I.' N.G Z G F U W U S A 7 P L A 2 2 2 2 L 5 L p L T L h I T h h 1 g < , r d u ; @ u w 8   @ y d w 9 9 w 9 9 d 8 + $ c X o t X 9 X X 0 m o + X v 0 c @ 0 q m 9 + X t + X a   8 0 + X c + d X 0 q 0 c d v X 9 # # + 4.u 9 8 4.9 9 9 @ # n r y p : b u b u u a 5.y   5.; * E K K E B.~ K.! m.K.Q P P L Q Y E P E E 7.E R r.E 7.7.Q 7.E r.Q ~ Q Q Q E P U y.E R R Y y.R L R L R L L R P R r.y.$.;.;.U.&.W Y.V.D.*X;XvX-X:X[.",
"! #.$.=.=.$.N.W H #.N.N.=.! H =.G H W $.$.$.&.#.K.$.$.$.U.;.U.` U #.%.*.#.F F _ #.#.#.#.$.$.! $.$.#.%.#.#.=.$.=.=.N.W &.H N.&.H H #.N.W W =.#.! H $.F $.F y.W K.F %.=.#.#.N.L.N.$.I.=.&.N.' $.` ' $.J &.&.$.' $.$.` S.' m.V.S.M.V.D.&.&.' A.` ` A.M.C.D.n.n.Z.Z.Z.(.C.'.C.' ;.=.U U 2 < Y ; O b b s u X t w 8 w w 8 e 9 8 u 9 t u u : w y Y O r k p j n y y y p j p ; ; p p : ; > r > > > > u i 2 L A 3 Q U A S #.F W H Z $.N.m.J b.B.].`.[.gX].`.[.xXMX[.MXMXBXMXMXMXMXMXBXMXMXMXMXSXAXlXZXAX:XSXlXZXlXAXZXZXAXMXAXMXMXMXMXlXlXlX[.ZXlXkXAXNXAXVXcXhXNXNXjXvXKXMXZXZXZXkXhXSXZXNXAXVXNXNXkXAXcXcXZXLXAXAXVXLXbXJXVXZXNXSXZXVXSXZXLXVXKXJXJXKXSXKXKXVXJXVXJXJXJXSXKXLXSXKXAXKXJXKXSXcXKXLXVXjXJX-XcXLXSXJXJXVXLXJXcXKXLXZXAXNXVXNXAXNXMXlXMXMXAXAXMXlXMXNXMXlXfX_.lXMX[.MXlX[.[.`.[.[.[.[.].`.`._.[.n.G.CX).G.dXG.V.V.S.G.' v.M.J [ [ M.` ` ` G Z <.` &.V.*XG.v.V.(.*X-X-X*X(.V.*X(.S.&.V.A.Y.I.;.S.N.&.&.F ;.G - G D - C 2 2 A 2 L P L L 2 A 2 2 Y p 2 p T Y > * . . & . * O ; O : @ w   @ + e   O   e w % o 9 0 d m 0 9 v 3.  q m 9 + o   o m   X X o X + o   + 4.+ q + 0 q X t X + 0 8 X a q X X N v 9 0 0 m # 9 8 8 # s X 5.8 4.u b w 3.  y b : b : 5.# 4.s 8 v 5.X : u p s 3 ; 7.~ 7.K E Q ~ 7.! *.y.R Y L 7.7.E K L E Y E K E Q Q 7.~ Q E K y.7.Q E U E R R R P p 7.T 2 0.I R E A R I Q y.P S y.=.L.mXmX=XmXvXcXkX:X-X`.`.",
"&.=.N.=.N.N.U.;.$.=.N.$.$.=.! #.H $.$.=.#.H #.F L.;.=.#.N.#.K.U H #.$.#.} ` #.#.%.$.#.$.N.&.$.$.#.$.$._ $.;.#.N.A.N.N.N.$.K.N.$.H M.$.$.W ! ;.=.F K.H K.=.$.U =.F N.L.A.L.U.L.A.$.;.` ` &.` A.&.` S.$.m.S.B.` M.N.$.Y.M.v.m.V.S.S.&.G [ %.' G ' I.V.D.S.V.G.Y.C.(.n.2.v.S.I.;.A L P > , n u % r m w @ + m t # y t u y w 9 e w d s s b u d 5.r i r > r r u i p y p y > u i i : > n h r , p l j L 2 2 V - *.W A S Z Z $.$.F ! N.M.b.b.J.J dXxXsX].[.xX].[.lXMX[.MXMXMXAXAXMXMXMXMXMXMXMXZXlXMXMX[.ZXAXZXZXAX[.[.lXMXMXAXAXMXAXMXMXMX[.lX[.SXAXkXSXNXhXlXMXhXcXCXcXhXMXkXlXZXkXlXlXMXVXkXhXkXlXSXzXVXCXkXfXKXCXZXNXLXNXZXZXAXSXNXKXAXLXlXSXSXSXnXhXvXSXSXJXJXJXJXJXSXSXSXKXSXkXhXvXZXLXhXZXAXVXKXKXnXLXJXKXvXVXVXVXcXjXVXVXcXVXcXNXAXSXZXMXZXlXAXAXlXAXNXzXMXAXNX[.MXBX[.lX_.[.`.lXBXMXgX`.].].n.`.`._.`.v.-XZ.C.G v.Y.M.=XG.S.&.V.v.] [ &.` <.A.&.A.}.&.D.D.;X-X*X(.*XC.v.2.v.F.D.] [ G G ` ` N.#.A.F Z ` #.* F W Z U D V 5 A A R 3 L 2 p p 2 Y T p L p ; > p p . g < ; < , < r f r f $ m d m 8 % f M 9 f $ 9 N M M d v z % v N % m b @ # c $ o t t + e e 9 + t 9 # a   9 t   9 8 v 0 X X + 8 9 c t X + % 8 % 0 N v 9 9 8 8 4.5.a # m 8 s 8 b 8 w b # b w 5.; m s 4.+ 0 8 4.O u 5.# s 7.; 7.E P Q ~ Q ~ P R R R K.K E K E E r.6.R P L Q Q 7.Q E Q Q y.E P Q *.Q U 7.r.r.r.y.r.E *.A *.P L L U P U X.U U W ;.;.U.8XI.;X;X-X-X:X_.:X",
"N.$.! =.=.#.! K.=.W W W =.#.! N.=.;.=.$.#.$.$.$.N.L.#.#.;.F %.F U #.F U F $.=.#.=.;.=.&.m.$.$.$.$.&.;.$.&.N.;.I.U.=.N.N.#.m.$.! $.;.#.H W F *.! S N.F ;.$.y.K.;.F ;.K.;.N.N.$.` &.` H ` &.F <.&.$.A.' [ M.&.H N.S.' N.] M.] v.] ' ` Z [ [ ] &.}.S.C.D.V.V.*X*XC.Z.n.(.v.' &.#.Q E L * Y j u o % : w t @ y s w t y e w 9 9 c e y @ s Y j r j : i r > > r p j n u ; p j u ; u i r i > * O > , > 2 K 2 L P R U S S ! W =.#.G W $.N.M.J [ sXdXH.G.sX[.xX[.xX[.MXZXBXMXMXAXMXMXMXMXAXMXlXAXAXSXSXLXAXAXZXSXMXlXMXAXZXZXMXMXlXMXMXMXMXlXlX[.MXAXSXSXSXcXAXhX-XVXcXhXcXZX-XKXcXlXlXZXAXAXZXZXNXNXNXKXZXNXJXNXcXNXcXJXKXAXSXZXKXJXZXVXSXSXZXcXKXLXKXLXKXLXKXLXJXJXSXSXJXSXJXhXKXkXLXSXcXKXVXLXNX-XKXVXSXJXSXJXSXvXSXJXKXLXLXLXSXKXJXJXSXAXZXMXSXSXLXMXMXNXlXNXBXMXfX_.lXMXMXMX[.lX[.fX[.].[.[.lX].J.b.n.`.`.J.n.dX-XvX=X;X-Xv.J C.G G [ ] G M.G &.I.<.] &.2.2.Y.2.] S.C.V.D.Z.D.D.V.V.V.` ` [ &.U.L.U.$.#.F F Z G 7 } - - 5 2 = 5 5 2 5 p R T 7.6.E 7.r.p p 2 > 3 i > * k < < O , O < : O b $ e $ d o o   e o % & e b 9 N f e t X d 9   m t @   m 9 9 9 y o t t y   e w # v 0 8 t + a 8 % t 8 9 + + X 4.N q X X 0 q 0 m + m a w # X 5.s 8 s 5.u w s u u y u s w b 5.s # e.  v M u 8 ; p ; Y . ; E 7.E 7.Q P Q Q Q U V R E 7.E 7.Y R L L L 2 P E P Q P E 7.r.P Q E P P Q E Q Q y.E Q *.P U y.Q r.P K.Q *.r.P r.r.A #.U.L.+X;X;X;X(.&X'.'.",
"K.B.$.K.K.$.F A.#.W ! #.$.W ! U.W *.F W W =.;.-.=.=.D F s.=.*.#.#.#.F #.U #.#.#.$.=.$.H ' $.$.=.$.$.;.$.$.N.K.N.B.$.$.=.! #.B.H ;.&.&.W W ! U #.=.A.#.&.#.;.y.#.#.;.;.%.$.#.#.#.=.` #.$.;.` &.` M.$.' ` $.$.M.S.A.M.m.] A.V.&.&.$.&.%.` H 2.D.*Xv.V.Z.V.D.*XS.Z.(.v.D.] &.y.*.V R p ; 6.p d : e @ @ y % e y t w e e e e @ r $ w 9 s Y b y y : j j h r p j j Y > : y i < ; u > i p i > i k j 1 h R P R U S U S S S #.=.$.$.$.S H $.' b.G C.dXgXgX].xXlX[.[.lXlXlXlX[.MXMXMXMXlXMXMXMXMXZXMXSXMXlX[.AXSXAXMXZXAXMX[.[.MXMXMXMXMXAXlXMXlXAXlXSXSXSXKXhXkXVXkXhXVXcXvXlXMX`.AXKXMXlXAXAXlXlXNXNXJXNXAXJXNXVXNXAXKXJXhXVXKXAXVXAXJXSXSXZXMXAXSXJXJXSXJXvXSXvXSXSXvXKXZXLXSXSXkXKXKXSXSXvXNXSXLXVXcXKXvX:XKXvXcXKXcXSX-XcXSXhXZXVXZXSXAXlXZXMXZX[.AXSXMXNX_.kXAXMXZXfXkXlX_.lX[.[.fXAX[.gX[.xX_.).`.sXfXNX_.n.V.Z.n.V.*XV.M.I.[ J ] &.&.S.&.D.S.I.%.[ ] &.A.;X*X;X*XD.v.V.] V.V.] ' ] H %.U.A.=.Z F S F - - D A D U I - 5 A L 2 2 1 < > L i Y R p h < * 3 * > 2 2 p ; I 5 1 4 g < < , ; M r : e y : T % o o 4 x T M   % $ f % % z %   d + @ o t $ w e $ $ d : e $ y 9 X t m   a c m c 9 0 m m 9 a # 5.q N 4.q 0   X v v a 8 a 4.8 u v v u x.8 w s 9 # u j u @ u b 8 @ M 9 m 3.X 8 8 w s Y # ; p Y E E Q S P Q P P R E E Q P 7.E L Y R T R Y R P r.Q E Q Q Q Q P A P y.Q =.7.=.7.R K.Q W y.U W S Q Q E y.P A P r.U U F ;.P.P.;X;X}.}.8X",
"I.K.$.N.K.N.G K.W A.K.` ! =.$.N.H $.H $.#.N.=.F =.L.#.U y.} F F F U #.;.=.$.$.N.$.$.` H ! $.$.m.M.$.m.$.! U.Y.$.N.$.$.N.N.K.mXN.` ` N.W W ;.H =.;.=.K.L.$.N.=.F *.;.L.=.;.$.#.$.N.#.&.;.&.A.&.$.A.[ N.S.A.N.A.N.$.A.V.M.N.M.V.V.A.$.` ] ] V.G.Z.D.n.V.C.=X*Xv.C.C.v.G.V.A.=.*.L > r ; 5.  r b $ d $ d w d c y : $ y b b @ w @ e s @ c y i r : l g n p p p i Y p p : ; u i ; ; 1 > ; ; g p 2 < p T L L S V -.=.W S $.;.H $.;.H &.' H ' b.b.J.).].[.J.`.[.MXlX[.lXMXlXMXlXMXAXlXMXMXMXZXAXlX`.lXMXMXAXAXAXMXMXlXAXlXMXZXZXMXAX[.BXMXMXAXMXlXAXMXkX-XkXkXfXcXhXnXJXlXfXSXSXAXkXZXZX].kXMXSXZXNXVXhXjXCXcXZXJXVXcXLXjXVXJXJXSXcXAXJXSXLXKXSXSXJXPXSXJXSXKXLXLXLXvXKXLXSXLXJXLXcXLXZXZXSXLXNXJXVXLXAXZXLXJXLXVXLXVXVXVXLXZXKXKXNXkXVXAXAXZXBXAXAXAXMXZXZXMXNXNXlXBXkX_.lXAXlXfXfXlXfX[.gX`.].n.].fX_.)._.'._.(.-XM.S.I.M.] ] %.&.V.M.] ] V.V.D.F.] I.;X;X;XI.*XZ.2.D.D.Z.] ] ] G G ` $.#.W F *.Z P Z U - 6 D A U I h L L X.T 1 2 T T 1 L = 5 L 1 2 * = h 2 1 h L E 2 0.L L L T , g g g T : : f O   j % . l n $       M % 0 $ v d 9 d M 9 o $ y m j w   b b # # b b o m X m   c @ X c m X 0 d + 5.@ v X q q X v 8 q 0 0 X 4.u X a a a 8 8 8 8 8 8 5.u @ y @ X ; # u m 0 0 X t 9 @ t 8 s u Y ; u ; Y Y K 3 P Q E E y.P E E K E r.L L E L r.P E V R Q K Q Q W r.U Q Q U P 7.Q Q y.P T.W r.=.y.Q y.! Q P E r.X.E U U X.#.F =.<.8X+X}.+XmX",
"Y.K.$.$.=.$.=.;.#.;.=.H N.=.=.=.! W =.W =.N.#.S #.y.#.U *.y.*.*.=.G S <.K.=.;.$.N.N.! H m.m.m.N.&.$.$.I.=.' &.N.m.&.L.K.I.B.N.N.F &.A.#.;.;.;.=.;.&.N.$.$.L.;.$.#.#.#.=.A.#.=.%.;.#.` #.H _ &.#.I.` %.V.F.$.&.%.' ' &.V.*XA.A.' ` $.&.A.*X*XZ.V.n.Z.n.'.Z.Z.C.2.] I.I.&.F U U 2 > Y s @ b o $ r # e + j y y d y e m M $ b w y e # y Y m O j < r T < , Y h Y ; i > y Y > ; O , ; * L 1 Y 5 * i L 2 3 A U R P W *.#.- $.S S &.;.` ' $.S.B.' m.=XsXsXsXgXxXxXlXfXfXMXMXMXlXMXMXMXMXAXlXMXMXMXMXMXZXMXMXAXZXZXlXZXAXBXZXAXBXZXAX[.BXlX[.NXlXhXAXvXbXkXlXMXSXhXZXbXVXNXkXcXNXNX_.AXBXkXKXAXZXZXZXJXJXZXZXNXZXKXSXzXKXZXSXZXKXnXSXSXZXAXlXLXLXnXnXDXJXJXpXnXLXJXJX:XJXSXDXAXKXZXSXJXSX-XJXSXvXJXVXVXpXjXLXJXSXKXJXnXSXVXJXSXSXVXVXZXNXZXZXZXzXNXZXNXfXkXgXBXkX`.KXZXzXfXfXkXkX_.lX_.[._.jX`._._.(.hX`.).Z.).*X(.pXZ.C.F.] M.G V.` ` [ [ ' F.}.;X}.Y.*X}.*XD.D.] [ ] Z.V.[ J V.I.A.&.;.#.F U S *.Q L A L L R A I l L 4 g 1 g l < 1 l = - = L = A 4 L 5 - 5 U L I R A I R L R I T 2 * , R 1 L 1 f . & O . j O : O j : : : j b : : m o r d @ @ + e 0 o b @ t t   e @ c $ a 8 0   0 c   3.o 0 X + + a X v X X X q q q X v N q 8 0 a 8 8 6.0 m 4.X s 8 b 8 w m w s # # b m t + 8 f q 4.t u m 8 m 8 9 ; 6.5.L R U P 3 Q V y.P Q E R L E E 0.E T Y E A E E Q V Q Q E W Q S L Q y.=.Q Q K.R Q U.W K.Q =.! K.K.L *.7.U R *.*.y.Z *.} l.P.yXGXGX",
"K.B.K.$.H ! &.! #.=.=.=.K.$.! $.S H =.K.;.W U =.;.y.#.#.y.*.F U } =.F W ` H $.$.` ! $.$.N.N.N.m.N.&.$.S.m.$.N.N.$.M.I.B.N.$.$.$.G ] ;.=.=.;.#.=.#.H ;.` ;.A.N.;.;.K.$.*.;.=.N.L.;.;.&.;.&.&.L.&.U.&.&.A.<.&.&.A.A.<.A.&.2.` [ ` &.A.I.D.F.V.Z.Z.`.(.v.`.`.Z.Z.Z.D.*XN.H U U L p p 5.; @ b b j j w d r t $ w y d m m m w u @ e d u m M n y k r , j < i h i Y > i p r i : > , , ; . Y T h T Y < R L X.2 U U W W S ~ - H H $.;.#.H H J $.' V.C.G.Y.].G.sXdXgXsXfXgXMXMXMXMXMXMXMXMXAXlXMXMXZXMXlXZXlXlX[.MXSXlXMXMXAX[.MXMXAXlXMXAX[.AXAXAXfXkXkXcXNXSXVXhX-XZXVX-XVXSXkXcXZXSXkXMXZXZXMXzXcXNXkXAXJXZXVXJXZXSXKXZXKXSXNXKXVXLXLXVXcX:XkXcXcXJXKXJXKXvXKXJXnXKXLXVXcXKXLXLXSXLXAXAXKXJXLXSXJXJXCXLXSXcXKXnXvXSXJXJXVXVXcXcXcXAXKXnXSXkXMXNXNXKXZXMXMXlXNXZXBXMX_.AXcXlXlXlX[.kX[._.'.fX(.-X-X_.-X(.=Xn.`.D.D.Z.] V.[ G ] &.] I.I.M.F.2.C.&.V.[ &.2.<.2.2.V.D.F.&.V.] &.%.;.&.` U #.A - P D R P L U L x k 1 l h I L I g h g h l T 5 * = { = = - I I L I I 5 5 7 5 - R 1 2 5 L I h 5 0.< , . , 1 Y ; % T : , % T j y T y   o   r :   @ X @ $ d m t N @ c c o t X t e X v 0 X 9 t X v 8 m v   a X X 3.0 X v 8 q X 0 q + X e.X 8 a 8 4.+ s 8 s a a s q m 9 4.a # s # w 3.8 d 9 t v # v 5.8 s b 5.8 m Y Y T.E r.V E K Q W P K E E Q R E L E P R L U P U K Q y.W A L P Q =.E K r.y.Q L W Q r.y.Q Q Q K.K.*.r.r.*.r.Q Q *.Q r.U - r.*.T.6X",
"! m.L.m.=.=.;.! #.;.;.! K.$.W =.N.#.=.=.=.S F L.#.W S S W F D U F F F $.=.$.$.H B.$.! H ! $.m.N.N.N.$.B.M.$.$.' M.N.S.m.m.$.&.I.S.A.&.;.F *.-.N.;.$.A.F ` ` $.#.H $.! &.;.N.L.L.A.L.A.;.A.<.<.' F.%.&.&.%.` ` $.%.` ' G [ [ ] D.D.I.D.D.D.Z.D._.'._.C.Z.D.n.V.Z.L.=.F A - 2 h p u Y u O u u w u @ $ t @ 9 y t w e t y t @ $ e u y c b j r n , : 1 > l h 1 Y p h l i u s ; r , ; p 1 h Y 2 E * * I A R A Q #.F W #.W =.N.L.N.#.=.H H ' ` B.v.C.C.sXdXbXdX).gXkXzX[.[.[.[.MXMXMXlXlXMXZXAXZXAX[.lX[.SXZXZXZXMXSXZXZXMXMXBXlXMXMXMX[.MXNXAXcXAXSXlXfXkXlXlXcXhX-XhXjXcXKX_.lXZXAXlX[.lXNXZXLXLXVXZXSXZXNXzXAXcXZXKXKXKXSXLXKXJXLXcXZXSXAXKXJXLXLXJXVXJXLXDXLXKXJXSXZXLXSXDXSXJX:XKXLX:XJXJXcXLXLXJXLXJX:XKXSXKXKXAXJXJXSXKXJXVXJXAXSXSXNXlXMXNXfX_.KXZXSXzXlXlXkXBXkXlXfXfX_.fX_._._._._.'.'.`.(.(.:X).=X'.D.S.M.[ ] A.V.G A.` ` %.&.] V.F.F.] V.*XV.[ &.[ [ _ G [ $.A.$.` F S #.;.A Z U L L 2 2 2 5 5 i = , 1 L h L 5 l h L = = * = 7 -.I D | *.-.X.t.I D U 5 A = r.A 2 h 1 R R h T ; 5 O * ; j i ; y o r : 5.: o ; #   b   # v   e X 8 X X c 0 8 X t t o c   a c X a X X + X 9 c   X a + q X q e.q q 0 0 q v X q 4.X 4.X 4.v X 3.+ a # a 8 4.s a t s 5.9 w b   9 5.  m + + 8 X a 8 s 9 t u s w ; Y K E E V E Q Q Q E P P L E A P U Q P Q E Q L Q P Q y.7.P P P P E Q P =.r.Q Q Q P =.Q Q y.! E 7.r.y.K.R =.U E y.y.r.Q R L L L R ",
"N.m.K.N.L.N.N.;.$.K.K.G #.=.=.=.*.! =.;.W W F =.=.*.W W #.K.K.;.W ;.$.#.=.J G =.$.H J ' M.$.m.I.L.B.M.L.N.$.$.$.&.$.$.` A.M.M.S.] &.&.A.#.$.$.#.;.N.I.` $.A.N.$.$.A.A.I.I.I.A.A.] &.] %.M.V.V.] V.[ 2.%.2.&.] 2.D.2.D.'.*X}.*X*XD.Z.C.C.D.(.'.(.V.Z.] V.*XD.F.V.;XT.D A X.5 . > ; 4.b s u u u b e @ c @ b 5.m u w b b b w 3.4.s u u d e : i ; < h 1 Y h 1 L h p Y y > p ; > ; 1 h h k r.2 1 I R 2 - y.X.*.*.S S C S G W #.W F =.;.! H G S.m.m.b.J C.dXsXsXjXfX).[.MXMXMX[.[.[.MXMXlXMXlXAXMXMXZXZXZXSXlXAXZXAXMXAXlXBXBX[.AXMXMXAXlXkX[.cXVXcXjXhXcXSXkXfXjXJXVXhXjXfXLXAX_.ZXLXZXZXBXkXjXZXSXZXAXZXZXkXKXSXZXLXSXVXcXVXSXSXKXJXLXKXZXKXSXPXLXLXLXLXKXJXJXJXZXPXSXcXZXJXAXLXLXSXZXLXJXVXJXKXJXJXvXSXVXNXKXCXSXLXSXSXbXZXZXcXcXAXZXlXSXZXNXzXSXBXlXkXAXNXNXZXKXgXlXNXNXcXhX-X_.:XhXjXvX-X-X-X).;X(.(.'.D.D.Z.F.] V.M.}.I.A.D.;XD.I.D.&.] [ &.] _ [ G &.;.I.P.[ ' G _ Z Z F U A A R V L L R L h h h L L l I T L 5 R l L = 5 . < L 5 7 X.A U X.I 5 I A = = 4 7 = . * 2 1 5 1 h < . T ; O < n g g j O u t Y w e   % + 9 w M 8 X 9.0 4.% 0 o   t 0     9 + X v X b 0 q 4.X v v 8 v 3.q + 0 v 0 X q 4.q a q v q 4.X q a 0 0 0 X 8 a 4.+ c s 8 8 s 5.a X 4.5.8 y @ $ y y   4.s 0 d e t 8 8 s 4.8 4.@ 4.r.r 6.Q Q Q 7.! E P Q Q Q r.Q Q W r.L U U Q P *.Q Q Q ! E Q U 2 P E E E Q Q r.U U U P W U.=.K.K.y.=.K.P y.y.*.Q *.P y.y.X.r.R X.",
"m.H ! #.$.H H W $.;.K.C W $.#.W S W =.=.W W U =.U S W U #.=.=.W S H $.! ! B.N.$.H ! ' m.N.N.M.m.$.N.N.N.m.` $.A.&.$.M.M.I.S.&.A.[ ] ` %.` #.L.;.` F ' ` M.I.$.J N.S.S.A.&.V.] 2.] [ ] %.V.F.2.2.] _ 2._ 2.V.F.S.D.S.S.Z.D.V.Z.n.(.(.`.(.Z.Z.Z.D.A.*XD.A.S.&.] ` P P 2 1 1 < Y Y : b b ; s p b b t @ w X 8 b s 8 t y w +   y a + w w b r r , < , l 5 L h p p V 1 k i > i ; , < i Y L h 3 L * 3 5 5 X.L Q 3 Z =.W =.;.W #.$.=.#.;.` #.$.J m.' M.G.S.b.C.G.hXjXhX-XcXkX[.MXlXMXlX[.[.lXMX[.MXAXMXlXlXMXAXlXZXZXZXAXMX[.BXAXAXMXMXMXAXlXMX[.cXcXcXkXjXSXfXfXcXcXvXVXAXVXJXkXKX[.lXMXlXSXkXMXSXZXKXKXAXMXZXlXSXSXAXSXLXAXVXVXSXJXSXSXAXSXSXLXJXVXcX:XVXZXcXDXSXLXZXSXLXLXSXZXKXSXSXvXcXLXSXSXJXvXcXJXSXJXLXMXSXJXBXcXVXJXSXNXSXVXAXVXAXKXSXzXbXNXSXVXLXAXkXfXjXfXkXkXkXVXfXlX:XlX(.-X-X'.).Z._.-X}.*X*X-X'.*XV.V.] 2.V.F.V.V.F.S.F.*X;XD.A.&.` _ ] %.&.&.$.&.$.#.G F F U C A U U A 2 *.1 2 1 L L h 2 < 2 < 1 i L 5 * = . L L R 5 h I -.R t.U I R 6 5 h h , h 5 T , h > L g   ; < i k n j : O N j o y y 9 % d o 0   q   + q X + X N X c   q + + v q   X q q X 0 X v X X q X v q X X q q X q X 3.q q 3.N X v X a X q 4.8 3.8 4.v q s 4.X e v X 8 q 5.4.8 a 5.b y # 3.u # s s 9 b a 8 s v X x.8 y 5.a 5.s 7.E 7.E ~ ~ 7.E ~ P E E K.Q Q Q *.P P P Q P Q E Q E Q 2 *.Q L y.L P L R R E A r.Q P U Q P W Q W y.U.*.K.K.r.Q ! E y.A r.*.Q y.",
"m.$.m.! m.$.=.;.=.#.;.A =.W F W ! W W Q S ! F W =.W W $.=.#.W H $.=.W W L.K.! J B.N.$.$.m.$.$.$.H ` =.&.A.$.` $.&.' &.[ &.] ] A.&.S.F.A.P.;.;.` <.&.A.P.S.A.] S.V.V.M.v.M.F.V.F.S.2.2.Z.Z.F.] v.n.n.'.V.(.(.G.'.=X(.G.(.).Z.-X).n.n.Z.Z.Z.C.v.V.] S.S.;.;.#.L.*.6.7.E p i ; y 6.# : b u s s s b y t a w u b a a m y 9 a 9 a t u y y b y j , , r j g L Y L h L i Y r O > , p i 1 * h R g . L 2 R I A 5 *.D A ! U =.$.S F U ;.#.H G ` N.M.&.' B.S.J.M.J.J.G.-X-X-XjXlX-XMXlXMX[.lXMX[.lXMXAXAXAXZXAXZXZXMXZXAXMXAXMXMXMXMXMXlXlXMXMXMXlXAXSXSXMXhXjXkXMXNXcXZXJXlXSXcXfXjXSXAXAXMXMXMX[.SXLXKXZXAXZXZXKXlXSXLXKXcXKXAXKXSXJXKXJXZXLXKXDXKXJXKXLXLXvXvXLXLXSXPXJXKXcXSXvXLXLXSXSXJXSXAXLXJXSXnXJXSXnXSX'.vXLXSXpXKXVXJXSXSXAXNXNXNXcXMXNXcXkXAXZXfXlXfXVXZXVXkXBXlXlXSXjXlX_.`._.cXSX-X_.'.=X'.n.Z.Z.Z.2.Z.2.'.&.S.F.] ` _ 2._ ] ` #.Z ` [ &.F L.I.;.L.#.#.Z Z F ;.;.#.G D U U R L R 1 h < , , 1 < Y Y 1 , 1 Y h < R 5 I I r.X.X.y.L I R L 2 < 1 h 4 5 l Y < j O k . j y ; M r $ e d M c o 9 q   t 9 o 0 X X 8 X X X 0 4.X q q a X a   + q X a q X X X a q X   0 X X q a q q q q q a X q X a X X q a X q v X v X 4.q X q v a q a 0 + 9 m a s X a a 8 a s + e.u   m 5.# 8 m 8 # b 8 8 4.8 5.8 c e.X s 6.4.E E 7.7.7.Q Q K.Q ! 7.! Q Q Q P P Q W P P Q ! P r.V 7.Q K y.K E E P P L A 7.P E y.Q y.Q =.=.Q K.=.K.=.! y.T.7.! P W U P P ",
"N.N.m.$.N.m.N.N.#.$.K.F =.W U =.*.#.W =.W =.S H K.$.W =.=.$.*.=.;.W B.K.$.! B.U.! m.$.' &.N.&.$.$.$.&.$.L.A.' ' &.A.S.&.M.] D.*XI.*XA.&.&.#.%.` A.&.I.S.V.&.&.*XM.v.V.2.n.V.v.n.Z.2.Z.F.Z.Z.n.V.n.'.'.(.(._.Z.Z.'.Z.).sX_.H.).H.`.`.`.`.).(.C.S.A.A.N.;.K.L.K.L y.5.b Y y p b # u s 6.s b u s s # w 0 a t s t u w w 8 s s u 8 u y u d : j i , , h Y T L L p Y 2 j : : ; i p h i L k T L . *.2 5 y.5 X.- } C S #.Q ! #.$.#.L.L.;.$.` ` &.B.S.m.J v.M.C.b.[ C.=XjXcXhX[.:X[.lX[.lX[.[.MXlXMXMXlX[.[.lXMXMXAXMXMXlXAXZXlXMXMXMXMXZXMXAX[.MXhXlXkX-XcXfX-XkXjXcXhXKXSXlXSXMXMXAXZXAXZXSXfXMXZXZXMXMXAXLXNXlXAXZXSXMXZXKXLXNXVXSXSXvXKXAXMXAXSXPXSXJXLXJXJXnXLXLXSXLXLXKXSXLXhXJXLXJXVXLXLXPXJXJXcXvXSXcXLXJXvXcXKXJXvXAXcXSXKXJXJXKXAXSXzXZXKXkXcXNXBXcXAXcX-XkXJXkXlXfX`.`.[._.(.`.Z.2.Z.n.(.Z.2.[ V.2.] [ ] '.[ [ [ ' &.*XD.I.F.2.&.` $.- F N.I.#.Z Z U W =.#.D P L A A U A A A * Y 1 Y g g l T k L L < 3 * L 5 2 r.L X.X.*.R I U * 1 l L ; 3 i > r i p y s O # y t m t u m y 0 a m q o + a N a v X X 3.q X X X + X q q X   X q 0 4.+ q q X q q q X X v v X X q + X X v q a q q a q X q v q q q q v q N q 3.N X 4.8 q e.q a q q 5.8 + v b c 8 q 8 c X b a u t y u m b u 8 5.u @ b a X 4.u 5.8 c t 4.q 6.E E E c.~ ~ P Q Q K ! P ! =.Q P ! y.! W Q 7.r.E r.Q E 7.V E E r.R p T r.L R P E 7.P K.K Q U.Q W W ! K.! W U.! Q U.W y.W U ",
"K.B.$.$.K.N.=.W S =.U.W K.$.! =.W =.*.! S W W =.#.$.! $.=.K.N.B.! $.Y.I.m.$.$.B.H B.m.! ' $.m.$.$.H $.J $.' $.S.&.V.*XD.S.S.D.Y.] V.[ &.&.$.&.;.A.A.*XS.I.V.] ' C.n.Z.C.(.Z.Z.'.(.'.(.Z.2.n.Z.Z.Z._.n.(.'.-X(.dXhXG.-X(.).).sX].`._.`.`.Z.V.] ' H #.y.L.y.E *.L ; u p 6.y ; s # 0.s m # b u b b 9 u # u 9 u s 8 t a u 8 w w 8 y y o w < k j i , < L R h 1 2 L ; i > r ; , < l g h R E = E L 5 E L X.R * U A Q #.#.H =.#.C Z F G F H H N.$.S.b.G J b.S.G.G.Z.C.D.(._._.lX[.[.[.MX[.[.lXMXMXlXSXMXlXMXMXMXMXAXAXAXZXMXlXBXZX[.lXMXlXMXMXlX-XkXcXjXVXkXSXMX-XVXcXcXhXAXkXLXZXMXlXMXAXkXlXMXZXLXSXAXZXKXMXZXAXlXAXSXSXKXVXvXJXKXLXvXSXSXSXKXVXLXKXLXVXDXKXcX:XVXVX:XSXLXSXvXLXJXcXDXVXVXKXZXJXVXLXKXJXKXvXSXKXLXSXcXbXZXhX-XbXZXVXhXAXSXSXkXfXlXVXNXNXkXjXfXMXgXsXbX_.-XlXfXkX'.-X_.`.(.hX'.;X-X(.Z.Z.D.;X*XD.F.] '.V.}.}.F.&.[ [ _ ` #.;.U.#.} W W U S *.A S L A Q E S L L 2 2 Y ; L < L , < 5 h = < L 5 2 1 R L 5 l.R r.R - 2 5 R = p > r u i Y . u u w 8 b X w @ 9 u X 9 + X o 0 3.  X v 8 X X v 0   v X 0 q + X X 8 q v X X 0 q q X 0 q + 0 q X q X 4.3.X X X X q X q X q X q v q X X X q q X q 3.X a q q v q X 3.q 4.4.4.8 8 4.X X a 9 c 8 v X q s a + t y b m s . m s 5.s 4.@ X 8 w a a w t y 6.4.E x.K.E 7.~ E ~ ! W ~ y.! Q =.W W Q =.r.! Q Q W P E Q P r.7.R E R Q L E r.3 P P 7.K E T.Q E =.! K.=.U K.=.=.K.! W =.N.=.W =.",
"N.=.H N.m.W S W W N.K.G =.W W $.W ! W W ! P P W N.K.Q ! =.Y.=.$.m.U.$.J S.A.m.J m.' ' $.m.$.' m.M.J ' Y.I.] V.-XY.v.D.Z.(.V.(.Z.V.Z.G.] ] ] S.L.N.] V.M.I.G.V.D.(.(.hX*X=X=XD.'.D.(.(.;X(.(.-X(._.`.`.(.(.hXG.H.).J b.G.G.sX=X).Z.v.Z.C.v.] V.M.N.L.=.y.L L R n K 8 6.w 4.s s u u m Y 9 y y b n # w u 8 8 s a 8 9 e 8 8 0 $ 9 b i O p Y r > < > k L Y l > p i i u u u p p g 1 1 5 E 5 5 U 2 K L 3 I I A D =.#.- ;.=.F L.N.F $.S A.G ` S.$.N.G J ' J J [ V.H.v.b.C.G.sXsXsXsX].jX_.kXNXlXlXlXlXlXfXAXZXSXAXZXlXSXlXMXlXSX[.MXAXZXlXlX_.:XlXfXkXlXNXhXNXcXMXhXSXkXMXSXkXZXSXMXMXZXZXAXSXAXAXAXAXAXlXMXMXlXZXZXZXZXAXLXcXSXSXLXcXZXLXPXLXLXlXSXLXKXkXSXLXLXKXSXSXSXDXZXZXDXMXSXLXSXSXSXSXpXLXvXPXKXAXKXJXSXlXSX:XKXSXkXMX:XhXkXcXlXkXMXlXfXlXAXSXCXLXfXcXSXNX-X-XMXlX-XlXfXNX_.-XjX(.C.D.v.V.V.V.V.C.F.v.D.D.] 2.&.] %.&.V.A.%.G &.;.L.#.#.F - U Z A S U A I A 2 R 0.5 E L L h * 2 T = < h L 5 < L = = - L = t.I y.0.X.L , 1 5 h T p i   : p j O   # 9 @ 9 9 8 + 0 0 X $   q   8 0 + q   f X X + 8 q X X q q 0 X + + X X 4.+ X + X a X v X q 0 X q q   8.x.q q q q q X 4.X X 4.X q q q X q X q q q 4.X q v 8 X q a 0 X 4.v 6.a 4.4.o 4.q X 4.q 4.q X a 4.w a u 5.9 Y   e.O n m + b 8 a X 8 9 3.5.u u 6.s s u E r.Q E ! ! ~ Q ! P Q =.Q P =.Q W ! W =.! Q P P P P P E P L y.P y.7.E E E 7.E R 6.y.E K.! K.W ! K.K.P ! Q y.K.y.! Q Q ",
"=.=.! W W N.=.$.! =.=.H $.J J =.$.! S H =.W W W U.Y.U.U.$.N.$.B.' M.` m.M.' J [ M.` $.M.m.' ' A.B.B.D.Y.D.V.S.H.H.v.Z.Z.Z.[ C.Z.(.Z.G.V.S.D.Y.Y.Y.S.I.D.D.C.Y.-Xn.] C.V.(.(.Z.(.=X=X=X-X:X-XfX-X-X_._.).H.).G.G.sXC.J.Y.C.C.v.v.G.[ ' ] M.&.N.&.L.y.R X.P h Y p Y s 6.b Y p s 5.s O w u y m f d # w s s b m 4.u 0 0 9 9 $ @ @ e j i Y l 1 l h > k g h l u L p u i u u > < , 1 5 5 L = E R L R 2 U A 2 A y.W - =.F F ;.N.L.=.$.` L.$.N.L.H $.' Y.S.S.b.[ V.C.B.C.V.G G.n.Z.-XsX)._.fXfX[.lXMXMXSXkXlXkXlX[.lX[.lX_.lXMXAXkXMXBXMXlXAXMXkX[.fXhX-XcXhX-XlXZXhXfXLXlXkXfXSXMXZXZXAXMXlXAXAXMXlXSXZXSXSXSX[.SXLXSXZXAX-X-XAXSXSXKXJXSXLXcXlXLXLX:XZXLXSXAXSXLXSXKXJXLXSXlXSXLXAXSXLXKX:XLXLXLXLXKXvX:XSXLXSX:XAXlXlXKXMXLXAXLXKXKXNXSXSXSXSXSXAXcXNXSXAXkXkXNXkX-XkX:XlX:X_.'.Z.Z.D.V.C.*XF.2.] ] S.'.D.V.S.S.] A.V.] ' ` F _ &.;.;.*.-.U F F - =.U - R A U P L E L L < T < ; 1 < p L L L L l R I L = A D %.D O.I h 5 5 1 r g r ; %   # . r : y o @ v t   + 0 X q q   f v 0 + + 0 0     0 0 q q   X X + q 0 + X   0 + X X a B + + 0 q X q   q 0 X q X X N v X q q X X X v X X v X q v 0 X a q q 8 q 4.q 3.a a X a 0 0 t q a 4.q 8 X X 8 q v X % 3.+ a e 4.b 9 w 5.s 5.p ; # m b X 4.X q v t y 4.9 m s 5.5.x.7.7.7.Q C ~ ~ P ! Q P Q Q Q ~ Q ! W Q S K.Q W W Q ! W Q =.L P Q K y.7.E 7.7.7.K y.Y E E P Q y.Q T.7.U.Q K.Q Q U.! 7.y.K.",
"K.! H W W N.$.$.! K.$.! $.! ! W J W ! F ! S ! N.$.;.B.Y.A.B.m.B.m.S.B.B.m.m.$.b.B.m.M.S.B.Y.S.L.=XY.Y.B.C.G.=XG.H.J.G.(.=XG.H.C.(.D.Z.S.G.S.&.V.Y.I.S.Y.Y.M.*XY.dX(.=X=XdX(.(.G.Z.G.C.J.(.Z.n.H.n.n.).(.).=XdXdXdXV.b.G.H.C.b.v.V.' b.m.N.N.N.L.U U r.R p > j p s 8 s s w s s b n # r M e M w e @ u s s s 4.a 8 9 8 9 w @ $ w : > p Y 1 r L h 1 L h p h > Y h p > u u > ; < h h 2 L L r.K 2 Q A P 2 I y.- * L.#.Z ;.;.Z F $.S &.m.&.L.A.G M.V.N.#.Y.S.M.J J J S.H.G.b.b.C.H.H.hX_._._._.[.[._.[.lX:X-XkXMXZXlX[.AXMXMXlXlXzXNXlX[.lXlXlX_.vXkXhXSX_.cXcXhXMXNXlXMXMXMXSXMXAXKXSXZXSXZXAXAXlXAXZXAXZXZXMXAXZXLXZXkXZXLXZXSXcXSXLXAXZXZXSXZXSXDXAXSX:XZXSXZX:XSXLXSXlXLXSXLXSXLXSXJXSXJXVXSXSXcXSXLXSXSXAXMXKXZXSXAXLXLX`.cXZXSXfXlXZXKXlXlXZXbXVXNXcX_.fX-X-X-XfX[.-X-X-XZ.(.(.D.G.G.G.&.Z.*X;XD.D.Z.C.D.Y.&.S.A.&.&.&.$._ &.$.G Z Z - - S = F A 5 E 2 R 5 A E 5 L ; Y * 1 1 h L < 1 1 1 1 I 1 1 = A U r.I I X.= 5 , , g l j , : O O ; O u m y y 0 m + + X X a 0   0 q N B X % 0 0 q + X   0   q v X X X 0 a + q + X X X N q X t N 0 0 8 X v q q X X N + X v q X q X 0 q + q X q N 0 q q 0 X q q q q a q X q X X v X X 3.q q 5.e.0 X B N 0 8 0 t + v a + a b u 3.0.  i u + 9 e.8 8 u # 8 # a y a 5.b b 6.5.Y 7.y.P K.! ! ~ c.Q ! ! y.P Q Q ! *.~ =.r.~ Q Q y.! Q ! P K.Q V W Q Q 7.7.E E L Q 7.y.S y.Q W =.Q y.Q ~ =.P Q P =.Q K.",
"K.F W N.N.! W ! =.I.$.! $.=.m.$.N.! ~ J =.$.$.N.K.m.$.K.m.M.M.B.m.B.S.$.' m.B.c.' B.D.B.B.Y.S.C.B.B.B.J.S.Y.Y.G.Y.Y.=XC.C.S.H.J.D.C.M.b.M.M.M.Y.N.S.S.S.S.S.Y.v.V.V.C.G.G.C.G.D.b.J.C.S.H.n.C.(.Z.n.G.Z.H.Z.C.C.M.H.G.v.' b.b.' [ ' &.&.&.;.=.Q A A E 1 p Y Y @ 5.b s ; u s b X e.O b 5.$ n r u u ; u 8 u s u 8 8 8 w t @ w y r > < 1 1 l L h l Y h g r > Y j p ; u u , , 5 5 L L 5 2 R 2 L R p R = *.*.y.V 7XZ ;.F #.U.Z K.U.H Z J U.I.J ` &.&.N.M.S.M.I.*XG [ b.C.Y.v.n.b.[ n.C.`._.-XlXlX:X[.kXhXkXMX`.lXMXlX[.[.AXMXSXlXMXkXMX[.:X[.-XcXkXkXcX-XcXVXzXSXkXhXSXcXcXkXSXMXMXkXAXMXZXMXAXAXAXMXAXSXSXlXSXlXAXSX_.ZXSXSXSXcXLXAXLXDXZXSXAXAXLXkXSXKXLXLXLXLXlXpXSXSXSXMXZXDXMXAXKXvX-XLXLXvXSXLXAXSXZXAXkXlXSXSXZX-XSXZXAXSXSXLXkXzXMX-XNXZXfXkXhXlXkXZX-X_.[.-X[.-X[.-XZ.(.C.V.C.] F.*X*XV.] V.A.M.] ] M.[ <.&.;.G ` _ G F #.F Z F C D } A D D U A A R - 2 3 1 0.< L p T L 1 1 L L 5 L 5 I L R x X.I X.5 = 0.. < & < % O   o : .   : # b 5.      v v q X X a v + f + N v X t t 0 3.X m q N + X 0 X + X B q X + X + X + 4.X X X v q q + X z q q X q a X q q X q q q B q + q a v v q + q 4.X a a v q a X q X a 8 3.5.8 X a 4.X v 0 8 4.8 t 0 0 N   9 a 9 9 m a s b > j j O u 5.@ 8 5.8 8 5.a u b s b s Y Y 3 E P ! ! ! ~ Q =.Q 7.Q y.! W ! Q =.W ! m.P W ! y.=.7.=.! y.K.P ! 7.7.P Q r.K.P *.E ~ P K.P U Q ! ! Q Q T.Q K.! T.Q K.",
"H H N.N.! ! H W =.B.! B.B.$.$.m.=.! B.! $.~ c.B.! ' m.S.' m.b.J C.B.B.B.B.S.S.B.B.Y.S.B.S.G.H.C.J.Y.mXsXY.J.J.J.G.J.J.c.H.J.J.B.b.v.M.m.B.B.m.Y.B.M.S.N.m.M.S.A.B.J.S.C.M.[ J.b.b.H.S.H.G.J.C.C.Z.v.v.2.V.v.C.V.M.' ' b.V.m.[ M.B.M.N.N.K.L.U V p K E s b Y m w b b u @ u b 5.# e.# u y > 5.j @ @ @ u @ s a 9 8 t 9 w t @ w j j r 1 h h L T l L h h h 5 > k i i > u r , r h h h L 5 L A A L L L 5 - *.L A -.*.Z A ;.A.T.L.! C U.A.H ` A.;.` ' G G D.A.G S.Y.S.' G J b.[ V.Z.C.V.n.C.(.-X:X_._._.-XSXcXcXkXzXfXAXMX[.SX[.MX[.MXNXjX-X-X-X_.:XfXhXvXkXcXcXcXSXfXSXAXNXzXkXKXZXAXZXMXMXAXMXZXZXZXlXZXlXZXMXSXSXSXMXSXLXpXMXSXhXLXZXZXSXSXDXLXLXLXSXDXLXSXlXMXAXkXSXcXkXKXLXAXLXLXSXSXLXKXcXSXSXLXLXZXSXAXMXZXSXSXlXkXKXZXSXSXNXlXNXBXMXAXlXMXMX_.kXAXlX_.(._.hXsX_.-X-X`.Z.(.-XD.F.S.F.C.V.D.Z.D.V.V.&.M.M.I.&.I.A.&.F #.;.F Z G A D U Z Z I Z 5 A U 5 A R = 2 3 5 R > , g L k < = 5 h 1 < = Y I T I T 5 x = . w.. j f j j $ % $ w y @ y + w 5.9 0 0 X 0 + X q + a X N % X X % N X X N X M + f X   + + 0 0 v 0 + + B 0 X v N   q   a + X q X N q a X q q X q q X v X + q q X q v q q q + X v X q q 4.X v a q q v t q 5.4.q a 4.# 3.0 0 5.X X 0 N 0 + u 4.e w a u w u b Y p 5.w # 9 s X 5.# b 8 8 s O s 5.s 6.6.p E 7.! K.7.K.! ~ ~ ! K.Q ! 7.! 7.~ ! ! ! P K.W Q =.Q K.S ! =.r.=.W P ~ Q Q y.Q W K.V K.S Q K.S y.P 7.y.P K.Q y.E r.",
"! H $.! $.N.$.J $.N.$.K.m.=.m.m.m.J ! $.m.m.! c.$.B.B.B.m.C.S.S.S.S.Y.S.B.S.B.m.B.m.b.b.b.B.J.C.mXY.B.B.c.J.B.J.B.b.J.B.dXB.J.b.J ' M.M.M.I.' m.V.! $.m.M.' M.V.b.C.C.b.v.V.Y.J.J.G.J.S.Y.H.C.v.n.v.n.C.C.M.S.M.M.S.S.m.m.M.' ' $.' ;.K.*.Q L L p Y 6.Y > # u b @ w # w @ b s b Y O y u : 5.s # u 8 s 8 8 b 8 w a t w w 9 $ u r , 5 k g l T I h g g k Y > j i r > u > < , h l A A L *.5 2 = 2 E - y.*.A T.L.- G U.;.N.G ;XU.J L.F H F ;.&.M.U.L.m.I.J A.D.A.S.I.;XG.G &.[ [ v.n.[ ] v.C.'.n.;X-XjX(.(.-X-X-X-XkXSX[.kX-XSXlXfX_.hXfXhX_.(.hXjXbXhXlXVXbX-XkXzXSXzXcXcXkXZXAXSXZXZXSXZXAXZXZXAXMXAXAXZXAXMXLXSXMXZXLXKXKXKX_.SXLXcXSXZXSXZXAXSXLX[.SXSXcXLXLXSXSXLXMXSXDXSXvXkXSXLXSXKXZXSXKXKX-XSXlXMXSXAX[.MXLXcXZXZXlXkXSXLXMX[.MXZXlXSXAXlXMXkX_.hXcXfXhX_.-XcX-XZ.Z.-XZ.] C.V.S.D.*XF.G [ ] ] V.V.V.D.` ' Z F G #.F Z D } #.A A U 5 R L U A 2 L 3 I * > L 1 L 1 5 1 < h 1 1 5 2 l L L I I T 5 , 1 5 , O r.% j % $ : $ $ 9 + o o + c @ 5.  + v X v % X a X % + 9.m % o f N   m m 4.c X 0 9 v c 0 X t N v c X q 0 X B q X 0   0 q + 0 X a 0 a X q v X X q X v q + X + q a q X q q q X q q 8 q v q q v 8 0 q X a 4.X 4.X v a 8 N v q q 0 v 0 t a v s 8 a 8 + 4.j # 6.u 5.u p 8 s b b 8 b b @ 5.5.Y 7.s 6.Y . E K.c.K.c.K.K.7.7.Q 7.~ K c.c.K.! ! W Q ! y.~ Q ! Q m.~ Q K.m.Q ~ K.W W =.! Q S P S y.S Q y.=.=.P W Q Q y.y.K.E y.",
"B.H W ! N.K.W ! m.B.K.B.m.B.m.m.m.' B.B.m.$.c.J.m.B.M.M.C.J.m.m.B.B.H.B.m.B.B.c.m.m.m.J.b.c.B.sXdXB.J.c.J.sXJ.c.J.b.Y.J.B.c.b.b.b.J B.m.! S.m.Y.B.' J B.S.H B.B.S.B.H.M.M.S.Y.J.B.C.b.C.G.H.C.v.v.V.V.D.D.S.S.S.V.J J J N.M.$.&.' H A.U.W A Y 7.5.Y u j s # 8 s c b w u s s w 5.s s y b u n @ ; u u s 8 9 a 8 8 a w 8 w e @ : b , < h h 5 T T h g g h k i k i > ; u r > 1 5 L 5 X.X.5 - A 2 L V *.t.2 -.- * F T.=.- ;.Z ;.;.L.$.` ;.$.#.&.&.A.$.G &.}.L.&.Y.` $.;X$.Y.V.G C J ] v.M.v.V.v.v.Z.C.(.-XhXjXhX`.).fX[.:XlXlXzXfXjXhX-X-XZ.`.(.fX-XhX-X-XhXcXMXhXlXKXkXNXJXVXVXAXAXAXAXMXAXMXAXAXMXMXZXZXAXZXMXZXLXAXSXSXSXZXSXMXSXSXkXZXDXcXSXAX:XZXlXZXZXAXSXkXSXKXJXpXKXSXSXLXLXSXcXKXAXkXSXKXcXAXkXlXSXZXSXMXSXZXfXAXzXlXAXMXSXMXAXlX[.`.lXMXNXZXlX).).hX_.=X(.(.'.2.2.n.Z.] [ D.N.S.V.M.A.A.}.S.[ ` [ ` #.` &.%.G F #.F U D - - 5 A U D U L U - - 1 = h 2 1 Y 1 L l I 5 , 2 5 g , = I X.w.l 5 l x , , f 4 < M o r . o + o 8 0 o v $   o o v X % t + 3.0   a + 8 d e $ o v % +   M f M c X $ 9 0 % v   0 0 X t q % 0 X + q + + X a X X 0 X + + q X q q X X q q q X X X X v v q X q q a X 8 a 8 q v q a X 4.q q X X e.a q X m a v 4.v X a 5.t 8 t 5.8 u t u 8 m u s p Y s j 5.b s s s @ 5.s b s s u s 5.s 5.6.3 7.K.7.K.7.7.! ~ Q Q =.~ ~ Q ! 7.! ~ ! W Q ! P =.Q ! ! =.m.! y.! Q K.W ~ W 3 =.y.=.=.=.W =.P U.E *.P Q y.P y.K.Q K.",
"! H m.H B.m.! B.K.B.B.B.N.m.=.m.B.! m.! m.m.c.b.m.M.b.b.B.v.C.J.G.C.B.B.S.S.B.Y.B.b.b.B.H.J.J.b.J.B.Y.mXmXJ.c.c.H.B.J.B.B.B.B.c.m.' B.S.m.m.J m.m.S.m.K.Y.J S.Y.M.C.Y.H.B.M.S.m.Y.S.S.G.S.B.M.v.M.M.' V.v.M.N.N.&.M.A.$.J J $.m.G H N.K.V 2 L Y s 5.8 y s w y b u s y   5.b b 5.s b # i u Y @ w # @ 4.s s 4.u 8 9 8 + w d : w T T , I T l l k I 5 1 1 > ; p , > O i h g g h h 5 R X.3 A - = *.U L A U A U D L.U.G G L.=.$.C U.L.G $.` =.$.G N.I.A.L.I.I.pXG +XY.m.Y.' ' Y.Y.[ G G G J M.M.v.V.] C.C.-X(.'.(.cXfX[.lXfX[.fXlXcXhX_.'.C.-XkXkX:XjXfXSXkX-XlXMXcXNXhXkXKXAXkXZXKXMXAXAXZXZXAXAXBXAXZXMXLXZXMXAXSXSXAXLXSXlXLXKX:XSXLXSXAXAXSXLXLXZXSXSXDXSXSXvXKXKXMXSXLXLX:XZXSXSX:XZXfXSXAXSXkXcXLXSXcXZXSXZXlXMXlXSX_.kXfX`._.[.lXMXAXlXlX].[.`._.VX`.-X-X-Xn.'.n.Z.Z.v.[ V.}.*X;X=X;X;XD._ [ F.&.<.$.%.` F ` ` ;.;.*.F U #.U #.U U R L - A 5 * E = 2 L Y L 2 L T h T h h . 7 5 L l 0.L R l L h T . < < r d T $ e o 0 d 8 + 0 + v + $ X 0 0 + 0 %   v v 0 0 9 0 N   o   e.B c   m e X N o 9 d + X v   m v X B X X t q X q z   q v X q v + q q q q X q q q q X q q q X q q q X q X + q + X 4.X a q v q X q a 8 q q 4.4.q 0 v 8 4.0 t N 3.v   3.X v a t 9 m 9 c # n u b s b 8 s b 4.@ 4.8 s s s 5.m 6.m 4.Y s K 3 7.K.K.K.c.c.7.! ~ Q ~ ! 7.~ ! ! ! K.! ! ~ =.K.m.=.C K.! Q m.Q ! y.P =.=.=.W P =.y.*.*.y.Q r.=.Q r.P K.Q 7.7.E y.",
"$.! m.W m.m.! $.K.Y.m.B.m.m.! B.B.c.c.c.B.c.c.c.c.B.c.B.J.B.b.B.S.Y.J.b.c.c.B.c.S.b.c.J.H.J.Y.J.).c.J.c.c.c.J.Y.dXB.mXJ.S.B.B.B.m.! ' c.c.B.B.Y.B.Y.B.Y.K.J Y.K.S.M.M.&.H M.M.N.Y.A.S.Y.M.] M.M.[ J ] A.&.&.I.$.$.$.$.L.K.m.K.N.H ;.L.=.* 7.Y ; 8 s 8 8 s u s u j @ m # b 5.M Y b ; s s b 8 ; s # 8 5.s 8 a a 8 w a 9 9 w w j g h l g T l h R h = g 1 g n i n O * 1 > k T 1 5 R X.- 2 = L A } 7 P A U U F D #.F 7 F L.#.s.F %.L.U.W Z L.A.` F _ G N.` ` ` F ;X#.A.;XC $.;XA.m.H J ' ` m.' N.M.b.[ C.b.b.H.H.fXdX=XcXhXhX-XdXcXhXZ.-X_.jX-XhXhX-XfXSXlXlXlXfXZXlXhXkXkXSXfXnXKXkXzXZXBXBXZXZXBXZXSXAXAXSXAX[.AXMXcX_.:XAXZXSXSXcXSXSXLXKX&XcXlXSXLXcXSXcXLXSXSXSXSXLXSXKXNXVXJXcXlXKXZXKXSXAXAXAXAXSXlXlXlXSX:XlXlXZXMXSXAXMXMXAXMXlXMX[.lXzX[.hXlX`.`.'.).(.n.n.(.V.V.*X*X;X*XS.] V.A.&.[ <.V.&.F.` G F #.&.%.#.} } U D A P D A L - R L * I * = 5 L = Y h l T < R T L X.< , 5 n T I T L l l 5 g 4 r ; . % d T o y o t t 9 v 0 0 c 0   a v 0 X 9 X 0 9 d 9 N 0 @   e e % 9.O j & $ n 9.e y c   9 e o 0 e.+ d v X + t + + f X X t X X + v q X 3.X X X v a X q X q X q X q a X q 4.X 8 X q X a 8 8 q q q a q q q a X 4.a a a t a 8 q X 4.d 9.4.X 8 a m 8 t 4.X v 0 m + 5.: u b b @ b # 5.s a b 5.s 5.s 3.s 4.s 5.7.E 7.K.c.7.K.! 7.! ~ 7.! ~ 7.! ! K.c.c.K.! ! ! ! =.! ! Q Q =.~ W ! Q =.P K.y.W W Q *.r.y.Q y.y.E K.Q K.Q E 7.! 7.",
"! m.K.B.N.m.! ! c.B.m.! ! m.c.m.c.c.c.c.c.c.B.B.b.J.b.c.B.J.J.H.Y.J.B.c.B.B.J.B.Y.B.J.J.Y.H.).B.c.c.J.J.J.J.J.c.B.c.J.c.B.b.c.m.B.m.S.B.B.B.B.B.B.B.B.c.Y.N.Y.U.N.m.A.S.S.Y.Y.;XS.M.A.A.M.M.A.M.&.&.M.N.M.M.B.N.$.$.S.m.N.W ! $.L.K.*.U * K b Y b 6.a s 4.n b r u b n w u y m j 5.@ b Y Y s s @ # b a s a s 8 X e u s t r r r r L k I T l , x l l k 1 j Y i Y r O h i 1 5 h T } L 5 U 5 A 2 R 5 7 Z l.s.D U s.F G L.;.=.F K.U.N.#.L.#.H W #.G G G S iXH - I.L.$.I.Z ` ;X$.H A.&.$.S.$.B.J J J G [ C.C.C.V.n.H.(.(.-X(.).-X=XdXG.'.fX=X-X`.(.lXhX-XlXhXkXcXlXhXkX-XNXNXLXVXCXZXVXNXLXZXBXAXAXBXBXlXMXMXMXZXMXLXZXJXAXKXKXcXSXKXKXcXKXLXSXNXLXlX&X:XlXLXSXKXKXSXSXvXcXpXZXLXZXKXSXcXSXfXkXMXKXZXAXAXAXMXZXMXZX[.MXAX[.SXMXMXZXMXMXMXMXMX[.hXMX_.zX-X-XhX-X:XhXC.[ *X2.v.&.[ [ &.&.&.<.&.2.&.F.&.] [ &.A.&.$.<.;.F G U U P U X.*.U I - 2 = * 5 1 - L R 2 T L 1 Y ; k 4 g Y = g Y y.l g k 1 g g , , f $ , e o : e   d 9 9 c c 0 0 + o 8 X 8 q M % 0 9.  % 0   d e e 9   : M % n . f $ f 9.O M d @ w 5.0   5.X t v +   9 q q t q X q X + q v q q e.v X X v q X q q q q q q q v a q 4.q 8 8 a q 4.8 q q q q q a q X a X 4.8 q 4.9 8 5.f X 8 a m 0 X 4.9 a v 0 5.9 0 s 9 # 5.m y s b p s s b b b # s s s s 6.4.4.e.6.E E ~ K.7.c.! ~ K.! ! ! ~ ~ K.! ! K.B.7.B.! K.=.! K.W ! ~ ! K.K.E =.W =.Q r.r.R Q =.*.=.*.Q =.K.K.y.y.7.y.! y.7.Q ",
"=.N.m.=.m.K.B.H ! m.! m.c.B.! B.c.c.c.c.c.c.J.Y.J.B.J.c.Y.H.b.B.B.B.J.c.c.J.J.H.G.J.B.B.B.J.J.c.J.B.Y.B.B.J.c.c.c.B.Y.B.Y.c.m.$.m.! K.Y.Y.B.B.B.c.B.B.B.m.K.$.N.N.&.N.L.A.I.A.A.A.&.$.M.&.&.;.' M.N.M.` &.$.H M.N.N.$.! ! ! #.=.K.-.A D 3 2 s n s 5.s s m 5.j r w u O s b m m u m @ b m b u 5.8   b # 8 q s 8 8 8 X w @ w j y 5.0.g T I T 5 h 1 , > ; k Y : > ; < k h , 1 L R U I 5 A 7 I } } - Q } y.*.#.U F F *.%.G L.&.F L.U.G #.=.L._ =.;.$.F ` G U.&.&.T.*XN.G ;XN.&.N.! H N.Y.K.S.S.B.J b.b.m.[ n.[ b.b.v.v.M.] v.S.G.=XD.Z.*X(.(.-X-XjXsX_.lXhXfXlXkXhXVXcXJXNXhXhXBXVXNX[.SXkXBXAXAXKXZXlXAXAXAXZXSXAXZXNXVXNXVXKX-X`.JXcX'.lXKXSXMXLXLXAXSXZXvXkX:XkXZXKXSXcX(.cXSXAXcXSXKXZXZXAXSXjXfXlXlXMXSXlXSXMXlXSXkXAXMXlXMXSXMXMXlXMXMXlXfX`._.-X_.(.'.V.n.n.C.v.&.D.}.*X&.] ` ` [ &.A.&.[ _ G ` #.;.A.#.#.#.} U U U D I U Y 2 - 7 5 5 I * h < = 1 1 5 T , 6.5 T , M I g g g ..< = g % g g 4 r ; . r r o k f o t d X c v X q X X X % X X 3.o $ 3.  f m o o b n T O d x.# 9.  , f l 5.e j 5.w d c %   M   o t d   X d 9 t B q + + q 0 0 + X q a q X a q X q q q X X X 8 X 4.q a X X a 8 8 0 X q v q q X 4.q X v 8 a v 0 a a 9 3.v N a 0 u c t m X t 3.X 8 + 3.m u w 6.4.O @ y Y @ m @ s 5.u c s b x.4.4.6.6.6.5.s E K.K.c.K.! 7.7.7.~ ~ c.c.! K.B.! c.K.c.7.c.7.K.! K.=.Q K.K.! K.P Q y.P r.Q R R U r.Q *.P K.r.7.K.7.K.y.! 7.! ",
"$.N.W $.! N.N.! B.m.J m.m.m.J c.c.c.B.c.J.B.B.B.H.B.B.B.Y.Y.m.b.B.H.B.B.c.Y.c.c.c.H.Y.c.c.c.J.J.B.B.Y.J.B.J.c.J.J.).Y.B.S.c.B.B.B.! c.m.B.B.B.Y.B.mXB.K.S.$.Y.A.A.;.N.I.;.I.&.;.I.&.&.A.V.&.&.&.A.I.L.M.M.&.` N.$.$.` =.G W =.U.Q U 2 1 2 ; u s 8 s s s b Y p ; @ ; > 5.Y y y Y s u b u s 8 5.s 9 c 8 9 0 c v a e # t w : j r T r., Y l T r 5 f g < , n Y s s u p 5 5 L 5 L T I U 5 A - A U X.D - A U A } #.U s._ Z ;.+XF Z T.y.G F W <.;.Z F L.L.$.;.Z U.$.=.#.G G &.C U.N.C N.K.$.Y.J S.M.J M.C.[ J [ [ v.M.v.[ b.[ ] ] M.S.C.V.*X=X*X;X-X-X=X-XkX)._.hXkXcXjXjXjXcXcXCXnXkXZXKXZXMXNXMXMXZXZXAXAXSXZXZXZXSXMXcXbXCXJXLXNXSXKXLXMXlXpXlX(.kXcXSXSXAXKXLXSXKXLXSXSXLXJXKXcXZXKXSXcXSXMXNXSXcXVXMXSXSXAX_.MXSXlXLXMXAXkXSXSX[.lXMX[.lX[.`.fX).`._.-X(.2.] 2.C.] F.S.V.` &.G ` ` G %.&.A.%.] [ &.<.<.A.%.F %.=._ U F I } R L A 5 2 * R = A 5 < I 5 l T 5 6.5 r.T k g T x T T 1 g f g k < n k j l g % r e   e.d   d m 9 c v o t 8 z X v 0 q 9.  m b f O c 5.o T e y   ; e.& l f i & ; 9.:   5.  e f o $ M e % 0 3.X X v + q q q + X X q 0 a X X 4.X X 4.X X q X q q X q X X q X a X q a q 8 0 8 8 q q q X a q q 4.8 8 v t 8 a 8 t t t 9 0 v X 8 t e c # 8 e.X + v X # a s # s b 5.u 6.5.u u s u b w q 5.3.5.x.a 6.E E 7.! K.K.7.c.~ c.7.! ! ~ ! c.K.c.K.K.K.c.~ K.K.=.K.K.! S ! 7.K.P P y.V K.Q P W E =.=.y.E y.y.Q y.7.K.K.y.7.K.",
"=.N.=.K.K.K.m.! m.! c.! ! m.c.c.c.c.c.B.J.Y.c.c.B.c.c.c.G.c.B.B.c.B.c.B.J.Y.J.B.J.sX).B.b.c.J.c.B.c.J.J.B.Y.B.J.B.Y.B.B.S.J m.m.c.c.B.Y.B.B.m.J.Y.c.Y.c.J Y.$.=.N.` ;.N.$.;.$.$.L.N.N.M.;.&.&.&.$.N.M.<.$.` ` ` $.J H L.$.W K.=.P L 3 h s ; s s s s s s @ u ; ; Y @ u Y 6.Y u w u s 5.u m u s 9 8 8 v s 8 a a 8 t 8 b b b n r Y 6.< T k L < 1 k g < > > y > s ; h 1 2 I L h I I I 5 L D L D D D *.} ;.*.-.;.*.D } ;.U.%.- #.U.;.F F Z F ;.F F H #.#.#.&.;.W H ;X&.M.A.#.L.H G Y.N.J I.J N.N.*XY.S.m.M.J J [ J [ J ] v.V.M.M.S.S.V.D.v.V.D.=X-X-X'.(.=X-XhXfXcXjX(.vXJXjXnXcXNXbXVXMXAXZXBXAXBXZXZXNXMXAXZXZXZXfXJXJXJXVXCXNXVXVXKXJXSXSXZXcXKXcXSXSXZXcXAXVXSXVXVXJXVXVXJXcXKXKXZXAXLXZXBXBXkXVXZXlXMXSXMXAXSX[.MX[.fX_.fXkXfX`.MX[._.[.:XlX'.'.;X(.V.2.V.F.V._ V.F.F.&.I.A.F.<.<.V.` ` _ [ ` ` &.%.` _ G F F Z U U R *.U - = 2 , 7 2 1 5 l 5 5 L L L < T < T k k l M , l T f , f g k : , i , : g : r : . e.f # $ $ o o X % o   a   v t % 8.o M M f O n 5.& T % n d : k f , 9...& . T.d $ 5.# e M o n e c 0 9 M 0 $ m 0 q c v 0 0 v v X 0 + 8 a X X v q X q q q q X q 8 8 q X q + a X a q a q X q q a q 8 q q 4.8 8 0 0 4.a X 4.9 a 9 a m 8 a a 0 4.0 9 o 0 3.4.0 c c m y m w w b 5.a w s 5.a 9 6.8 4.6.q a 4.5.T.K ~ Q ~ ~ ! 7.~ 7.K.c.! ! ~ c.K.! K.K.Y.~ c.K.m.m.! =.K.! ! ! ! E K K.P K.7.7.Q Q Q 7.Q E K.7.7.Q =.7.K.7.7.K.",
"! ! ! $.m.=.! H ! ! B.c.! c.c.K.B.B.B.B.Y.B.J.J.J.B.B.J.Y.m.B.B.B.S.G.M.J.c.J.B.c.B.J.B.J.B.B.J.J.B.B.B.c.J.B.B.c.J.B.B.B.&.N.B.m.! J B.J B.c.J.H.b.S.Y.B.! Y.=.L.$.I.=.L.&.N.N.H &.;.$.$.&.N.N.&.M.&.A.&.&.A.$.N.` N.N.N.G K.S E h > Y K ; s 4.s s 4.s u u Y 5.; ; b b 4.p s s s m b 8 v b 8 9 8 X 4.8 8 u a 8 w 8 y y y Y j T T f Y j l < l l Y n b u j b s s h l 1 5 I I T 5 X.- 6 U X.*.D - X.- - U s.#.F G #.;.U.F %.L.;.D } F $.F - S U.U.;.W N.=.N.$.#.N.' <.D.A.` G N.L.C I.$.J S.B.Y.M.V.C.mXB.m.b.b.M.J [ ' ' &.M.N.N.$.] [ J ' C.S.Z.=X(.cX-X(.hXdXdXjXfXcXjXjX-XNXZXVXzXZXNXzXNXkXMXBXMXZXBXAXlXKXMXzXZXkXbXKXJXVXVXcXhXJXLXKXvXLXKXSXvXKXcXSXZXhXJXVXKXcXSXJXJXJXhXfX-XjXhX:XkXkXLXSXlXSXlXSXMXSX_.`.ZXMXhXlX[.MXlXlX[.-X_.-X`.(.hXhX'.2.V.D.D.D.}.I.S.&.` A.&.` G ` $.%.#.%.I.P.F.A.&.&.A.%._ D } #.} D 7 2 < 2 = 7 L 5 I 5 5 g 5 T ..T 5 T 4 I k g Y l 4 < 1 r r > > j r : j i O % . < f # 9.$ $ m o 0 9 0 m 0   0 X f t X M % b 9.O 5.t.j . l ; N j f % 4 , < l < . e.<   5.# w b   m $ f % o m o X 0 0 o 8 8 X + X 8 X a + q q q X q q X v q X q X 8 8 v a 8 8 a q X 4.a 8 8 X a q q q q a q 8 a q a a a a a 4.+ m o 8 X 0 0 9   9 v c t c 8 3.0 q X t m b O d ; K ; b b 8 5.s s 8 3.4.4.e.8 e.UXE K Q K.K.K.! c.7.c.! c.! ! ~ c.c.c.c.K.c.c.! K.K.! c.B.K.B.=.! K.~ ! P =.7.r.Q 7.E 7.Q Q Q Q =.Q K.=.K.Q c.7.",
"W =.K.=.m.K.m.c.K.! B.K.c.! ~ B.c.B.c.B.c.c.B.B.c.B.Y.B.B.c.m.J m.m.S.B.B.c.J.dXc.J.J.J.J.c.B.Y.c.c.B.c.B.J.B.J.B.J.B.c.' B.A.N.N.$.m.B.m.J.B.B.Y.Y.B.dX[ N.U.;XN.#.U.N.B.K.U.A.! ;.N.;.&.;.N.N.<.&.&.&.' $.M.&.$.$.T.m.! S ~ W E s p Y s 8 s 4.4.s 4.s 4.s 6.7.# > s b n Y n : j u b 8 9 b # s s s a s 8 v 3.0 m b y $ : j b k T l g g l g n : n i j : s u u ; Y I 2 1 T R U 7 I - } *.} X.D A #.U Z *.U.D F L.U.D L.- D ;.U.Z Z *.#.y.;.$.U F N.W C #.N.K.W G &.] A.;.$.G $.m.J 8X[ $.Y.J ' J J ] Y.B.v.S.V.Y.m.' ' J J J J $.N.I.Y.I.M.] M.D.F.2.Z.] (.VXvXhX-XhXhXdXcXcXCXNXfXgXBXkXBXMXlXkXxXBXAXBXNXjXZXAXsXZXbXbXVXJXVXfXhXSXSXjXKXcXSXLXKXkXVXSXcXSXhXJXhXhXvXnXJXcXNXJXLXZXAXKXKXJXvXSXlXZXZXSXlXlXlXMX-XSXNXbXAXkX`.fX`.lXMX_.(._.:X(.F.n.'.2.2.S.<.V.&.` _ H &.%.G Z _ &.A.A.<.I.F.&.&.;.%._ F #.#.D U I 7 * 2 L I h I = X.h & I 4 r.k X.M 5 5 < & < . k : l , f d k j r b Y y e.5.r < r , , . n . % M   : d e b 0 o B d v N + m f f e.& n x.l k n O r r n f n x ; 4 T 4 g M . T 9 d r o d n N + + m + 9 9 4.0 t 9 0 0 + 8 0 a X q X q q X a q 4.q X q X X q 4.q 8 q 4.8 8 3.v 8 a a 4.q X q 4.3.q X a 8 0 a X u 3.X 4.m X a 9 e 8 m 4.a v 8   v v + 3.4.q c 5.b e n s Y @ s 5.8 4.# 5.0 a a q a 5.b ; K E ~ 7.! c.! K.K.~ ! K.~ B.c.! ! c.~ K.c.K.c.m.B.c.~ m.K.! c.! K.! Q 7.~ y.7.E y.7.7.Q =.! Q =.7.7.K.K.! K.7.",
"W W ! J =.K.! C m.! m.! m.B.c.! c.B.c.B.B.B.B.c.J.c.B.c.m.S.m.! Y.S.B.B.B.J.B.dXJ.J.c.B.B.B.B.B.B.c.Y.B.B.B.B.B.B.B.B.B.B.K.B.J m.! $.m.c.B.J.Y.B.B.Y.B.m.S.Y.L.L.N.B.N.$.N.$.$.&.&.m.N.N.$.H N.A.$.` H ` $.' M.$.$.$.H $.T.3 V 7.s b u # 8 s s 4.8 s s 4.s s 4.u 5.i 6.n s s u : # 5.b # a X 0 q 4.q s 8 v v # t d e w i Y T Y k n g g , f n < T j y ; u u j b Y R 5 5 X.R L - R 5 X.} U } F } } F A -.*.F s.#._ ` %.G L.L.F %.G #.L.8X- Z #.&.- N.L.F ;.U N.;.$.G &.` N.N.L.Y.L.m.G m.Y.G G.C.m.B.Y.' ' Y.m.M.M.] $.` H H H $.` J =.` I.A.S.' v.V.v.] V.V.&.*X-XcX-XhXdX).-XdXgX_.sX_.lX_.gXzXgXZX_.kXNXBXMXzXgXJXsXkXCXhX).KXSXSXZXSXAXhXhXcXSXZXSXSXZXNXSXSXKXAXKXNXJXVXVXNXVXbX:XnXcXcXkXKXSXlX_.lXAXSXSXZX_.NXkXkXbXKXMXJ.[._.'.[ '.Z.n.Z.] [ F.Z.D.F.] &.` &.V.A.$.G [ $.&.A.A.A.&.&.` ` %._ F F } } U D - - A A - = = 5 2 L = X.I < r.T = k h k l l , l r T . j r < r n r : y Y w 0.n . % g : O # T : f n   $ m % 0 d t q e % m o , f f O k k 0.< l ..l i r n , k % . & z < l 5.f # w % 5.:   M n % % f X 8   m 0 q X 0 o X X X X q a X X q X a X q q X X q X q q 8 X q 4.X q 4.4.a v q a q q q 3.v 8 q a 8 q a 8 8 a 8 0 c 0 o 9 t 8 9 m m 3.4.0 X m 5.X a + 9 m t 9 m 9 m b : 5.s b @ v 5.0 8 3.4.4.6.> 5.V ~ K.7.! ! ! ! K.~ c.! ! c.K.B.K.c.K.c.K.m.K.~ m.c.B.K.! K.m.K.! 7.K.! K.=.V 7.Q Q Q 7.7.Q 7.Q ~ K.7.! K.! ",
"S ! ! ! ! ~ ! ! c.c.c.c.c.B.c.c.c.B.m.Y.Y.B.B.Y.B.c.B.B.B.B.B.B.S.m.Y.G.B.=XB.J.J.B.B.J.B.B.S.B.c.Y.K.B.B.B.c.B.' m.S.B.N.$.! N.m.Y.c.B.c.Y.B.Y.J.c.Y.S.m.m.K.m.$.#.A.m.N.U.N.J A.m.$.` N.$.=.m.` H $.' &.H $.M.` ` $.N.U y.V r.2 w s O 4.u 5.b 8 u 5.8 s ; s 6.y 4.; a u s 5.s p   b ; e o d + 0 v 0 + a t 9 b $ e T j r T k Y n T r n : < j n i Y j r j 5.5.: 5 5 I I r.*.I 7 R } *.} Z U D y.D U F ;.;.F #.;.s.` F U.&.#.;.7 #.,.;.A A.Z #.#.F ;.=.S =.S F #.$.U #.G F #.$.L.$.Z G S.S.S.B.J Y.V.J ] B.V.m.' $.G ' N.` M.H ' ' ;.H $.G G &.L.&.N.I.I.S.[ ] S.C.C.v.Z.[ dXdXdX).-XnXjXkXsXsXsXsXgX_.zX].).].zXxXxXCXCXxXxXNXfXjXNXkXcXZX-XlXZXVXcXZXSXMXMXfXSXNXcXcXvXVXcXcXAXcXSXJXSXcXJXjXnXNXCXZXfXfXgXkXNX`.NX_.`.'.`.`.2.H.G.D.=X-X'.Z.V.(.I.I.*X*XF.D.] ' &.` &.] G G [ I.I.V.<.&.F.2.` F D *.U X.U 5 7 5 = = 5 5 - = - 5 = 5 R R 5 4 l L : 0.% j T e l r k O T : j e n T d n d b 5.u O O $ $ & j e.O < M % # M 9 y 4.X 5., f Y & T T l < 9.l.w.. . M Y f < f < 4 < 4 < < k M f x j f M o & ..T k & e % e @ 8 v v + o % + 0   X % + 4.  N q X v X 0 X + X v X 0 v q X 8 q v X c m X v X 0 c X + N q X v 4.q q v q v 4.8 b 3.8 w   4.t o 8 4.a s m 8 s b 8 a a s m s # m s s : b Y . n 4.c b a e.5.a 4.5.s 6.E E =.=.K.m.c.c.K.c.B.! ! 7.K.! K.c.! B.c.c.c.! c.B.B.K.K.c.! K.! K.K.~ K.K.~ 7.~ 7.E ~ E Q K.K.E 7.T.K.7.K.",
"E ! C ! K.m.m.c.B.c.c.c.c.c.c.c.c.K.c.c.B.B.c.J.J.B.J.B.B.B.B.c.Y.b.B.J.H.H.H.Y.J.B.B.B.B.B.B.Y.c.B.! c.B.K.B.B.$.B.A.B.$.$.$.N.m.K.c.J.c.mXY.=XY.B.c.Y.B.K.Y.K.&.` N.G N.&.I.S.B.L.I.B.K.B.N.N.N.N.;.m.&.' ' $.M.` W =.=.y.L 2 r u b w 5.# s 5.8 s b s Y p E Y @ 4.e.u ; b ; Y O 5.5.m 3.  0 f 8 8 t b @ 9 c j : e e.w k Y > & j Y n Y r r i d r : : m j ; r T L I L R 0.I U 7 I X.*.U D 7 I } - } y.;.S _ ;.#.A.%.C L.P.F ` - <.L.} Z } ;.%.#.&.F ;.L.U.s.} Z F U U.N.N.G G ` M.M.M.B.Y.S.m.` S.A.M.S.S.$.' M.B.' J M.` ` A.M.N.N.Y.&.N.A.;.` G A.A.[ $.I.Y.M.S.V.V.v.C.b.] -X=XdXdXdXdXsX).sXgXjX_.kXjXjXG.gXdX).sXxXsXsXbXjXzXkXSX-XhXfXKXVXjXNXSXhXZXKXlXSXfXbXcXVX-XhX(.vXSXSXCXvXvXVXhXnXnXzX).NXzXNXNXkXlX-XSXkXfXjXkXZ.-X:X-XZ.v.] v.v.D.V.V.A.A.' ] H M.M.[ [ [ V.S.I.F.2.' V.%.` G F X.*.y.} U 2 3 = , - A A A I I I 7 X.X.X., 5 ; . f , T j j M f e f M 5.g : n M T m e d e c 5.e : % d e f e f % j j r b d t o a % b r i g   l I ..5 r.T T I = M n . n 0.: : T 9.< x | T T n . M f % & % k l % k f y u t m b t e @ 0 d + + + v v X a q X a q q q a X v q 4.9 + 0 8 9 4.X 4.0 8 0 8 v t X 0 4.0 q q q v 4.a q v a s s a b m e t w 9 s b 8 u 8 s 6.m t s a v v a y 4.b 5.b > n 6.s M y c 0 5.q 0 a 4.Y 4.7.7.7.~ =.K.c.K.K.c.K.~ K.c.K.c.7.c.K.K.c.c.K.! ! 7.c.K.K.K.K.c.7.c.K.! K.K.7.K.E E 7.7.K.K.7.7.7.~ T.7.K.K.",
"W E ~ ! K.! J ! m.K.B.~ ~ c.c.K.B.B.B.m.B.J.c.c.B.J.B.B.B.B.J.c.Y.B.S.S.J.J.S.J.J.B.J.B.S.B.m.K.K.! K.c.B.B.K.K.$.J ! ! $.B.N.N.J H B.B.c.J.c.c.B.B.M.m.B.S.Y.K.N.$.L.$.;X$.N.H H ' $.$.$.$.` $.=.U ` H ` $.J M.J $.=.y.Q 3 P L # @ s # m 8 8 9 s m ; Y > s Y 6.# b # 9 j ; Y 5.6.n . w b v 3.+ 9 d q t w y 9 b : d . i j g k Y O k n j r n j Y e r r n j O 9 r T { 7 X.X.6 5 - } X.} I A 7 -.} } D ;.*.Z -.U.` $.&.#.<.;.#.Z D U.%.7 F F %.F #.=.#.U.L.Z Z *.y.S Z C F #.$.#.$.&.' M.N.$.m.' $.S.m.' ' N.J $.M.$.$.B.$.J H m.$.$.G N.m.N.$.$.N.A.$.G &.A.' ' D.V.V.D.V.S.C.v.n.v.C.v.Z.C.G.H.(.-X-XjXdXdXsXH.sXxXdX].sX).G.kXnXlXSXlXkXhXkXjXhXkXhXVXjXkXkXfXSXnXcXsXvXbXKXZXSXvXhXnX_.fXJXkXgXjXfXfXVXjX`.cXkXNXZ.`.v.Z.C.n.2.(.v.] '.D.v.D.;XV.&.F.S.A.[ _ [ ' &.M.] V.+X+XA.&.<.%.%.` _ _ } *.U I = - - = - - * A 5 I 5 A U 6 5 I = I 1 T f j n w d % e % O . . b & $ e O % # # # # w M o   # f % n g   k 0.f e y O y % + d n i , T 1 6 h X.= h.I = l 4 9.g   e.T < T M 6 , n < f k j f l o , n   x l % 4 % @ X 9 a 8 + 8 X 0 % X o   v + X q 4.q q v + q q X v o q 9 0 0 v   8 X 0 0 + c 0 t   0 f q q q X X v a X X a q q u 8 9 s a m t X # 9 u 8 s 6.@ b 4.8 u a w 8 s 9 s b b s w 6.> p $ e.5.8 e.6.4.5.4.Y 7.7.E 7.=.~ ~ c.K.c.K.~ ! c.~ K.K.c.K.! ! c.K.c.c.! ! K.! c.K.~ ! ! m.~ =.! 7.K.Q ~ Q 7.7.7.~ 7.~ ! ! 7.! 7.",
"P ~ S W ! B.! c.c.c.c.! c.K.c.c.c.Y.B.B.B.J.J.c.c.B.c.B.c.B.B.B.B.b.Y.J.B.=XJ.Y.J.J.J.B.B.B.J m.c.c.c.! c.B.B.B.B.m.m.! G J =.B.$.m.B.B.c.B.J.Y.Y.J.m.B.B.J b.! H ;.&.$.N.H &.&.Y.I.B.L.I.N.$.N.A.$.&.;.$.M.$.M.K.N.$.=.W . p p > 8 Y 8 b s 8 + 4.4.u 6.s ; 6.6.b 9 m 5.s # 5.j @ # Y 5.c f v 8 c 3.+ 0 t b o b y n   j y i n 5.: j Y i j n r n : n j : ; j T I 1 A 2 { R U L 7 } } } D U -.T.U.U D s.s.G ;.L.#.H #.;.#.` #.- %.+XZ 7 #.*.D Z L.;.L.*.#.Z #.*.F #.;.C #.F $.A.U.S.&.J G G Y.S.' I.m.M.J I.' $.J ' ' A.' &.A.U.H N.m.I.L.#.` ;.;.;.A.N.N.&.$.[ ' G [ ' V.S.S.M.V.M.D.v.G.C.n.v.V.=Xb.(.G.G.J.sXJ.sXdXvXdXsXsXhXjX'.-X-XkXdXhX-XcXSXhXvXjXfXhXfXkXjXNXcXCX-XhXhXkXNXkXlXvXcXVXkXVXzXbXNXjX-XCXjX(.-XZ.-X-XVXcX(.*X(.S.S.(.S.F.D.V.}.D.D.[ ] F.V.[ ` [ <.S.I.&.$.%.` #.Z Z F #.#.D A 7 - * - 5 5 L I 1 X.R X.1 L I I R 5 5 . . . < T M @ d % d b M r % d c d n X O % d r $ t 0.y + . d . M n o 0.T j , : f d m 9 n r l h T 5 T L X.I 0.O.h . 4 t.% , l.5   l & . l f < ..0.% n n f r ..  X...4 , : t # b 5.9 9 t e % 0 o 0 X N q % 0 N + X q X 0 X + 4.X + a 3.9 3.+ a t a v + c 8 9 X v v q q q X q v q X 4.q 8 q + 8 + y X e + 9 t b # 5.m 8 5.s a s 0 m a s m s s : : 5.  p n u y m v e q e.a 9 6.4.s 7.K ! ~ Q K.c.K.~ ! K.~ 7.~ 7.B.! K.c.c.! B.K.K.c.K.K.K.! K.~ ! ! y.! 7.E 7.7.E Q 7.7.Q K.~ 7.7.7.K.7.7.K.",
"P P *.~ ~ ! =.U.K.c.c.K.K.K.~ ~ c.B.c.B.B.B.J.B.c.J.c.B.B.B.B.B.B.C.Y.B.B.Y.J.M.J.m.m.B.C.Y.m.S.Y.m.m.! c.c.c.c.c.~ c.m.K.K.! ! J ! V.B.B.B.).J.B.c.J.J.mXm.H.$.$.I.$.M.&.&.H H ;XN.N.N.A.N.W ` =.` ` $.H ' H $.$.$.=.*.R 3 3 * Y # s s a X @ s b u p b 6.K 6.m # s t @ e.6.u p p s Y # c w c m c a 0 m X w e c e j 5.r 5.0.j l n Y 5.n T m O r ; n T 5.b < : O I I R X.} X.U D y.-.} D U <.-.#.A } s.;.} L.;.F ;.%.=.L.;.} U ;.U.7 D _ ;.F } L.;.s.#.#.U U *.- #.;.#.U.L.F ` ` N.#.S.N.A.G C m.B.' &.J B.J &.N.$.$.' ! N.! I.Z A.m.L.A.m.U.L.N.L.&.N.$.G ' M.I.M.*XV.G M.G ' S.] C.M.D.S.V.S.G.M.G.C.[ G.V.v.n.b.v.G.C.G.=XsXvX_.-XbX-XZ.Z.hXmX=XvXdX-X-XcX-XvXhXsX-XjX-XfXhXhX-XkXfXcXfX-X_.jX).(.cXjX-X=Xn.-X*X=X).G.Z.(.Z.v.] V.D.F.M.C.*XF.V._ ] A.F.[ G [ <.V.I.` ` ;.;.F U U S } -.} U A - Z D 7 7 6 A D D 5 X.L I D L 5 , R 5 h < g r r j : : w w t $ f c d % % o d t 9 % b y X   m t o : M f l f < T T f , g f . N j j . T 5 5 = R | | | r.4 < k L < <   L j M n M I & x 0...x.  f 0.< f n . T ..f < d $   c a X 9 9 % X 0 X o X 9 q X B v X q q + N X 9   X + X 4.X 0 X 0 q v 0 v v a B X + q v 0 q 8 q X 4.q 5.X 8 a 4.u # 5.a w @ 3.a c # y b # 5.b u 4.s v 5.s a b b s @ 6.  u Y : 6.u a v q 3.a v 5.6.b y.K E E Q K.K.K.K.~ ~ ~ K.7.~ ! c.B.c.! ! c.! K.~ K.! 7.~ 7.~ ~ Q Q E y.E ~ 7.Q 7.Q 7.Q K.7.7.7.7.7.7.7.K.",
"=.! Q ~ W K.! c.B.c.! c.B.c.~ c.c.Y.c.B.B.B.B.B.B.B.B.B.B.c.c.B.B.b.c.J.H.J.G.H.=XY.J.b.c.S.' J K.! m.m.K.B.c.K.Y.K.Y.K.c.! ! m.B.M.M.B.m.b.H.B.=XB.J.~ S.G Y.m.N.N.$.` $.S.S.A.=.H M.$.;.;.$.#.#.` ` $.' $.N.A.C =.y.} L Y p s b # u b m u a b @ b 5.5.s Y b ; b 9 m y @ ; > 6.b n m y 5.@ m + 9 t 8 y 9 y u d @ @ b % r n : r T m k j T j > r r r : > > r T 6.I I I D - 7 - D } } D D } s.} } _ #.F D #.U.%.#.F F #.=.U #.F -.s.G D F *.} #.;.U Z U y.-.F F . C T.T.U.#.=.L.$.C H N.&.N.Y.A.B.` H $.H ' G $.N.A.m.L.I.A.H N.m.I.H L.$.=.Y.` &.&.&.*X&.` I.A.&.J S.D.I.D.A.S.V.[ J [ [ M.' M.M.V.G.S.=XB.J.Y.S.mXH.G.C.C.C.M.Z.(.H.G.Z.G.(.=XdX-XmX-XdX*XhXdXcXbXdXnXdXhX=XjXcXhXSXhXfXsXkXkXsX-XhXcX(.hX-X-X-X-X-XZ.*X*XD.] ] D.&.2.D.F.] &.&.] ] &.[ G ` 2.&.}.' %.` ` D Z U F A U } } D U - 7 D - D D } { U X.I *.| X.I I I T I f , 6.d n r m $ m w r d @ d v f e $ $ o c N   e c + o b m o & M T r & , M 0.< < k   . Y 9.O T T , l I 0.X.I T.| x I , ....g L T k l 4 l k < < M M 0.. n n   M x . 4 Y , % f e 0 m 8 + M v   o N X % % X t X q 0 X q X X v q 0 X q 8 q 3.X 3.o q v X 0 9 0 o + 0 X X 4.q q q X X 3.X 4.X v t 5.# # 8 y + 9 9 8 s a   4.4.# s 0 4.a u 4.u # 9 b 5.9 b u Y u r a 0 4.q v 4.a 4.q e.6.6.K E 7.K ~ ! ! K.K.7.7.~ ! ! K.K.c.K.K.c.c.K.T.c.c.c.K.7.K.! Q Q Q y.K.y.E 7.E Q Q Q 7.E K.K.K.K.7.K.7.K.",
"~ ~ =.J Q m.~ m.K.K.K.c.! K.K.B.~ B.B.c.b.B.c.B.J.c.B.B.c.c.c.c.B.C.b.B.Y.S.H.m.b.J.B.m.J S.C.J m.m.K.m.m.c.~ K.B.K.K.m.B.K.=.m.! J b.m.B.b.J.m.J.B.B.=XS.B.v.B.' m.S.N.$.' ' M.M.;.I.N.$.L.&.` ;.$.` &.$.H N.#.#.K.R 3 K Y Y s @ 9 @ # c b a ; s e.5.6.s b K s 6.X s @ s 5.u x.6.> u 5.9.9 v X + a + 8 b c @ b m M r b e f f n n j r u n j n g n k < ; i Y T g L I } I I D *.-.y.s.;.} -.*.Z Z F ;._ } } #.} L.F #.L.F Z s.#.;.y.F 7 _ ;.*.%.} ;.U U #.D A F U U.y.A P.=.#.F N.$.F ` m.C $.=.` $.N.&.N.N.H H H H C L.N.;.$.m.U.&.H I.$.N.8XL.Y.A.;.8X$.&.Y.' M.D.$.S.;X` A.S.L.I.A.&.` &.H G H J G J ' ' C.S.b.G.M.V.G.Y.G.S.V.Z.D.] C.G.G.[ S.;XV.V.C.V.S.*XG.G.=XhXdX*XdXH.sXvX=X).(.jXdX-X-XhXhX(.fX(.(.=X;X;X'.[ Z.S.V.[ ` I.D.A.S.V.&.[ _ V.[ [ %.I.A.F.] F.;.&.%.=.#.A U *.U R U F A X._ 7 G 7 G U @.} U U 5 x L l 7 = 4 < g . 4 j o e M $   w   + t 0 m 0 % f d 9 + + f o X N t 9 w M % % l 4 , 4 n l 0.4 g l . < 0.x.= t.{ = X.X.O.} X.O.I 5 4 < l k 1 < l l I k I L ... , X.0.% x f j 5.T . l x f < : e 9 c 8 + m 0 X o v     8   q   a 8 8 8 q X q X 8 0 X X + v   3.X X 4.  v q 3.a X 4.0 q 4.q a v q 8 4.X q 8 5.s a b 4.u 8 w 4.a a 3.s e s s 4.u u a t 9 4.b 8 b s m 9 s b 5.# j b v 4.6.q 5.v q 5.v b 6.K p 7.7.K ~ Q 7.! E 7.! ~ 7.K.7.c.K.K.B.! K.c.K.! K.! ~ 7.~ E 7.Q 7.7.7.E 7.7.7.7.E 7.~ K.7.K.7.K.K.7.7.",
"=.P =.~ ~ c.J m.B.c.c.! c.c.c.K.B.B.B.c.c.J.c.B.Y.c.Y.J.B.B.B.b.c.c.b.B.H.Y.J.b.=XH.Y.mXC.m.B.b.K.m.m.m.B.B.c.B.! Y.Y.! ! K.m.K.B.$.S.B.B.B.B.H.m.B.B.B.' D.m.J M.[ H m.` A.M.A.A.$.&.<.` <.#.#.<.&.` $.$.G N.F F y.U E r.Y s ; s 5.8 # s + w b Y 6.n b 7.O 6.p @ b # 5.5.; : 9 5.u u b 4.9 @ 4.9 w c a 8 + a M + o T : y j j d n n n g n j n . Y n r d y , g 5 6 U I } U 7 } *.} -.} U ,.D _ D { U.#.*.#.;.#.U -.U.=.S F ;.;.-._ S Z - %.U } Z #.y.*.F D *.- } L.U Z *.;.F Z ` A.$.&.A.Y.$.G C $.$.F ! H H =.I.;.H #.$.&.N.I.L.N.! ;.Y.L.I.G A.$.$.Y.H ;.*XH I.#.&.mX;.` &.N.$.Y.M.&.m.Y.Y.S.A.S.v.V.[ b.J J J J [ J [ ' ' G.M.V.G.=XY.S.*XD.;XY.D.Y.M.*XY.=X*XY.D.=XC.D.G.M.Z.(.n.-Xn.(.Z.n.H.(.D.Z.=XV.M.*X'.D.V.V.V.Z [ V.%.&.I.F.&.] V.A.<.` %.V.I.}.&.A.&._ ` _ D Z D - U l.5 A } D = D D Z @._ -.} X.} I L 6 5 7 = , , < f j b   0.9 T + @ o w + @ t e v $ v v v X N X X m 9 c t $ X 4.e x f & f M X.< I = x < , & T X.4 I R = D = I X.t.5 k 5 I t.l 4 4 9.9.0.X.; 4 l x k T f l j : T d O f   M j f , f @ X e 8 o +   % 9 m   X % + 8   v + q X 3.X q X 0 a X 8 X c q 0 X + 4.X 8 o a 0 X N X X 4.X q X q q 4.# q 8 a 8 s u 8 # X a s 0 9 e.9 8 s 8 @ a 4.m a w m m 9 m 9 : # 5.n y : m 4.s q v x.3.q 3.5.a 6.x.Y 5.Y E E 7.~ 7.~ E 7.~ K.7.c.K.! K.~ B.c.K.c.K.! K.~ c.7.V 7.7.P 7.2 7.E E E 7.7.V K.E 7.7.K.7.~ K.K.K.",
"! ! ! ! ! B.~ ~ J c.B.c.B.c.c.B.B.c.B.c.B.B.c.B.B.Y.c.Y.c.c.B.B.B.m.J m.C.Y.S.Y.Y.).=X=X=XY.B.B.m.J B.' B.m.! H m.m.m.B.m.c.m.B.B.N.m.m.C.S.B.S.J S.B.S.m.m.V.$.S.$.' ' Y.M.N.M.&.;.&.$.L.I.N.=.#.` &.&.` L.H W W y.7.E r.m # @ a 5.u @ s b u s Y m s p b s 6.Y b u n n n # 6.T 6.O 6.s x.8 a 8 c a m 8 e 4.u 5.t 5.+ @ j u e e M O j n g j < n i j g k i k g h I D 7 } U D -.*.U } D s.*.Z %.F ;.U.-.F -.#.F A ;.s.;.U #.*.y.U Z } U D =.} - } s.*.F U D U 5 -.U } U.} F F #.U.U.Z N.#.$.N.Y.F W ;.F G ` F S #.N.N.L.N.#.$.F F L.#.I.N.L.$.G $.I.Y.m.G *X8XJ I.M.&.Y.$.;XL.8Xm.H ;X! m.A.K.N.N.S.I.S.Y.S.D.Y.S.;Xm.S.C.J [ G [ [ J [ ] [ M.Y.M.m.A.M.D.G *XY.m.S.mXM.;XS.G.Y.G.(.G.dXG.=X=XD.G.*XD.'.] (.D.V.(.I.S.&.] [ A.I.I.&.V.&.%.[ <.[ &.` P.&.P.` ` %.%.Z Z Z _ I U } } %.D - D Z D _ #.%.%.-.-.-.X.D D R I 5 < 4 l 4 & N d d f M 3.% % d e M 0 9 9 c 4.% q X z 0 v v X v % % v t + 0 f f T <   0.& l 5 I L 6 k k t.T I I 5 { } 5 I T.x 5 7 . I l . . , T h < I 4 = < l x , Y g < e M O w o , 9.f 4 . e e c   m 0 v c $ t t M + 0 o 8 X q + q + q X q X v + X a X X 9 0 v v v + + v 8 X + X q q q q q q q X 4.X t 8 9 # v s s b t t 4.w 3.c m 0 m t s a 4.+ b + u 4.w c y @ w b b b # 5.m 4.s a 5.q v v q q 5.e.b 5.x.K ~ 7.7.7.! E Q V ~ 7.7.m.~ K.=.~ c.c.K.! 7.! K.7.~ 7.K E E 6.7.6.y.7.E K K.7.7.~ y.E 7.7.7.K.~ K.",
"! ! ! J ! c.c.c.m.m.B.c.Y.B.B.c.B.c.B.c.c.B.B.c.B.c.c.c.B.c.c.B.m.m.B.b.b.B.J.Y.B.B.B.B.B.B.Y.J.S.B.B.J J c.b.B.m.m.B.K.c.! c.! J B.B.B.m.' c.S.' m.B.H.Y.S.S.B.S.S.S.V.I.' v.$.M.A.&.` ;.I.U.L.N.N.$.N.&.N.H F 8XK.3 * Y 6.s w 9 s s 8 8 Y b ; s Y Y Y 6.s s Y 6.y b b b n 5.n 5.u 4.u 6.a v a e a e.c c 9 c m 9.5.m r y x.j y n o 5.M j n : n k l ; < , 0.T < U I - 5 D U -.} D D Z %.-.D F } s.#.#.*.;.U } F *.%.A D F ;.;.#.F _ *.%.*.} #.y.*.U - - } - S y.U U S Z *.L.;.F #.F N.$.$.C S ! K.=.K.#.W =.G H F ;.H I.M.N.A.A.A.H H G Y.N.L.N.Y.L.` A.$.I.$.;XA.&.;X$.Y.=.Y.H I.N.$.8X;X$.N.' &.D.S.M.[ Y.M.M.m.G.D.M.M.Y.D.Z.M.G.S.m.V.J N.&.H S.J J A.M.C V.M.J D.B.J S.] S.S.' J S.v.v.Z.v.V.S.V.[ I.I.A.I.A.] [ ` &.I.I.&.A.` [ &.&.&.G F ;.%.G &.A.P.] 7 _ D D F *.} D - 7 - 7 _ G _ <.s.1.<.s.-.} I 7 x 6 , 4 & < < f < w m v e d 9 % 0 m + + 0 c t 8 c X % N q f X N 0 t o v $ o d # d < ..4 x 0.< I k k . 4 5 I X.T & X.5 = I A +.X.R t.l 5 0.4 & g l X.T l I T l I 4 < Y M 5 f k T : o O , 9.k M % r e c X +     % $ $ o 0   9 % 0 8 t q + X q + v q X X X 8 X 8 a 8 m a v X v 4.m q a + 4.q q v 4.4.X q 3.q 8 c m # b 4.8 b X b a X a 0 + X X m w a u m t t y u @ c 3.9 b @ b m u b m u a 5.q 5.4.q 4.q 6.a 5.Y 7.6.E Q 7.~ 7.Q E 7.~ ~ ! 7.7.K.K.K.K.K.! c.! K.7.K.Q ~ Q K 7.E 7.7.E E 7.E 7.7.K.E E ~ K.7.K.~ 7.K.",
"! ~ ! ! c.c.c.B.B.c.c.B.Y.c.c.B.B.B.B.c.B.B.B.K.B.c.J.c.B.Y.B.B.$.m.b.J ' b.S.S.H.Y.Y.B.J.B.J.B.Y.B.Y.B.B.m.m.B.Y.B.m.K.c.J J m.S.m.J ! S.Y.B.B.J M.S.B.B.J S.B.S.B.M.' V.$.M.S.&.N.M.&.;.;.;.N.;.S.H A.A.K.K.;.=.R L r.Y 6.Y 4.a 8 4.X s m s 5.6.s Y s Y s p s b j : 5.u j Y m n m b b 4.8 a 6.b 9 5.0 c w c o e.d e.w 9 M c f n e Y d j M g j n f < g l Y h l I U 5 D I } *.} D F D F #.F D s.;.Z } y.-.F F D U } - Z W y.;.%.G A =.=.7 - } -.A = D U U - y.L.G *.*.U G #.- G $.` =.H =.N.T.Y.W G #.=.$.L.=.=.F =.S H F F N.L.L.+XY.=.N.G M.' G I.S.I.Y.S.I.&.- A.I.I.;XY.pXH Y.$.$.L.$.m.8XJ I.I.` S.M.I.S.Y.G Y.S.M.' V.V.V.[ V.S.I.*XY.S.I.mXN.;X$.H Y.[ C B.$.M.S.J J J N.' ' A.m.` [ m.V.` ` V.}.D.M.] &.] &.F.P.L.A.A.M.<.<.M.&.%.&.&.}.P.A.;.F.;._ Z Z D 7 A I } D 5 - D D } ;.%.<.<.<.s.-.-.} 5 7 < 5 5 < k : f r T b $ m t v v 9 0 %   0 0 0 % X X c X X N   3.X 3.f o $ m t $ 0 $ f < w., T 9.< T 5 l , R 5 y.X.I 6 s.R 7 D 0.L.I I t.T h T .   5 < T T 5 k k 6 x * = ....n j , j o f n y j g n % r s m e 9 c X f b d 0 e X 0 + + t + q 0 o q X v X X + 0 + q 8 9 X 0 8 X X v a 8 + q X a X q q a q X X q q X c y X b 8 X 4.8 t a 0 v v 3.0 9 a w b   4.@ c 5.@ w c m y m t 4.y m 9 m + 4.+ a v a X 3.4.a a 5.@ 6.5.6.E 7.P 7.7.P T.K K ~ ~ ~ ~ ~ ! K.K.! ~ K.K.~ 7.y.~ E ~ Q 7.7.K 7.K 7.E 7.7.7.Q 7.! K.~ 7.7.! T.",
"K.! ! ! c.~ c.c.c.c.c.B.B.K.Y.c.B.B.c.c.B.c.c.Y.c.B.mXc.B.B.B.B.m.B.m.! m.J m.' J.B.J.B.Y.J.J.B.J.C.Y.G.G.S.B.B.B.S.B.B.c.Y.H.m.m.m.J b.c.J b.Y.m.V.m.S.S.D.Y.I.S.V.S.S.Y.S.D.I.&.M.N.N.N.$.$.;.m.N.` N.m.` $.#.=.P L r.Y j u y 5.8 b # 5.s s 6.p s 6.5.b O 6.5.s w n n # Y e 0.y 5.s 8 4.4.a a a 9 5.v a m 4.5.3.9 5.c b @ 9.5.r d o < j g n O k i g T k , i R I *.D I *.X.*.U D U } } } D #.U.-.7 *.;.-.} *.D } F D F s.#.*.#.F } s.;.- * *.y.I - *.5 * t.y.2 y.*.- D #.*.Z G W #.N.#.$.;.W H A - Z G F -.L.U.L.N.I.;.` #.$.$.$.L.N.U.A.B.L.I.M.M.G ;.S ` L.A.&.A.;XN.N.H ' N.8X` B.mXJ I.mXC D.' M.A.m.Y.' Y.m.=X' Y.[ I.I.M.V.] mXI.M.$.m.I.Y.$.! M.;XY.` Y.;XH Y.N.M.mXY.S.Y.' S.S.M.Y.V.' *XS.S.;XF.&.A.&.` ;.I.A.I.A.&.%._ &.&.%.] ;.L.+X<.;.L.-.*._ F } } } } U 7 - Z } } _ %.s.1.P.s.;.} I D 5 5 5 7 < < % g e e 9 M d 0 0 + 0 m f % X o 3.f v 0 0 t v q + q   4.B a % $ $ b f f % e b j 0.& x R , 0.* - 5 I < X.{ - D } 7 7 - s.l.X.5 5 T 5 h 1 g n T t.0.5 0.I k T l g r.e...T % M : d n $ . % f . f # 8 8 + 4.o % $   X $ X w X + 4.X z v 0 4.q 4.X X X q + t 0 9 0 v a + 0 m 0 X v q v + a v q 4.X a 8 q 4.+ 4.m 8 s v s 8 # 8 e 8 0 8 3.v a t t 3.8 m @ w e.o m y b M y 5.m @ 3.w 4.4.v 8 a 3.0 a 5.4.a 6.Y s e.Y K K Q K 7.E 3 r.7.7.K E E 7.~ E ! 7.E ! 7.K.7.K.K.7.E Q K E E K 7.K E E E 7.! Q 7.7.K.7.K.~ K.! ",
"7.! ! ! K.c.c.~ c.c.c.c.m.B.K.c.Y.Y.Y.B.B.m.Y.Y.c.B.Y.c.c.c.B.c.c.K.B.! c.c.b.c.c.b.b.J.J.=XY.Y.Y.S.H.B.B.J.c.B.S.B.B.Y.B.J.b.m.Y.S.b.m.m.' ' m.M.b.H M.v.' J [ J [ ' ' M.[ [ ' M.m.&.H $.N.N.$.$.$.J m.&.;.=.! ;.L 3 h l > : a s X 8 9 4.O Y s ; Y u ; Y u s . 5.Y y y y b 3.T i T t w e.5.4.a m 8 c + e a + 5.  9 + 5.3.d 9 # r M j n 0.n 0.r k j h g k l k L D A = A t.*.} - 7 F *.#.} S <.*.#.Z #.I } F *.X.U F U F s.} F F G } *.U Z 5 -.*.I = 5 L - I *.T.s.A U Z #.*.- N.#.*.=.F K.=.G U.W - F S =.L.F $.;.G N.U.C N.` &.$.H G =.N.N.M.I.Y.I.&.A.N.$.N.` A.*X` ' A.Y.Y.;XM.' $.S.m.=XS.G I.A.S.A.I.J ' mXG Y.J Y.G Y.A.[ S.G ;XG I.$.Y.&.m.L.H U.N.$.N.S.A.N.' #.Y.$.M.J m.mXM.` $.;XI.` I.;X;.` A.A.%.[ %.A.I.<.A.&.A.<.F.&.&.F.+XU.L.P.U.;.-.G F D Z D U A - 7 Z D #.,.-.%.;.L.;.s.-.D 7 - 5 = 4 1 < < : o 9 9 # + 0 + t + q 8 q X X t $ N X + 0 9 9 0 + q t % 9 o o % d   m o o f : T f ..& l 9.g t.> I 5 I R I t.D 6 D 7 D I l.t.t.5 I X.j T k i j Y 0.I & I 5 l 5 4 = l l l O O T ; o w % , k d % n t t 0 8 4.@ $ 0 u t t o 8     c   9 8 X q X 4.X + q q + 8 0 X + a a X 8 a 8 X 0 + v X X v X q X q q a a X q b # 8 a a # 8 a u a 5.v 0 v + a X 9 5.c w @ 3.+ 5.t c m w c w 8 m u s t a a 8 a v 4.4.q 5.4.4.5.6.6.E E E E 7.P E E E E K 7.E Q K V K ~ E E Q 7.Q K 7.K.y.7.P K r.E 7.E 7.K E 7.~ 7.K.7.7.K.7.K.7.c.",
"P Q 7.! K.c.K.c.c.c.B.B.c.J c.m.B.c.B.c.B.B.c.c.B.m.c.c.B.K.B.K.m.B.m.c.m.B.B.B.c.c.J.c.c.c.B.J.B.b.J.B.J.Y.J.J.S.H.H.b.c.B.b.c.H.b.b.b.b.b.[ b.m.b.v.v.M.' v.M.Y.D.C.C.Y.Y.Y.G.S.S.A.N.$.B.L.K.N.$.$.$.N.B.H S S V A L Y > u 5.8 s 8 u 6.s e.6.s 6.Y Y 5.Y 5.u Y : n w n n j b 3.n y v e.s a 6.5.e m 8 5.3.0 4.5.5.c + 0 m c c j c 5.f M b f j k f 1 g k g L T R I 5 X.l.y.-.U D U U D } U s.F U 7 *.U } A U X.U D F #.s.#.S #.#.#.F Z U *.r.X.X.I A - = A y.U D Z D } s.#.Z } $.#.;.#.L.=.C W F Z A #.U.U.} G ;.F =.8X$.&.A.I.;.K.;X#.H ` ' $.M.$.' $.vXS.A.;X&.Z N.G L.[ G L.&.M.V.I.;XS.Z G L.S.*X$.*Xm.G S.$.*XG A.J ;X&.M.' &.;XG *XJ Y.F I.&.m.I.$.N.N.+X` V.' mXI.S.I.D.*X$.$.m.Y.M.m.` L.Y.A.' <.&.` ` &.I.I.<.` &.F.P.;.F.L.U.+XI.L.&.} F _ - D _ U D I 5 - D @.} D Z _ -.s.s.*.*.#.I 7 5 h 5 < = O : j 9 @ 9 # 9 9 X v + t 0 % X   B 9 3.N 0 % v v v N t z 0 m N % : $ % l o O f n f , T l g T k 0.1 g 5 I X.D t.- 6 U A D X.X.R I 1 T 1 ; T j < n T X.L & I 6 R 6 < < T f T   Y 5.  % r d n M k % 5.9 w e @ w X o 9 $ @ @ # 9 9 9 4.X 9 8 8 q X 4.8 X + + X X v + 0 0 t 8 X 4.q q q q a q q q q X 4.q X q v 8 q 3.y s 4.s a a a X 0 a X 0 q 9 a a e 4.w t b w y 3.t y 8 c # 9 m t 8 s 8 5.q 5.X 3.a 8 q 4.a u 5.Y 5.E E K E K K E p E E V 7.E E K ~ K.7.E K E E 7.P 7.7.K 7.E y.K.K 7.7.7.~ E 7.E 7.7.~ ! ~ ! ~ K.! ",
"V K ~ E K.! 7.c.c.c.c.c.B.K.B.B.c.c.B.c.S.B.J c.c.! c.c.c.K.B.K.K.K.m.B.B.B.B.c.c.J.B.B.B.B.J.J.J.J.J.J.B.J.c.c.S.c.B.B.b.b.B.J.dXJ.B.J.G.Y.H.H.G.S.Y.H.Y.(.D.b.v.b.' b.C.S.B.b.B.$.B.N.$.H ! &.$.H ! H $.N.$.~ W S 2 E h ; ; m X 4.X # 4.s b Y Y u s s s e.6.n ; y b r 5.; M b m n t   a b s a 8 9 b a a a m 5.v a e.+ M m m c M b 5.g M r > Y g < g L T < h R 5 U I *.X.U } U } } S A D ;.;.U U G l.*.*.D } } I D } -.;.=.F #.U G - - } *.7 - 5 - 5 A 3 E y.I - - } *.y.#.F #.#.#.;.#.H Z #.*.- U D ;.*.F L.;.$.F A.U.A.Z ` Z Z $.;XH H N.m.&.' M.' $.F ;.N.&.*XI.S.I.S.S.B.M.M.M.N.M.m.V.Y.[ Y.mXU.S $.Y.;XB.C N.Y.Y.&.M.&.Y.] A.M.v.L.` ;X' ;X#.&.N.` I.J I.` I.J I.G mXJ G S.' ;XJ ;XH $.F.U.#.N.` G _ &.;.P.A.&.` _ ] <.] _ }.8X*XP.;.<.#.%.F D A U U D - - 7 I -.-.#.#.%.s.L.L.t.D L A 5 1 1 5 , < < % r e @ + # 8 8 + X t 0 0 0 q 0 % 0 % f v   q N v X 0     + % N o X $ < : f f O 0.% 4 x n 4 l T T i k l r.X.X.X.= } { F } -.X.0.L I 0.T > T j ; j Y T 5 < l I I 5 , * T T T . g p # w u r r b : o n + w t a 8 9 $ e $ 8 9 X   9 + 9 X 8 8 0 + 8 X X q 0 a o + 0 X X 9 9 0 8 4.X q q q X v q X q q 4.q X X a 9 9 b y 8 s t a 8 3.a v + X 4.0 v X 4.+ t # y 4.u 4.M u 9 u v t a 3.u 8 a 8 4.8 4.q q 0 8 5.8 6.; Y 5.Y 7.7.K E K E 7.L E P K ~ E K E E 7.E E V Q E E K K 7.K 7.V E E y.7.E K E Q 7.7.K.K.K.K.K.K.K.c.! ",
"K K V E y.E ! ~ ~ c.J J c.J c.B.c.c.Y.K.m.K.S.! m.B.K.K.c.B.c.B.c.K.m.H.B.B.B.B.J.B.b.c.B.J.B.c.J.b.m.c.c.b.c.b.B.H.dXB.H.Y.J.b.J.b.J.H.H.C.C.b.H.H.S.G.C.G.H.Y.G.*XG.C.m.b.v.Y.V.v.&.B.S.K.I.B.M.S.V.m.$.m.$.S W U E r.p ; ; 5.# 5.u 4.p @ s > 6.5.6.p ; 5.# 5.b n 5.u T % 5.Y y 5.3.b 4.5.t v 8 4.w 5.w y m 9 5.M 5.v 4.c N t e e f n e.f g j ; , k h T L I L I X.X.*.} P X.A U U D U } s.D F } A L.I 5 A *.} D - s.;.L.U #.%.} Z D } *.} - = L U 5 2 D 7X*.U y.;.D %.*.Z -.=.#.=.F #.L.- =.K.G Z F s.$.*.<.=.` %.A.A.A._ &.` L.;.L.A.A.I.m.I.$.I.&.S.N.G G M.L.H ` Y.$.I.I.S.B.;X' M.M.M.M.S.A.$.$.Y.#.I.U.m.S.A.mXG G C.8XS.` J S.;XA.C Y.N.N.I.$.&.N.&.H A.I.' [ I.J Y.` ' S.] &.J M.;.;XA.I.#.&._ ;.S.U.A.;.&.&.%.G _ ' %.+X;XP.;.&._ %._ F _ } *.} D Z 5 A A F } D 7 } P.;.-.} U 7 L Y I , = < < , d y y o X @ X c X X X 0 v 0 q X 8 N f 0 X t % c v f + t f d 9.% m 9 M M X f : ; . 5.g f l k : , 0.h I r.* t.X.r.U 5 D } @.a.} D -.< 5 L T < g n j j R T & 5 I T 5 , T < I e.T 4 . j e.@ $ e e f f : N w y e a # t 9 f   % d % # 0 t 0 9 0 q 0 + q 8 X a X v q 0 q X + a 0 0 3.v X X v X X a 4.X q v q X a q q X 8 y 9 m # s m w X 0 4.c q t v 4.X 3.c c @ y t y 4.5.t w 5.8 5.a b a a x.X 4.a X 4.3.t 4.s b 6.# 5.6.b E 7.K 7.K E P K r.E 6.K E K y.K E E 7.K 7.7.K 7.7.K K K E L E 7.~ 7.7.7.K E K.Q 7.~ 7.K.7.c.7.! ",
"6.3 3 s E 7.7.7.K.! B.B.B.B.c.B.c.B.c.~ J c.m.m.' ' m.B.' m.m.B.B.Y.J.B.B.B.J.B.B.J.c.c.J.B.B.B.b.c.B.J.B.H.J.B.B.B.J.B.c.J.J.J.Y.H.Y.G.H.B.H.H.G.G.J.G.G.H.C.J.H.Z.C.C.M.V.n.M.b.v.C.M.m.C.V.J b.[ v.J J ;.W H =.A R U 2 p < b 9 y u Y s 5.Y 5.s 6.s 4.4.s a s b 5.n f T b T 3.b 3.b 3.# 5.X s 9.8 t m b 3.m t y 5.m c f 0 9 % M r e 0.: % T 5 T , T = 1 L 5 L A X.U *.t.R D A *.D 5 D X.U U -.U A y.D D U D *.- W s.y.U X.;.y.F D } R U I 2 = L A = *.y.-.D U +X;.Z %.#.L.F F ;.=.#.D =.*.s.F Z A y.;.D ;.L.` P.` G $.<.$.Z &.A.Y.6XU.F $.` N.#.Z N.U.N.$.Y.L.=.#.N.` H ` H &.&.N.K.I.Y.$.m.&.A.Y.N.N.Y.J J m.$.Y.' N.S.Y.S.J ] S.Y.&.$.M.;XmXY.J ' S.M.$.$.$.Y.$.m.;XN.m.$.H I.A.` _ L.I.L.$.<.&.` ;.&.s.&._ ` _ Z _ %.%.2.;X;X<.<._ } _ 7 U U } *.D I A D A Z *.7 } D <.-.s.A U 5 6 5 , I I f # O y : e d % # 9 + @ u X t X X B q X q + v B +   N 4.  + 0 $ d c X f e d O : : o n , < f M k f , < I , 0.L I L X.U y.D } 7 _ D s.t.- } t.= k l i n k x x e.g I X.< 1 L g O T < l , < Y < e e.. o % : n : $ $ o e o y w 9 w : e   f z   N 9 + 0   % e 0 B m X q X X X 4.q a 8 X 8 8 8 a a q q X X q v q a q q a a q 8 q s b 8 5.u u 8 4.8 + X q q 4.8 8 3.X 8 a 5.X 0 4.+ 5.4.8 3.q 5.X 5.4.8 3.a v a X 3.m b x.# 4.b s s x.s E s 7.E 7.L E P E 7.Y K E E 7.! ~ 7.E E E ~ K 7.7.K 6.K 6.p E Y L r.6.r.Y K 7.Q 7.y.~ Q K.K.! 7.",
"K s E Y E K E 7.K.J $.! B.K.K.Y.K.B.B.Y.Y.Y.B.m.B.! J m.J J G J B.c.c.B.J.c.B.B.B.B.B.J.B.B.B.B.J.J.J.B.b.b.b.c.J.B.Y.J.B.J.B.b.c.b.b.B.J.v.B.C.M.J.J.C.C.C.n.b.b.M.H.G.G.J.M.v.G.G.=XG.C.J.G.C.G.C.S.V.S.Y.$.H *.S P L L Y i > # p y # s m u s 5.s 5.8 6.4.4.v % j e b b M $ t m 5.y y 4.m m # 5.0 0 3.+ a e.5.@ b m b d f c m 5.M j 9.f < g l X.l 5 h L L R I - U U *.-.I I D U - Z I *.} D X.X.*.t.} U *.} *.A U s.s.- U L.*.A L } I I I L I R 2 L R y.D - F ;.<._ %.L.$.Z Z H F D Z s.-.#.- Z _ ;.&.#.;.A.<.&.F ` +XI.[ G <.L.8X$.H &.U.N.N.Z A.N.Y.U.$.U.;.;.;.U.;.H N.$.#.F &.F $.G Y.M.M.D.N.Y.S.=.Y.;XI.H ' N.B.$.M.Z ` J J G ` B.$.W G H $.Y.M.S.$.m.;XS.N.&.N.` I.I.A.I.;.L.A.8XP.I.P.<.A.<.<.L.A.-.#.%.;.[ 7 &.*X&X<.$.%.<.G D _ F } *.I 5 - 2 U U D D F F <.;.-.} *.I X.7 h 5 4 < % , % r b e o o X @ 8 # + t   9 + q X + % z X 0 q 0 0 t d 0 M t N $ % f % 9 y d o 9.e   & 4 T I 4 < g g ..< , = 6 5 7 I -.= { D D F %._ 7 5 I h 0.5   T . n < 4 l { I & & T l . l - T T 4 g O f m   w o % d f f k : % O $ e @ 9 9 .   0 $   t   + t 8 0 0 0 % t   X X X q q X t 0 8 X X X a 4.a v a q q q X q q q a q X 8 a 8 5.# s p 8 6.X   3.+ m 4.q 6.8 a a 0 q 3.3.q X v e.v a q a v 8 v q a a v + 4.m t w X e.s s s 6.6.s 4.e.6.Y Y E P Q V E K E E E P E y.Q y.~ 7.7.E 7.7.7.s Y K K Y 6.E 6.< Y 6.6.6.y.6.E Q 7.K.K.K.~ ~ ",
"K p E s K s 3 ~ =.! ! ! c.c.c.c.m.m.c.B.K.B.m.K.B.B.m.B.B.B.B.B.B.J.B.J.J.c.B.Y.B.B.B.J.J.J.B.B.J.B.H.B.B.B.B.J.J.B.J.H.J.b.J.B.J.B.b.b.B.b.b.b.C.J.Y.G.J.n.C.H.H.G.G.G.G.=XdXvXsXdXdXmXdXmXmXdXjXdXmX=X;XmXL.m.y.Q r.Y p Y i O y n 6.O Y Y Y b 5.6.4.8 4.X s q e M e M b n d b 3.@ m + 4.a 4.c q v   4.v m t o 5.m 3.b % +   e t T b l l l g T 0.L , l I l r.L 7 *.X.-.*.U X.*.*.C D *.;.} U U U *.D I U I } D D F } #.Z D } } 7 D T 5 2 2 2 5 - 5 - y.l.A D } F P.+X#.#.Z Z #.#.F Z Z #.D D D D } U F <.L.#.#.<.` &.%.<.H ;.L.A.A.- H U.N.$.#.G T.Y.;XJ Z U.` F W F W #.L.;.N.T.Y.K.Y.$.$.Z ` H ' ` ' G H I.$.Y.I.M.I.Y.Y.M.M.m.I.S.N.$.! &.! ' ` ' $.Z m.J Z C G ` N.H ` #.&.&.F A.<.I.;.;._ ` $.;.` ;.#.%.<.%._ #.<.;X+XI.<.1.` @.F } } D I U A 5 I 7 P R } %.} #.-.t.{ - I 7 { , l 4 , & ; % % e N d o   + w 8 + # t 8 q v t + + q t q 0 % N v 0 0 d 3.t M e % T e % w d   5.f   < k T l 4 k T l T L h L R O.L t.t.6 } { D } U.} F R X.T R l g 6.l 9.: x ..k 4 5 4 0.g ; R l X.R x l r M : O 5.d : : d % : e % w % t + @ y % % k 9 t f X c 0 0 0 9 q % 0   q q + v q X q 9 m 8 v 0 q a X + a a X q X q q q a a X 8 a X b s s ; ; s 8 a 3.  v 4.X v X v 5.4.q q 4.3.a a q v a 8 4.v v 4.a 4.a 5.a a m e 5.m s 5.s 4.s b Y s s Y K 7.K V E P P V 6.P K 7.~ K.Q ! E ~ 7.~ E K 7.E 7.6.K E Y 3 x.3 Y L R E 7.E L V 7.E 7.K.K.K.",
"6.n Y s K K K K Q ! m.c.B.B.c.B.B.B.K.B.m.c.c.B.m.S.S.B.B.B.Y.S.B.B.B.B.J.B.J.Y.c.B.J.B.J.c.B.B.b.B.J.b.b.b.B.J.B.c.c.b.J.b.J.J.Y.=XY.H.G.S.C.H.H.J.J.S.G.C.C.C.H.S.C.v.b.v.C.C.Y.G.Y.=XmXvXjXsXvXhXhXmX;XmXL.;.K.K.K.L L 6.Y > > p 6.: 5.p 6.p Y x.K b 4.s b m M c n b m m m e.5.# v u b s s 5.+ 4.0 3.m c s y 5.y y c c M y e.y M M : n k j l T 1 l 5 p P 0.5 I *.U U U U *.*.*.7 U X.X.U D I R t.D X.*.} X.#.} -.A U -.-.U U U R } 5 5 L 5 = T - A X.r.-.D #.T.<.;.} %.#.#.;.U.*.Z A *.A A D . U s.$.-.%.%.I.;.Z #.<.&.$.A.P.U.U Z ;XI.&.;.G S.Y.T.G $.` #.F N.T.;.$.N.;X#.$.K.H =.L.L.G ' M.I.Y.N.S.N.J N.G G C ' G $.&.M.S.M.N.N.Y.I.K.I.;XN.Y.Y.I.S.Y.K.A.H ;.A.A.#.' ` ;.;.#.A.<.;.P.%._ U.P.L.%.` _ %.` _ %.<.U.A.<.<.P.` 7 D _ } U Z A - 5 P } U D U U } } } } U U D { 2 I l I 4 , n z : $ % 9 f 9 % 0 9 9 @ X t 8 8 f 0 0 + v X v v 8 f   9 $ o + 9 t d   e e f 0.m e o : , x x x < k 4 T & < 5 l X.l I 7 X.I D } } } @.-.6 D 5 I x ,   l f , I 4 T r.{ x 0.5 0.; . T g l 1 1 , : 5.o   5.d t d f 9 $ % : e t y   + c X % 0 X 9 + X + % 0 9 0 0 q q + + X X d q X X X 8   0 a q 4.q q q q X a q q q X q a 8 8 X 0 s m 6.  m s 3.  X v 0 a 0 s a X X a q 4.q 8 4.q q v q q 4.s 4.a a q a a 4.a 3.6.3.m m 6.s x.s 3.x.4.6.6.K 7.P P Q P 7.K E V K 7.~ Q Q ~ K.P 7.~ E E 7.6.E 7.P 7.E P 6.K 7.s 6.L K x.R E K.7.7.7.~ E ",
"Y k Y p E 6.E K E ~ ! ! c.K.c.! m.B.B.m.K.Y.Y.B.B.b.m.B.B.B.B.B.B.B.Y.B.Y.J.B.B.c.J.).J.J.B.B.J.B.b.J.m.m.b.B.B.J.J.b.m.B.c.c.c.b.b.c.b.C.B.b.J.B.J.J.b.H.G.H.b.n.M.n.n.M.C.n.C.C.C.v.n.n.v.v.n.n.C.n.G.Y.Y.N.K.=.y.*.5 Y y.6.p ; Y i ; e.s Y b b s j @ 5.m b b b o 5.d y M w e.5.m u a m s 4.m t q N 3.8 9 5.b b # 3.y 5.t @ t 5.e m : 5.g k j p 1 L L h L 0.= U } U D I U *.-.} A } } U U } U U U A } } I D } } *.- 7 U -.U - X.R I 2 I I E = 2 R *.U U - T.8X} F #.Z - *.s.S *.#.U r.y.Z Z P Z } } F -.U.;.;._ G 8X<.G U.I.G T.G #.+X=.#.=.G +XL.S.* L.<.` _ ;.D F +XI.;.F L.I.S ;.N.;.I.;XH $.J A.&.N.L.I.H H $.L.N.<.' ` H &.` ` J S L.;.J ` &.' &.A.' N.A.A.L.L.A.A.U.N.<.<.;.P.;.` <.<.` L.;.%.%._ ;.%.F _ I.6XT.%.;.%.} %.%.-.} F D D 7 U I I I y._ U -.*.t.-.I - 6 7 4 I 4 l 4 . . l   9 e % X q B q X + 8 0 + 0 q + X N q 0 0 X t t % v X e v 8 e d 3.o f 9.f % e $ T < , n f T T 4 T < 0.g l 5 5 I 5 L I y.U } %.t.-.-.;.= 7 X.X.= r.< n T O j . 7 k 7 . 5 . T f , l < 5 l 4 ; O 5.r   c d e M 0 f f 9 v o d e   + a X a 0 9 t + N X t t 8 0 a q 8 q 0 X o 0 v + b c a 9 + 9 8 v t X q q q q q v q q a q q a X 4.4.8 5.s n y a m 3.v 8 X 9 # v s a a q q q q 8.q q 4.a 3.3.a v 4.3.4.4.X 4.v 4.4.O @ 6.b @ s 8 5.s e.5.K Y E P E P P Q P L P E P P Q r.P K.Q y.V Q 7.K E P E E y.Q 7.3 K 6.6.7.4.Y 7.7.p E 7.7.E 7.7.",
"; p Y b s K K s V K K.=.K.B.c.K.K.B.c.c.B.m.c.~ B.c.B.B.S.B.B.B.Y.J.mXB.B.B.c.Y.Y.J.c.c.B.Y.Y.B.J.B.J.b.b.c.b.b.c.b.b.v.J.J.J.J.B.J.J.B.H.J.B.J.b.B.=XH.Y.J.H.S.Y.J.S.M.C.n.C.C.C.J.C.V.J.Z.V.n.C.H.v.C.V.S.` H D Q U 2 L R n u n n ; n 0.Y 5.n Y Y 5.m 6.a m s b n j T y w y 3.y m 3.s m 4.m a 4.% e.3.4.b m y 5.t e.# 3.o M 5.5.o % y 5.< n n r j r T T 2 0.L D } *.U D U -.-.*.} -.*.U U D Z +.X.U X.-.U A -.#.-.S D =.s.*.X.} L 2 = T L L = L T t.A - Z U X.#.7 G -.#.;.L.U - - Z *.*.U U U U #.} S #.;.} G &.;.U.#.&.L.#.F U._ L.I.&._ $.U.U.N.%.G A.;.<.;.;.F L.U.F ` A.#.&.H L.! K.;XM.Z ` $.A.#.;.` N.$.Y.U.Z N.$.&.L.;.G Z ;.A.&.N.#.&.' ` Z H N.#.F ;.` #.$.;.L.<.#._ s.A.U.<.%.%.%.%.%.#.#.#.G %.%._ %.L.A.L.#.#.D F @.D D D D 5 A A A D U - X.- A +.{ %.D D 7 5 5 I T g M j % X 5.+ o % % % + B + X % 0 0 + % q 0 q v X 0 B % X + % d B X 9 % c % 9.. % j # j k b n g f x 4 X.T 5 l l 9.g X.I L X.R I D s.{ 6 D t.X.} { - 7 D R . 6.< g 5 g T < I O.X.6 T 4 T Y h g , Y X.g f j T : o c e e v o d $ f b   9 t 0 q v X q 8 9 8 X M   0 u 8 q q q q q X X 8 + d X w 9 $ c w 0 X v 0 q a X q 4.q q q X q v X X a 8 8 m O > b b 0 5.q 4.e.9 8 8 8 q 3.8 X q v X X v 4.4.8 a 3.q q a v 4.4.8 4.v 8 w u u w b s b 5.5.s Y s > E 7.P P V S L E P Q E P Q Q ! P P ! W V Q Q E Q Q Q P Q V E 7.Y E 7.7.K E E E E 7.7.7.E 7.~ ",
"b n Y K s Y s K 3 ~ K.K.7.~ ! c.K.B.m.K.c.c.c.K.c.B.B.c.c.c.B.c.J.c.c.c.Y.B.Y.B.B.J.B.B.J.B.Y.mXY.H.=XY.Y.Y.G.Y.Y.H.M.C.J.c.B.B.B.B.J.J.b.b.c.c.J.b.J.B.H.C.B.v.B.C.C.C.C.S.D.S.C.C.v.n.G.*XZ.n.n.C.b.C.C.I.$.;.A Q P 1 p > > > T ; i 6.p n Y s s 6.u 0.n @ b b 5.e.j 5.m # 0.m 9 s 5.t m 5.0 v v a 5.q b + 8 5.e y 5.y T @ e w M b : m d % : i j l i Y T > R P I } } D D } X.#.@.} *.U I 7 - = R U I D *.D A #.U } A -.t.R } y.R 5 2 5 X.5 L 2 A t.E X.5 *.-.A - <.=.} } U y.*.U - * A *.y.-.5 A *.*.U ;.L.#.#.Z ;.` Z T.I._ #.%.` P.<.#.F ` 8XN.U.Z Z +XA.$.-.#.} U.<.G G Y.;.F #.T.;.8XN.` G H L.;.;.N.F U.U.$.#.$.N.H &.Z G I.L.I.<.#.;.L.N.N.Z ;.M.] F ;.=.` ;.&.F F &.;.#.F.<.-.;.-.F _ _ } -.%.#.;.U.U.+XP.U.;.} -.t.y.s.s.U A I } 5 D 5 I I X.} *.7 } -.{ } 5 7 7 = g 4 . % 4 : %   b + % X B 0 + X q + q q 9 8 q q 3.q q + f q % X X e M t t & % m d d f f k f f < 4 f < f < k ..4 , 7 5 M & 5 < I X.R 6 I X.I D I l.t.D *.5 5 L T   9., g g k l = T x x 5 l k l g g g 5 k M = k Y e % o d $ d f % N f f 9 % o d c 9 4.X 8 X 0 +   c o @ w X q q a a q X % $ o m e 9   o t d c X t   q 0 X q 4.q q q X 4.q v v X q e.5.; s b   0 9.X X 3.X X x.8 X 4.4.q q a 3.a q 4.4.q 4.5.v 4.a a a v a a t a 5.b 8 8 e.s s s s 6.5.7.Y p E W E P P V Q Q E E E 7.P ! Q ~ Q P V 7.E Q P Q =.Q Q W P 7.E 6.E 7.E 7.6.7.7.7.K K 7.y.K ",
"6.j ; b K K s K K K E 7.! ! 7.c.c.c.7.c.! ! ! m.c.J c.c.B.m.B.c.c.c.c.c.Y.c.B.c.B.B.B.Y.mXB.B.J.B.m.Y.B.=XY.Y.J.B.Y.J.B.J.B.J.B.b.J.B.b.m.J.H.H.H.G.H.B.S.C.J.B.Y.H.S.M.M.C.C.S.C.G.C.n.S.H.Z.G.J.(.C.Z.M.M.F ` W U A h Y K Y 6.p > Y h i p > Y 5.p y 6.s y y 5.5.e 9.e M j 5.5.m 5.# v 5.5.8 s m 0 N 0 3.b 3.e.y 5.y a o d y b   9.w n e b d r p r k i l L T T y.*.*.D D -.-.} } I } D } D A D I X.I D -.I } -.} 5 } L.U I *.U 5 , 5 I *.> h 1 y.X.A = 2 *.-.- U U.I 5 L.U U U *.R U y.r.t.*.- U } D Z y.s.} %.%.` F #.I.Z } &.#.<.L.%._ ;.P.;X&.;.#.$.T.-.#.#.F } U.` &.@.U.;.;.#.&.I.K.C I.$.%.N.I.&.H A.T.A.F #.L.;.` _ F F ;XN.&.#.#.H ;.$.A.&.}.U.$.;.Z ;.P.} F } %.#.%.;.L.L._ <.<.-.1.#.#.;.#._ U.+XU.P.;._ #.%.U.} } y.P 7 D D I A X.I U 7 D I D A @.I = 7 = < x & I % & f : e N d d o N % % v B q % 8 B + 8 f 0 X v X   0 q t X N q v m   5.  $ 9 5.  M f $ 0.f : f n f T & 0.0., l l f T 5 T < X.X.5 A -.D - X.*.l.s.X.{ 7 X.I ..5 y.5 . z.< I I 0.I I k 5 ..l l j l f 5 l < T l # b + v 9 N e 9 m % % o m   9 9   y + + 9 0 % . & % . e 8 8 q a a q o f   . 5.e.T y w # o @ 9 3.  X a q + 4.X q 4.q q q q q X 6.a b s p # 6.+   v 4.4.a 8 t X 0 4.  q e.X 4.q q 4.v X 4.q q 4.a e.q 4.a a a s m # m s 6.s m b s 4.s m K 3 y.Q W ! Q P P L E E ~ P ~ Q Q E Q V V Q ~ 7.V Q Q E Q K.Q 7.E K.K y.E 7.7.K.E y.7.E 7.7.K ",
"Y s p s p Y K s K 3 K E 7.c.! 7.! c.c.K.! ! c.K.B.c.c.K.c.! B.c.B.c.B.c.B.B.B.Y.c.B.c.B.B.B.B.J.B.c.J.c.c.c.J.J.c.J.J.J.J.Y.Y.J.c.J.J.J.J.B.c.c.B.c.c.b.J.c.J.B.B.G.m.S.m.J.Y.H.V.G.Y.H.J.V.G.C.C.).J.Y.S.B.F N.*.K.Y E * . 6.b T Y p Y h n Y j i n 5.; 5.@ u u y 0.e T m m y d b u s c s 5.X 5.9.X m s 4.4.y 5.# M 5.m y j u # m 5.y 5.u b n r T y > Y Y 0.1 R *.} A D D *.-.D -.s.U #.U D I X.U A A I -.7 ;.%.} D } } *.R R P h L * I 1 g h L R R I 7 R t.5 Z y.A - Z l.*.A = I A y.y.L U U L } F - } L.} F %.;.$.#.+X%.#.F _ ;.8XI.P.H L.8XU.F F =.T.U.} ;.G } ;.U.#.Z &.;.<.U ;.$.L.` ;.H I.` &.A.;.=.U.L.*.#.;.F L.;.#.#.;.;.F ;.#.F =.H #.T.S.` H G #.F U.P.Z D D %.#._ s.P._ <.<.%.D %._ F D s.T.;X<.#.%.} G } s.y.U y.I D U - I U D X.6 I X.U I I t.D 7 4 l 4 x < < f < k M w 4.0 c 0 8 a X q X B + v v % 0 X X 8.X X + 8 9 X   0 c o X 3.  b u j e n f M . x T f M < 4 : I 4 R l 4 h 4 < g l 4 7 X.*.I I } } 7 } -.a.5 X.7 5 x 5 I   4 < < X.. T 5 l a.= x 5 I T r 0.; k , R 4 g k ; c o f o 9.% % : f & % r   . $ r : X       . =   . & % % o e # u a   <   T z.5.T 5.$ 5.o   d 3.9 8 v q X q q q v X q X 4.X + a X 9 u p % 5.o 0 4.e.v 8 # 4.X t 5.X 3.5.X q a v 4.5.0 a v t 3.0 a 4.5.X a 4.8 3.+ m 5.6.w 5.6.a @ m j > p Q Q Q P Q P =.P E P W E ~ ~ E y.~ P V E E E Q ~ E ~ 7.K.=.E Q 7.Q Q E 7.7.K.E 7.Q E E y.7.",
"p p s s p b K s s ; K E E ~ ~ ! ! 7.c.K.! ! c.! ~ c.~ c.c.c.c.c.B.c.c.B.B.Y.B.c.c.B.J.J.Y.B.B.B.b.c.c.c.c.J.J.J.J.J.J.B.B.B.Y.J.J.B.B.J.J.J.J.J.J.H.Y.B.J.B.H.B.S.B.b.Y.S.B.S.B.Y.S.C.S.*XG.Y.D.Y.G.m.S.Y.B.S #.*.y.r.l.Y 6.y.Y 6.p p k > 0.6.u b M e.s Y m   b 9.y 3.$ b 3.m b m 4.c v 3.b a a t 9 + 4.a w 9 m w m 4.t M y b y n 9.m f o y u   5.u Y k 6.I h X.X.t.D D I %.*.} *.} X.{ I 5 - D 5 L I U A 7 } } U D -.-.U L X.L h h 5 Y 5 5 2 I t.T A I *.R = U U U = U *.E A = 2 = R I - 5 *.*.y.U 7 y.s.F *.U.%.F } U.F L.#.Z +X8X<.G Z L.U.;.&.;.L.+X%.%.-.} ;.;.<.%.` P.<.&.H ;.=.8XF ;.A.N.G N.A.F &.U.;.F -.=.#.} %.F F 6X%._ F.#.#.#.F F 8XN.;.Z <.Z +XT.Z 7 ,.#.F %.;.s.} D U._ %.} %._ L.s.U.<.%.F ` <.<.#.} %.-.U *.5 = D I A I I r.R L } { L 7 D = 7 I T 6 l 4 4 g f % e + e   + v N B X X X q B N q X % + q 4.X X q 0 v 8 v 3.  m t N f 9.e $ % f c < % T % < k j x . & = 4 k I T I g 5 l = h I X.I - 6 I 5 t.X.y.7 0.< < I g I . T Y 5 5 L X.5 I y.R | 4 h T , ..& k 4 T 4 r j @ ; % d + T $ f 4 % & & k , < < . .   & l l T w.x ..x x f . b $ v b , 4 < 9.e.; r j j 0.b o o B X B X q q q X X v 4.4.X q X   4.m w : Y # b X v v 9 q s 8 3.m X q v e.e.a q v 4.v v X v 3.4.X a a 3.8 a 3.4.w 6.b a @ 5.5.b s u 8 6.Y i L L E K.Q K.W Q W r.Q Q Q Q Q E Q 7.7.7.E K 7.E E E 7.! 7.7.~ Q E ! ! P ~ Q 7.P y.7.7.7.K.7.",
"s b ; b Y b s K E s K E 7.7.~ 7.7.c.! c.! ! c.c.c.m.! c.B.c.c.c.B.B.K.c.c.c.B.Y.Y.c.c.c.B.B.B.c.b.c.c.J.J.c.B.J.c.c.c.c.B.B.J.J.c.c.c.c.B.B.B.c.B.b.H.J.c.Y.B.B.B.Y.B.Y.m.b.S.Y.Y.S.M.C.Y.S.G.G.G.H.m.B.S.N.W ;.*.R E Y > p n Y i Y Y n n p : e.Y b 3.e.# 5.w m 0.  5.w j c b e 5.e.3.5.5.4.4.s a m 8 5.5.a 3.e.t m m u 5.y b 5.w % e b b y s 5.j O j > T 5 L 0.D *.D D } } } -.-.I } A U I 5 R I X.{ t.7 } } *._ } s.t.7 I *.h 5 , T 5 i h = 0.y.I - A X.L 6 -.} I = U.y.X.L 2 L 2 I A 5 - I U } U D ;.#.} s.K.Z F L.<.G #.Z <.FXN._ Z %.;XU.N.%.G _ L.} ;._ %.s.#.#.A.L.F.&.s.#.%.U.K.F H ;.A.Z S.;.G ;.I.W F U.=.<.} #.;.;.Z F F.U.` #.*.=.=.=.$.L.#.F U.T.U D Z ;.@._ ;.L.,.%.} %.D ;._ G D L.L.U.*._ #.%.-.*.-.-.%.-.D X.D I X.t.I I X.O.U | | X.I 7 5 7 5 9.I j 4 g g f f $ f d N 0 0 v m + % X B 0 + a X X + X q q q X q v X 0 v $   % t w e 5.% e f k f j 4 T & x x g I 5 4 0.4 l I l h T l I = I R t.*.I } } *.s.X.t.D t.T 6 T , T 5 g x T 5 X.5 = I | 7 5 = g g % T g x g I : ; < Y s % < % n < 4 * . = & = .   7 . = X...w.X.| t.6 5 h .., Y f j : u <   4 0.r.r h g j T M b e 0 o X q q 4.N q X q X v X + + 0 0   6.u p y b e N 0 v a s X u 5.    v + 0 o a a a q 3.X e c v a 8 6.a 8 3.4.v s v u b u s y s 4.5.b 6.m s Y p ~ r.V ~ Q E ~ Q P Q y.K.! 7.P E K =.E ! Q ~ Q ! 7.~ Q ~ E 7.! Q ! P Q 7.c.E 7.Q Q P y.Q ",
"s 5.; Y Y p s m Y s ; K 7.E ~ ! ! ! ! ! ! ! K.K.~ c.c.c.! c.B.~ c.c.B.c.B.Y.B.c.c.B.B.B.B.B.mXY.J.B.J.c.c.J.c.c.c.J.J.J.J.c.c.c.c.J.J.c.B.J.J.B.c.c.B.Y.B.J.B.J.Y.S.m.m.B.B.S.m.S.B.B.C.N.m.N.S.S.Y.Y.Y.K.! A U *.I E Y R Y ; x.i r 6.: n b b b m y y e.# 4.m 5.5.$ M 9.T c M m u s w b s a s a 5.4.s u m 9 y y c m 5.b m s p m j M e.n d r w e.i u i i i h Y t.X.U 7 I } } U -.-.U S 7 I I D L I 5 7 U = -.} D U *.t.*.A R R L h < T 1 l L i l.0.R < 5 } I U *.Z * 2 t.X.I < = 5 5 R R R L R U U A *.s.} ;.<.#._ <.U.#.%.#.%.U.L.W ;.` N.T.L.N.=.- #.U.#.s.F <.<.#.} %.%.F F A.F G K.U.I.U.A.` G +X$.;.$.U.Z Z T.L.F #.-.#.L.s.F ;.;.} =.G S U.W Z ;.;.Z y.*.Z } } } F { t.,.F %.<.Z @.%.Z %.T.5X;.X.F #.F #.s.s.%.A 7 } A } *.D Z U A { U R I I R I I L x 5 I ..< f < N b : w % + % 0 f 9 8 X q N q t 0   v % 0 q + q X q q q 3.% m 0 % 0 9 n + w f o b T c < f l ..< 0.l = l < 5 r.4 4 I l 4 x k x < I 6 I D D } I t.I D 7 I 4 5 < < . k T O g I h T 5 A t.R 5 I l x k , T k g l l , , r 6.b j , . x g I 2 4 * - 7 - = -.X.t.y.X.I I L { 7 7 = X.5 w.g j . i 2 . T 0.0.j g r < j T T M f %   z q q q X X q X q X q X 0 9.b n > . 0.e c 9 X 5.4.w 8 s m 0 v v + a 9 4.q q   N a 8 y a c a t 8 4.3.q a m e u 5.b 9 m s s 5.@ 4.@ u i K E K.! K.Q ! 7.K.=.Q ! Q Q 7.K.Q E 7.7.7.E K Q E 7.~ 7.~ ~ =.Q Q Q ~ E K.7.! 7.Q 7.7.K.E ",
"s 4.; s b s > s 4.s > K 7.E E ! ! ! ~ ! ! ~ K.! ~ c.c.c.! c.K.c.c.c.c.c.c.c.c.c.B.c.c.B.J.c.B.B.c.J.c.J.B.J.B.B.c.J.c.c.c.c.c.J.J.J.c.J.J.c.c.B.B.c.B.J.B.B.J.B.c.m.m.B.K.c.m.c.m.m.M.M.N.m.m.B.m.m.! $.m.! #.K.R 2 3 ; Y 6.; e.u > b ; T M m a 9 v c 9 5.a a m m n 9 n d r m b a b s 3.4.c 4.5.s @ 4.w 4.e.4.5.4.c 3.3.w m y u 5.o o e b f o 5.u r r T g k = I X.I 7 D I *.} D X.*.D R R I h < I L 6 D 7 s.X.D D -.-.} 5 R L h k i L , k h I y.R I L I X.U I *.= - y.r.A 5 L 1 h 5 L A R I *.r.F - y.L.} ;.} _ ;.A.U.#.&.` U.;.U.` &.G N.8XY.L.#.F +XU.#.;.} L.<.;.#.G #.A.L.U.$.;.W ;XF F K.G ` U.#.N.#.L.F G 8XK.*.;.L.U -.#._ F.=.} #.W S L.;.F =.;.F _ U.X.D -.*.D *.P.-.D -.P.D #.F _ <.P.P.} _ F -.%.*.} D D F } -.Z 7 U X.I -.} t.t.X.O.I I L k x ..l k n % f % M m o % f e $ 9 f a c o q N % % + X v v + q v q 8 q q 8 0 X 0   8 + 0 N @ d N : f f 4 g = ..T < I T < 4 4 x T 5 T w.0.L , x T I | R I @.X.} -.s.I X.7 t.g , f , l k ..= 0.I L I L I X.- } X., < f j x g < 4 5 f k i e.;   h I l & 7 * . . Z *.t.X.L.} D t.L 7 7 5 D 4 5 5 l T X.0.< , k . 5 t.T l < . < r r T 5.f : 4 % 0 q q q X q q X a 0 +   t 5.$ y b p 0.u M 0 9 c # X s a X 0 c o 9 a t t a m 0 4.e v b t 6.8 5.8 v v a c a s c 5.m s 6.m 4.6.s 4.4.5.s K 7.=.Q =.7.E ! E ~ ~ ! Q ~ P Q V ~ E Q Q Q E ~ ~ 7.~ K.! ~ ! ! 7.Q ~ 7.m.P 7.=.7.r.r.r.V ",
"E K @ > K u u w K s K s 7.E ~ ! 7.! ! ! ~ ! ! ! ~ 7.~ ~ c.B.c.~ K.K.c.K.c.B.B.c.c.B.B.c.c.J.B.B.c.c.c.c.c.J.c.B.c.J.J.J.J.c.J.J.c.J.J.B.B.J.B.J.J.J.c.J.c.c.J.B.c.c.J c.Y.Y.m.! c.! m.m.B.B.$.$.' m.m.! N.P P R K K E n . > s 6.; 5.j n 5.f @ 9.M m 5.v 5.6.a 6.M 5.M e j 5.m c 5.4.y 4.6.8 6.4.u 8 5.v w 5.8 9 5.s b 5.@ 6.Y : k 9.9.f o d y n > r i l Y L L | U L A A D s.-.A } -.I X.I L E I 6 5 L D S %.} D _ -.*.I L L 5 L Y g g < i 5 R T R 6 A X.U 2 I T.Z *.*.t.= = l * T R x L L I *.*.U 5 +Xy.} ;.} F %.<.-.<.%.- ;.L.F Z #.%.L.;.U #.#.S Y.y.} #.-.U.F } #._ <.A.A.;.;.#.A U.Y.U.I.H &.&.$.%.N.;.;.-.U.Z ;.U #.} +X;._ <.F G U #.Z =.F #.=.=.- *.-.U 7 D 7 D -.t._ D U - D Z -.U.U.;.F F %._ %.*.} D #.U D _ } _ } L.-.-.;.X.U | D A I | 6 l 5 0.g , j f j % f m % : 0 e % 0 % 9 0 o % t X 0 B q q X X + q + X q q 8 0 8 t v + m X 3.d f j e M $ f T M 0.4 O f X.4 5 I I x 4 x I T 1 . 5 4 I A } I -.} D y.@.@.I 5 R f 4 5 % f f k . l < L = I } -.I L X.5 g l k T M & l x g h . Y : < < p r.I * * -.s.s.} *.#.<.} %.-.} D { 7 - = 2 5 5 h R y.g , 1 4 t.T.X.T L < 1 l i T T d < $   a q q q q q X q v q   + e.j   n 6.6.y m c + v N t a m m # c 0 t a a v + m 8 w t   t 0 w # 4.X s a 0 4.4.t a c m 5.# s s 4.6.s q a 4.O p E Q 7.K.! ~ K.K.K.7.=.! S Q K.K.K.U.y.Q ~ E E K.K.E K.7.Q 7.7.E =.7.7.Q ~ K.K.y.K.7.*.P ",
"4.s s u n i i : s 4.s s 7.~ 7.~ ! ! ~ 7.! ~ 7.~ c.! c.~ ! c.~ c.K.c.! ! c.! c.c.c.B.c.B.c.c.c.c.c.c.c.J.c.J.c.J.c.J.J.c.c.c.c.c.c.c.c.c.J.c.c.c.c.B.c.c.c.B.B.B.B.B.! c.c.B.c.B.c.$.$.m.m.K.J ! ! m.m.~ =.S P r.K p K Y p 6.6.; p 6.n 5.w m 3.d v c c m X 5.8 4.b j m e d 5.y s 3.b s b 5.a e.4.w 8 m 5.e 3.c t e.u m M r 6.T t M e O e e n : r j j p g T I O.y.D I I I } l.*.} D } D A 5 h I R 5 A I I X.X.D D *.*.} I I 5 h L p 1 i < , l T 5 X.5 A I A 2 6 L.X.-.P t.7 5 L = l I A X.I *.r.*.} } +XW -.%.<._ L.P.F <.<.Z $.U.+X_ Z ` U.$.F #.#.Z L.L.-.} t.U.#.;.%.N.I.;.` #.H #.=.N.U.N.Z #.I.N.N.&.U.H #.=.*.F L.%.U.- F L.P.%._ ;.;.*.S Y.=.#.U.S #.} *.y.-.} D -.s.-.} %._ Z %.%.L.<.#.%.<._ #.} _ - 7 #.-.I A } L.P.<.-.} } U } D D 7 L 5 I 5 x $ T & : f b j w e d % r % e $ f o $ % o % q   t c 0 X X X q X X 8 a v + t X t 3.  M   m n e r % M < M 9.T M % < 4 x & 7 I I I 5 R 5 T 5 5 X.l I 5 U L -.} { l.} X.- 5 6 x j f < l T T g 5 I X.7 I X.} X.= | < x g . l f < k T , h . T Y = 2 . = I X.s.L.#.} G #.#.<.` D -.} D X.A 4 2 1 1 5 < 0.r.X.- * 4 *.h.5 5 I < . r r T M n 4 4   4.a q X q v a 4.4.X 8 m 3.e.6.y T 6.; m %   t 4.m s a b o m X 0 X u w w 4.8 s 5.s 5.4.s w 4.s u 4.s 4.5.4.c b 3.5.u m s 4.s 8 s 5.3.s Y K Q Q ! K.~ 7.! Q ~ ! ! Z H W ! ~ 7.P =.~ E Q K.Q ! Q K.7.~ K.~ 7.7.! E E 7.Q Q 7.Q Q Q ",
"Y s Y ; n i s w s 4.K K 7.7.7.~ K.7.~ c.! ! c.! ! ! K.! ! c.K.K.7.c.K.c.K.! B.c.c.c.c.c.c.c.c.c.c.J.B.c.c.B.c.J.c.J.c.J.c.J.J.J.c.c.J.c.c.B.J.J.c.B.c.c.c.B.c.B.K.m.~ c.c.c.J Y.! ! K.B.! c.J B.B.K.K.~ m.V K Q E 6.Y Y s p 5.s n 5.; s 3.d M c 0 4.v m c 4.v 5.M d y T y M n m e.m m a s v s # 5.s t m y 0 0.t 3.w m y y 5.b d k k n 9.$ : e 5.r j 4 g L h I R A I I D R } 5 } X.I X.5 I L 1 h l L 5 D -.%.D _ t.D D A L 5 L 1 , ; j g , T R 5 I L X.L I X.L l L I U L = R I l 5 T L X.L *.} A } D s.D ;.} ;.F U.L.%._ _ G 8XU.&.` - ` I.U.L.&.F #.+XT.$.F ;.*.#.#.` _ P.A.L.A.G #.K.U.$.H G A.S.L.&.N.I.F F #.;.` U F #.7 U.<.G Z } S S W S =.Z K.L.Z U *.y.#.D I } y.-.*.D D } *.%.;.s.;._ F #.%.<._ Z D U U D } ;.s.t.s.%.@.*.I - { 5 7 = I 5 T k 9.< T < M % m d $ % r o e o e o d o 4 0 % 0 0   q 9 q + z X 4.8 a X a a + t X 9 d 0   5.o j % e % k % T T 4 T X.I & - 7 l I & 5 5 w.l l < < ..x I 5 | D X.- X.s.X.D = I k 0.f . f g n = T I T I L *.U I r.- R & I T , T T f g 4 * T > 6.l * = = U.T.X.*.L._ s.-.;.#.;.;.F } D - A A I I 5 5 5 g L r.R I 1 - R y.5 h R T h < i 0.T j & < o m b 4.a q v q 4.3.8 b m @ # u y Y n 5.d o b 0 + 0 + c 4.o 3.e 0 + 5.8 s 8 s u 8 c 8 m b X a s 5.v a e 0 b c b b w s m u 4.Y b a x.3.s s K 7.7.7.7.~ ! 7.c.! 7.K.! ! ~ =.P =.! y.Q Q ~ Q ~ K.! ! 7.! K.~ K.! Q ! 7.K.~ 7.=.P P R ",
"s u s s 6.s 8 s s Y s > 7.7.7.E E W ~ K.Q ~ ~ ! ! ~ ~ ! ! c.7.K.! c.c.! c.K.c.c.! c.c.c.c.c.B.c.B.c.B.c.c.J.c.c.c.J.J.B.B.B.B.J.B.c.J.c.B.B.b.c.c.c.b.c.J m.c.m.B.J ~ m.H m.! B.~ c.m.B.J J c.c.m.c.! ~ ! K P P E 6.p 6.i s 6.K y T M d b M 9 N 3.y w m 4.a 4.5.m y d 5.9 f m c 5.c 5.8 c e.# 0 r M w m y w b c y d N T t r M w M f N d d m . 5.: . M < R r.< t.I r.I t.t.2 -.L I = 6 1 I I = L 2 L 1 I { F D | U R T L L L h . < 4 L 4 6 y.L I A L X.L I I 7 * r.< I T = 5 l 1 I X.1 I I X.U U - -.;.I U *.D *.s.-.} Z D L.L.P.F Z - L.U._ %.L.#.L.L.S } ;.L.#.s.#.} ;.}.P.$.<.;._ &.#.F #.$.$.G ` #.A.#._ ` #.;.*.-.=.*.-.F G #.U.U.U.L.K.G *.U.K.S W #.*.*.D D X.-.-.U %.F Z } U.%.#.s.%.} %.;.%.Z 7 _ %.D Z ;.s.U.} -.{ } F I I 5 6 I 5 I h = T . n k j : j o : e % : e O f f X + + f o m 0 9 % + + q X 8 a + q 0 v 0 v X % + t o o v   T M $ $ 4 T . 4 T I < I 5 & = 6   R X.< l l O.5 T = = | < X.. { D D L X.L | 5 4 X.M 0.< & l k 0.4 T 5 6 X.2 R t.7 X.= 6 4 4 I O T Y > Y T L , < < = Z Z #.T.L.L.s.U.F U - _ -.} -.- 5 5 7 X.A 5 - - X.L A = X.R E L A *.y.I I R Y ; L Y > k k 5 R T r r j r # 9 9 u m 4.e.6.X 0 5.% r d % :   w w 9 y @ d # @ 3.+ + @ y b # y 3.y 0 c e 9 0 e o m e m t 4.y 4.u c 6.8 4.s m 6.5.s 6.s 4.s Y s r.7.Q K.! m.=.! Q ! K.S ! =.m.G N.W Q K.P ! P P ! m.K.! Q K.! W ~ ! 7.! K.V K.r.V 7.R ",
"K s s ; s s K 4.s K ; ; 7.E K 3 P Q Q W Q ! ~ ! ! ! c.K.! c.c.c.! ! ! ! ! ! ! ! c.c.! c.c.B.B.B.c.c.c.c.c.c.c.c.B.c.c.c.B.c.c.B.c.c.c.c.c.c.c.c.c.c.c.c.B.B.m.J m.! m.! C m.! B.m.! G c.m.B.B.J c.c.c.Q =.P U E A Y p Y i n 6.b 5.y m y n m b d 5.3.w b w t 5.b y m t M d e c w e w + v 5.a 0 c u 5.: w $ u T y 9.b 0.c $ : n d c $ c % d M % < j l h 5 I R 6 y.5 X.2 I X.7 r.I L I I 5 5 1 , k * L I X.F D U } R T Y i > i k k T 4 l = 5 X.D I D } *.7 5 L L 5 6 < I L , h 5 = I X.I R U R X.I 7 } *.} } -.} *.L.F } %._ A.s._ ;.<.F P.;.-.#.} G -.#.F #.;.;.Z ;.U F #.;.A.$._ $.` C F ;.U.;.;.A.A.%.<.$.#.#.$.} #.;.#.` Z U ;.Y.I.N.$.;.N.;.-.W A S *.y.F U -.} X.t.-.y.D U -.;.-.s.} G } %.<.} - G %.7 Z <.s.U.s.-.D } } U I I 5 L D R I L l , R < , < O : r $ : e e e f o $ % o 9 $ 0 o f % + 8 q + 0 0 8 X X + % 0 8 t X B e 9 + t M o c d + o < x.4 & & l T q., < < < < I | g x L I 4 x = I { I I 5 U *.5 -.t.I 5 = < T = x < i I T T 5 R I L I 5 I X.- I 7 | < 4 g ; n r . p h 2 - A } %.<.#._ L.L.P.<.-.=.-._ } #.A #.Z A A 5 U 2 5 2 A U 2 V 5 Q U A 2 R } 2 A 5 T h p p h L R Y Y X.Y g p > r o r u w t 5.a a 3.b 9 v $ i 6.j n   O   o t # + 0 9.9 w # y 5.u n t y e d m e c c : 5.d + a 3.  e.b w s s s b s 6.4.4.4.u s s 4.s E E Q y.W ~ ! ~ ! P ! J H =.! #.K.y.! V Q 7.! K.E ! Q =.! ! ! ~ K.! ! Q K.Q y.Q E E Q ",
"; m u ; 4.s s K s s K K r.K E E E Q Q P K.~ ! ! c.K.K.7.! K.K.c.c.! ! K.! ! c.K.c.K.B.c.c.c.c.B.c.c.B.c.c.c.c.c.c.c.c.c.c.c.c.c.c.c.c.c.c.c.c.c.c.c.c.c.m.m.! ~ m.! ! B.! m.! m.! ! ~ B.B.m.c.J ! ! ! ~ ! W E E p p p p s b K u e.o M j 5.d 5.e M 5.t 3.b 5.5.9 c 5.t b 9.c m e t e.v 4.4.+ t d $ j d : Y e.5.w 5.  n : n f r e m f m o % d b 6.k T 5 l k I R t.5 *.I I X.5 I 6 5 L 5 5 < = 5 I 2 L U *.I D D L { X.Y p h i i L T < 4 7 I X.A A A X.X.A I A l 5 h k I , 5 T h I X.h L A I L -.X.D *.D } U } *.s.*.X.#.#.#.*.#.%.;.%.Z U.s.-.F #.Z ;.} #._ =.;.#.-.F %.L.<.<.&.G _ ;.;.T.L.H C ;.$.A.&.N.H ` #.;.;.W #.F } Z *.;.$.C G - S D ;.U A G y.S #.- U } *.{ F } - A #.-.;.*._ D %.<.@.} D D } %.F #.s.s.s.-.F Z A I x A | 5 I 5 I I 1 g 5 T f ; g r j . e j n j % d d d o % $ % $ + t 9 % X % + 8 q + q X 8 8 + X % + t t 9 e d m 9 d f % f f 0.l x 4 g I X.. 4 = , T { 5 < L I g 4 < = | = I 7 5 5 w.I I 5 * < 4 l 0.T k g 4 l I 4 = 4 X.5 7 I U } 5 D 5 x   I k 4 I Y 5 ..X.D } -.#.#.%.<.}.;XA.#.#.<.} D D U } U *.X.5 5 A I - 5 A U *.A A A U E P V X.*.= P P R Y p p 1 R Y Y L R i k Y ; w : r b w X 4.v 8 t v c m T w %   9.Y 5.w + c t # m 0 + u u : y # d   e o d N 0 c   m m m c y c @ 6.t 4.m s s 4.s 6.4.6.4.s s m 6.Y 6.E *.U.K.! K.W K.Q y.! G H C ! ! Q W P 7.E 7.! y.Q S K.! Q K.! K.! Q K.K.K.y.E 7.7.6.",
"u Y ; b 5.s s s s s s K 6.K E E L ~ Q ~ ! ~ ~ ~ ~ ! ~ c.c.! ! ~ ! c.! ! ! ! c.K.! ! c.! c.c.c.K.B.B.B.c.c.c.c.c.c.B.J.B.J.c.c.c.c.c.c.B.c.c.c.c.J c.J J ! J B.c.K.! ! $.H ! ! m.! B.B.K.B.! ~ c.c.! ~ ! ! Q K Q L p Y Y K Y 5.5.j $ r 5.$ j e @ u d c 5.m 4.s @ b m e e 5.e b t t t X 9 3.c 9 3.3.# y   m 9.d j 5.n x.: : r M f t $ N t % e j 9.j k < h 5 I X.U - | X.} t.E I I R X.5 I L l 5 L Y 5 I X.D D D 7 I L i r Y g O < j & 5 5 X.X.6 - D } I L | R A = = L 4 = I M 5 5 0.5 5 7 X.R t.U } @.Z D 7 A } K.} #.F 7 <.<.G -.-.} G T.;.#.F #.F s.$.-.#.#.s.L.;.F #.P.$.#.<.` F ' L.=.G F ` $.&.L.L.N.} Z #.y.s.;.=.} #.F ;.U.N.` U.;.;.D ;.*.A U K.- D - *.X.} } D D D s.s.*.F s.#.} a.*.} D Z F } } s.g.;.D 7 I D 6 D A 6 5 I 5 l 7 , 4 < 4 ; f g % r f j o : f M c o $ : e 9 c % 9 $ f t 0 N X 0 q + + X N X q 0 + + + q N z e c 9 d c m $ % x % : & 0.T x 4 g = 5 5 g w.L 5 , ..T I k 5 l X.l r.X.X.5 A R L | 6 1 5 x T   . = O Y 0.T 5 g X.1 7 X.X.X.| 5 T 5 & T T 5 l I = } *.D ;.s.s.P.` &.U.L.<.F } -.F Z U U U U L I 5 5 I X.A A 7 U X.U P A V R U 2 - P 7 - A L 1 * 2 ; Y p 1 L 6.2 k T < p r r Y u u 5.6.m o t 3.e t d y : b % # $ e # $ X 3.8 0 b 5.r u u 5.c M e 9 m o f # + M c m 4.@ c 4.8 5.4.8 s s s Y s 4.Y K s s Y r Y L P K.K.! ! S =.! ! =.! N.K.K.=.=.U Q Q ~ Q E T.K.~ ~ E W K.S P Q W 7.K.7.y.Y 7.7.E ",
"s 4.8 s 4.8 s s s s K s p K K K V V =.~ ~ ~ ! ~ ~ 7.~ ! ! c.c.c.c.B.c.7.! K.K.c.! ! c.K.c.B.B.Y.B.c.c.B.c.c.c.c.c.B.B.B.c.c.c.c.B.c.c.B.c.c.B.c.c.c.J ! c.c.B.! c.! B.m.! ! B.B.! c.c.m.! J J B.! ~ ~ ! Q E 3 K K s Y K s b b Y : : 5.y 5.9 m @ a @ 4.b y ; w b 3.0 m t m + t b m 5.6.t v 5.u q y : 0.c 5.t % y 6.9 $ d m r c n f 9 % z % j j n T k g l h X.R R - I X.L X.| I R L l 7 1 5 I 2 < X.2 L X.D 7 D 7 R T 1 i T 6.p g x 4 h l U I I - U X.5 A I I l < 5 X.4 g T 2 6 I X.< 5 R X.} U - t.*.F -.} } s.s.} } P.G L.;.F <.<.%.} L.;.#.#.%.#.;.;.%.;.;.%.=.} F #.U.A.<.;.- F I.#.G A.N.G ` F G H G U Z ;.L.} =.F D Z A F -.;.#.#.W #.- U R F P U A } - } *.7 { F 7 U.U.*.} #.-.;.s.} D } 7 _ _ <.;.s.;.;.X.7 D I D R 5 I 5 5 x , 4 = & 4 4 & r n f o : f M j o e f d $ @ % o f X % X +     v X 0 e 9 9 + v   9 0 9 % 8 0 N f 9 f % : c k % j j & % = x l ..L 5 ..= k 4 0.7 T 7 k 4 5 5 4 l l 6 5 7 1 I X.l.5 = , X.T 4 g < e.T & I T x l X.T l A X.X.I T 4 k g T g L I I 7 = %.U.;.F.<.[ _ <.` [ %.<.-.%.F F A } U I 7 2 L I D U U A A - A U U U A A U U - - D R A L R L L p * Y > , L r.5 < h ; j : O y y u m m b 5.b w e j b 9 d 5.5.u w M 0 c t % X X 9 s 9 @ b b t t 0 b X M + c $ c w w 5.t 9 c b y m u b s Y 5.b s b Y Y n Y ; L R R y.=.N.=.! =.=.! ! W $.K.K.$.=.*.V W Q P K.K.Q =.Q P ! K.Q Q Q W E K.E y.6.6.y.E ",
"s Y 8 s s u 4.s Y s 4.s p 7.E E K V 7.Q Q ~ ! =.! ! ~ ~ ! 7.c.B.c.7.c.! ! c.K.! ! c.c.c.c.B.c.m.c.c.B.B.c.c.c.B.c.c.B.B.c.c.c.J.c.c.B.c.c.m.B.B.c.c.J ! m.B.! C ~ ~ =.K.B.! m.B.B.B.m.c.c.c.c.K.K.m.c.K.7.! V E 7.Y Y Y s K s Y u n y m b Y y u 5.w m s m 9 8 b x.c M t 3.v d c m y a 4.4.s 8 4.5.M w o T c 5.e 5.9.5.0.m % f : d 3.f m $ M j j 6.j l h I X.X.r.I | U 6 X.U 5 5 6 L l < 5 0.I l r.5 U R A 5 L D 5 5 < , k h , 1 T g l I I 5 I - } U A I A 5 5 5 l R , 5 1 . L R I 2 5 X.R I 5 5 t.} 7 D D *.-.*.D D } - s.<.Z %.;.} F <.;.%.-.;.#.%.<.#.&.-.%.#.#.-.<.;.%.;.&.Z ;.N.G A.#.F L.T.#.#.;.F #.Z ;.y.W r.Z U U #.#.$.#.` Z D } D -.U.*.#.C U -.A } X.F U _ -.+Xs.-.y.*.D { F } %.Z Z } s.l.#.-.I D D } I D 5 T < T h 5 x 5 g < & , < $ l M M : f $ M e % j o e f m d X f d v % % 0 0 m + 9 + 8 a t 0 X e 9 0 q B d N f % e f f f $ % M n M n j : , n T l T < < T I 5 T k I l x < , g 5 R X.h I X.R I 7 l k { 4 5 l < : 4 4 e.T T g ..4 l x L 4 < 5 4 g 1 T 5 L I Z 7 -.F.F.%.<.1.%.] _ _ %._ %._ G D D Z L I R R R U I P A D A Z D D *.U F P A - A Z A A I I 5 Y 1 i L > L 1 5 h R 1 i L h R p i Y Y 5.6.m s b y @ + d d e # 8 9 e e d o m % + 9 c d @ w w b w m 9 c m t + d d e c # 3.e 5.t c 5.s b u 5.s 5.5.5.s 6.b s s y . p E L K.=.=.W W =.=.=.K.=.! K.y.N.K.y.V Q Q W K.y.W K.=.W =.K.y.=.Q P E 7.y.y.7.7.6.7.",
"s s s s 4.s 4.s s s 4.K s E 6.E 3 E P 7.=.~ ~ K.c.c.! ! ! c.c.K.7.c.! K.! ! c.! K.c.c.K.c.K.c.B.c.c.B.c.c.B.c.c.c.c.c.B.B.c.c.c.~ c.B.c.c.c.! J J ! ! J ! m.m.! B.! m.m.b.~ ! m.m.B.m.m.c.! ~ B.c.~ ! ~ ~ ~ V E E Y Y 4.s s s s u y w s b r s @ 5.i 9 u b s b + 0.m d % 3.M c t 4.b 0 s 4.6.5.a # b m y c @ b d 3.j o M n w f d 0 5.c 9.M c : f l < g 1 T I R X.I I I I *.| I l I R L 4 g 5 l 5 R h X.I 5 5 I I 5 5 l k Y Y g < k 6 4 X.I 6 I 5 X.A I X.L 6 5 h T l I 0.k 1 T I R 5 I X.X.R L X.s.U 5 D D -.s.%.F %.#._ <.<._ P.%._ F L.-.%.#.#.%.s.<.#.#.#.;.#.G <.L.%.;.%.F G L.<.&.L.G F #.F Z *.%.U U U =.*.U ;.F } U Z } y.A #.D F } D #.-.} *.A *.*.X.*.s._ D } l._ } } *.D } D D -.} 7 -.g.6XL.} s.} A D R R 2 < k < k h g x 4 4 < : % < % f l f e m o d   % M   e $ M c X % % 0 + X q X z 8 % + X e v % 8 v + % % d d f f e 4 j b % o $ k d M f j < f x l l 4 h 4 r.g I < x k x l , , = 4 x 5 4 < | X.4 5 , < 0.4 4 4 M < < x T 4 4 < g | w.0.| X...I X.Y T g h I 5 D _ s.<.1.&.V.F.[ _ ] %.%._ %.} #.-.} A 5 D *.X.X.5 D L - D D - *.*.=.*.U P P 3 Z U U A I U P h A 2 2 p h L h > Y 1 1 1 i T p > > b b s n b @ n x.5.  % c X t d M m 3.9 d   m f m o u w 8 w 8 5.q m M a 0 c X m @ $ 9.  3.m O M j c u s s p s Y b 5.p ; b p j i T 2 y.=.=.! #.! =.=.$.! #.U.L.N.;.W #.r.P y.W K.! #.=.*.K.y.=.=.R Q Q y.y.y.y.7.6.6.",
"6.s s a 4.@ b s 4.s E s Y K E s 3 K.7.~ Q K.! =.~ 7.K.K.c.7.! 7.c.! K.K.c.! K.! K.c.! c.c.c.! m.c.c.B.c.c.B.c.c.B.B.B.c.c.c.c.c.B.~ c.~ B.=.! m.B.c.c.~ ~ B.! m.J ! Y.B.m.! K.B.B.K.K.m.m.B.J m.! c.c.~ ! 7.K E s K K Y ; Y Y b b y Y n 5.@ n u y 5.s b b u 6.y t 3.c 8 M v v m X 8 4.a a 5.4.a 3.t 5.e 5.5.e d $ m j j b M n o 5.9.: N 5.j d T j g I I r.I X.X.6 I X.X.X.L T } { R , L T = 5 5 T A R 7 7 A I I l 5 g h h T j ; T g ; X.h 7 D 6 l.A L *.L I h L 0.& h I 1 I X.l T 5 L I X.A 5 } -.D U } D y.*.} #.D 7 L._ ;.<.&.Z } %.L._ <.%.#.#.U.#.#.#.<.L.} %.P.<.#.<.-.Z _ ;XF L.<.#.$.U ;.#.y.} S A *.*.U y.t.A D *.U } *.Z #.} *.*.} *.7 R *.U r.} *.I -.D -.U.-.} U -.D } } D U } 5 } l.U.D A 6 } 7 I I l I < i h < n k l g 4 < & f % , < f N % : m o M e @ 5.t 9.+ $ $ M t q f 0 % f + + X 0 v 0 X 9 X t N   $ % d f $ : k f f f f : f T % j < x r T 0.f 7 k 4 r.T g 4 = X.T T l L I x T I 5 X.. I r.I 5 4 < 0., f < n , O ..M f I I x k I x 5 X.T 7 l = R * 5 U } ;.<.` _ ] %.G %._ %.G _ D F #.#.D D } U D U X.} } - U R A Q } D L.y.#.-.;.*.s.P *.y.} L R P U 1 r.L 2 2 1 R L 2 I L 6.L L R Y y s Y 5.O b 5.o O b : t c m 9 % t v 9 $ v 0 m c X 0 3.  w y w w 0.  t b b 5.b y e c w $ d b 5.# m y s b b 5.5.b Y 5.Y p ; 0.6.6.; I 2 S W y.N.#.H U ! =.$.` N.N.$.N.=.W K.U =.L.L.$.=.#.W =.=.W y.S U E 7.7.Y y.7.6.6.",
"4.4.s s 4.4.a # s ; s K Y Y K Y K ~ 7.E ! =.~ B.! ~ 7.K.! ~ ! W 7.! ! K.~ ! ! ~ c.! ! ! B.~ J ~ c.c.K.! c.c.c.c.B.B.c.B.c.c.c.c.m.c.! ~ B.! ! B.! c.m.K.! m.B.J ~ c.m.m.J c.Y.c.c.~ ! c.c.m.! c.! K.m.! ~ 7.P E K E s ; Y Y u 5.4.  6.5.6.8 n b u y u n 5.y e.@ t m $ t m 9 9 v d 9 m y 5.s 4.x.@ M y m d b b : 5.d j j m y r j e M 9 N b f j f j j 1 T R X.T X.y.5 R 6 L T 5 T X.x 5 < T , l 5 5 R R 7 L l I I 1 < k = g l r , T l = 0.= { l U { U I I 7 1 2 I L < l X.. L } L 5 5 X.h E 5 - X.*.I A D } s.} } -.D D P.*.;.%.- -.@.<.s.<.F s._ ;.<.&.} $._ #.#.<.L.-.#.-.U *.#.L.Z &.F L.;.;.=.-.U U U *.y.P *.T.A U } I U U #.A F U X.} D X.5 U U U *.X.%.I -.} s.L.D %.*.+.Z D } t.D I X.*.*._ D 7 A 7 L 6 5 < 5 < i Y Y g j & T % % f f l z % N % N 9 d o N e % d o % 3.f   N x.v 0 0 B + X % X t + X 0 a   9 % e % e f f : f f % : % k r < T b n j T f M < < l < O...L , < < l l x . T I g k 5 x l < l.< , g M l 9., < : 4 l < f ..g l g x < 0.k X.T R 6 I T R - *.;.y._ F _ P.;.<.%.;.;.F #.-.} F #.#.} D -.A D } -.D %.- } R U t.P } 7 U F D } S D D *.U - * L R E L L = 2 E 5 L L L r.R 1 h L 6.Y i Y s p n b y @ b x.5.t 0 c X + q 0 0 9   v 0 v f 9 3.9 9 b t 3.y X b c m 8 5.b 9 4.# y a m e 0.t b s s s s s s Y w Y m s 5.s 5.n p L U y.*.$.F =.$.m.N.$.W N.&.H I.N.H $.$.;.W N.N.&.N.K.;.L.L.y.=.U R R r.R 7.Y 7.E ",
"s 4.4.4.s b s u w s @ s 6.K s E 3 K 7.Q ~ ! ~ K.! ~ ~ c.Q ! ! ~ ! c.! ! ! K.T.K.c.! ! ~ ! ! B.m.~ c.B.c.c.c.c.c.c.B.B.B.c.K.Y.c.J ! K.! B.~ ~ ! ~ ! c.K.J ! ! ~ c.B.B.B.c.m.Y.c.! ! m.m.~ ! ~ c.~ c.! ~ ~ =.V 3 3 K E Y s s s s b m @ 6.b s b @ u w u r Y m 6.b 3.3.f 0 y 0 0 5.t v c a 4.s X 6.e b 0 t c e c o m y y n T b y w $ d o $ b d   n r * & I k 1 - X.X.= t.x X.X.I 5 k l 4 2 I = 5 , D +.R = 7 g L T 1 5 5 g j ; r n 5.x & T l *.A R U U L D 2 1 5 T I ; I t.h 5 , I T I L X.X.I I X.{ A 7 D -.s.t.#.%.<.-.U.,.-.#.%._ Z #.;.;.%.;._ s.-.%.} ;.#.;.<.<.$.*.%.;.D F F -.G A.` ;.#.;.;.*.F F U *.*.U *.*.V U P D D U *.A D D #.R D } 5 R D U } *.X.U <.s.s.-.} D { D D -.D 7 A } T.-.D { F 7 I I I A 1 5 l Y k T k ; : f T 4 x f < $ z < c 9 z f f o $ d d d e % 0 $ 9 8 d + 9 X X q X % X 0 0 9 % 0 + t 8 : y j f < % f j f 4 : 4 4 & n < 4 b T . < l t.T & L I 5 < x l T T I . x , < l 7 k T l T & x x l & l < f : l k & < | T x l k 4 X.6 O.< w.X.7 5 = I X.U -.;.-.#.<.;.;.*.#.G D *.#.U *.t.} U _ #.} #.-.=.D -.U *.R A A - A - D D A U 7 Z A U - - 2 A L 5 E r.R I L * 2 L 1 R 5 1 Y Y h , < 5.T w b Y n u b e.9.o X f 0 B X 0 % N 0 N o f m v d u t c 8 b m 8 y 9 c s 4.9 b s # w M e o m t w 6.# w s ; @ 5.s Y Y Y Y s b y > T y.K.=.=.! m.=.=.$.$.m.Y.N.M.U.&.#.F N.;.$.&.I.$.H N.K.N.;.y.r.} *.U r.E y.7.6.7.",
"s 4.4.4.8 s @ u w Y u 5.6.K s 7.K K Q ! Q ! ! K.! ! E ! =.=.K.! c.7.7.! ~ ~ 7.~ 7.! ~ ~ ! ~ m.! ~ c.K.c.! K.c.K.c.c.c.c.~ c.B.c.J ~ ~ ! m.! J c.c.! ! B.! B.! J B.m.c.c.c.J c.~ c.J c.c.! B.c.K.! B.! ~ ! 7.~ E E K 6.6.Y Y Y Y m 5.s m 4.b 5.y Y c m y b b r c 5.v v d d v t m a b t 5.a 5.8 a m v   v d M m b e.6.y b n n 6.5.N d b d f 5.: k 6.I h T I I I y.U 4 T.T w.} X.6 L I 6 L g < g I < -.I 5 5 h L I L I 5 R T , j Y k l 5 l L | A X.R I P 5 A 5 k T h < l k h T 5 l I I 7 X.R U X.0.U 7 6 } s.y.s.} } } s.U.} } %.-._ } <.;.-.s.#.#.U.;.#.#.-.} #.s.<.#.<.-.-.U D U ;.<.U.` ;.` y.=.W U U *.U R R -.U 2 *.I I D X.*.U } } -.} A } U U } y.U U %.+.y.y.s.} } Z } { D *.7 = } y.l.} I A 5 7 6 5 5 7 < < < k 4 T k : f l M T j n O f d e e e f f v t o m N $ v t + 8 v +   + N 0   v B 0 + B 0 0 + o % t % e m n 4 < $ 4 n l f 4 < l < x x Y x b g i T h.| l k l < * 4 f T T R < Y g l k 6 I I T ..l M j f % f f z & x l x I f x T x =   t.0.I | 5 = X.A = D } I -.%.*.U #.} _ U y.*.-.U -.y.-.F U F - Z #.-.s.-._ _ U L - 2 - 2 L I #.A D =.P A - U P - L A 5 5 *.R R L 5 2 2 5 = T 2 R T 1 Y 6.Y n n b y y y b m t % % X 8 v q X N 0 4.0 d X c 0 v d 8 t m t y b s 4.4.y y 6.a 5.t a c y a y m a 5.x.w b 6.4.4.6.6.5.6.5.6.b 5.w b 7.R r.y.N.K.K.K.m.! ' M.S.M.M.m.$.A.m.N.m.&.M.Y.M.! A.K.m.! =.U U U U 7.L 7.y.7.6.",
"5.s a s 8 5.# @ 8 Y 5.7.s Y K s K E E 7.~ Q ~ =.~ 7.~ ~ ! ! K.S ~ ! ~ ! Q ! c.~ K.! ! m.! ~ m.c.! c.c.c.c.! c.K.B.c.B.B.B.~ c.c.m.! ! m.! ~ ! B.! ! m.! ! m.c.K.B.c.~ ~ J c.c.c.m.~ ! ! ~ ! c.c.~ ! ! ! ! ~ V V 7.K p K 5.Y s 6.w m m s s b s y b b m b n 5.w M 0 0 v t 0 v c t 3.4.# t 8 6.4.q 3.a % + t @ w   b n u b y r b : 9 o z 0 e f : % j , < 5 I h 5 I | = X.A I L h k X.5 . = 5 k , l - t.L h h I l l l 6 < h i j j < l 4 l x I I L -.I D X.L I 1 I I h T I < 1 h.I L L l L r.I A X.*.*.D U -.T.*.y.} I Z ;.-.} } *.F F } L.#.} %.Z -.T.;.F } } G #.s._ -.L.#.I U U S *.;.;._ =.F #.U D U U -.U A *.r.I A U A L A U U U *.*.} 6 7 I U U U L.U I } *.L.;.s.-.X.7 } D - D 6 *.s.y.} U D 7 I L D 5 < h T Y 4 k ; k r : 5 4 M $ M . f % f f % t t e M N   c %   o f +   a 0   + v + X q X 0 B t + 0 9 + + e o r N M % , 4 $ n f < r O M f . n 4 < . r f , ; l X.I 5 4 < l 4 l l n O 5 % , l 5 M = j 4 j & % < % < , : . n x l x x T 7 , 6 4 X.I 5 X.4 L l.-.y.#.y.#.-.D ;.s.U.#.U Z *.U F *.D - F } #.*.Z t.L.*.%.F Z Z D A A L 2 Z - - A A - D 5 U 5 U 5 2 U 5 A E R L A R L L 2 L L r.* 2 j < n 6.; # u O u b b c m f 3.v + 8 0 + q 4.t 0 8 f o d   v 0 $ 8 c v y a u 4.m @ 8 m 9 y + c y # m a 5.e 3.m w ; b s b s ; @ Y m s b u y 8 Y 2 P *.K.K.B.K.K.B.B.N.m.M.m.S.A.B.L.$.$.$.B.] m.B.U.Y.T.Y.T.=.=.U R Q P 6.x.6.7.",
"e.a s a c 5.8 8 s 6.7.6.s 7.b s E 7.7.=.E =.Q c.~ 7.! ~ 7.~ m.~ ~ K.E B.! Q K.~ K.c.K.c.~ ~ B.K.B.K.K.B.B.c.c.7.! ~ B.~ K.~ c.c.~ m.~ ~ ! K.Y.! J J m.! m.c.! B.m.B.B.K.B.c.~ ~ m.! K.B.c.~ ! m.m.m.m.c.! Q E 7.P K K K K s @ b y b 5.m 5.m w d o w w e n b : m X f v 0 + t 3.0 4.5.8 b 5.e.s 8 X 0 # m w 3.y y r b j 6.Y s b # f e d d e.o e T r . = T y.I 5 I t.L R 6 X.R I I 0.I 4 L l L g X.R y.l 6 i T L I T l 5 4 , 6.Y b 0.< g k I R X.*.A L X.A I 2 I T 5 T T T L t.5 T I L X.X.5 5 X.*.O.- I %.l.D } D 5 } t.U } } L } D } P.} F } D y.L.-.F F } F ;.L._ ;.U.D A R R P ;.;.` #.<.F W U D F D *.F A X.U I L I R I A I *.U *.-.} D A I D *.D y.;.*.%.y.OXy.%.} I 6 } D 7 D { t.*.} U } 5 7 I L 5 < < L I f ; , . T k k T n f : k e , d f 0 $ f 0 o 3.v . M 8 o o m N + z 9 + X 0   0 o X 0 B q   v f + + e % M e j O l f : f , % , % T f g M < k 5 r k f . 5 e.l = , < k l l 5 l < k , l T I .., k < f f f f b z g f < 0.l 7 I I { = 4 T = R 7 5 I 7 . 7 6Xy.7 #.s.L.X._ #.-.- %.D #.F } ;.` F F G F -.;.;.%.- F D Z - A - 2 L L L 5 L I 5 = A A U 7 A - U U A 2 U I P R r.U I 2 L L r.= 1 0.g j Y i y n s m 5.4.$ 9   3.t X q q q 0 v q + v 9.0 v 9 9.9 c % q 0 t u 8 9 b b b 4.8 s m 4.a 8 b t e.s 9 s 6.s m m 6.4.4.4.Y 5.5.s 5.a 4.5.p U =.y.K.! K.=.m.Y.! B.B.M.B.A.B.Y.B.K.I.Y.m.m.Y.Y.K.c.W =.S U y.E L R 7.7.6.7.",
"5.4.a q b 4.s s s 5.4.s ; 7.; K 3 E Q 7.~ ~ ! Q c.~ ! ~ ! C Q ~ ~ ! ~ =.Q m.K.K.! ! =.~ ~ ~ ! ! c.m.B.B.K.B.c.! c.c.c.~ B.c.! ! c.m.! K.! ~ m.B.! ! m.$.K.m.c.! ! c.B.m.c.c.c.B.c.~ c.~ ! ! c.K.B.m.c.K.! ! ! P K P 6.6.s K K b a w u 8 m t t y j M b b 5.M m M t N z 0 0 v 5.X 5.v 8 8 s s s s y c m 0 t 9 e w m u y y y O b : f 0 f e 5.  M T r < 5 T 0.k 5 L L 6 w.l O.L l h 5 g l T 5 4 = X.O.-.5 5 1 T k Y x = 5 5 < l e r 0.4 l L l 5 r.t.A I X.5 L 1 R R 5 T l I l X.5 L R x R L A 5 X.X.r.6 X.s.l.} -.-.A -.L.} U D L } *.-.s.*.-.-.%.L.<.*.} } } } y.<.#.%.-.I R *.*.X.-.#.F #.$.Z S U U W A } U } U I 5 A U } D P R l.A U D A D { D - U *.*.F *.-.-.%.X.D D U X.D D 6 X.X.I } D 6 D U L T I I Y k T k g g 4 < I 4 4 < T f o e.e b % c $ $ f %   N 0 X d + $ X 9 v   o % q q 9 X N q 0 t X X X f 0 o + b y M < f O k 4 : f e % , < x < T I < T f , , < 5 T | I , 7 4 k 5 , O < < f : g x L I . r x M 4 o % $ f j f < f x I X.X.X.I I D { X.I L - = I y.;.D F } } 7 ;.} A } D ;.} ;.D _ S F F ` %.;.L.;.F F Z *.s.*.} U Y L L 5 L 1 A - 2 - U X.I = 5 L R E P = A 2 R R Y L R R L - Y 2 T 6.< ; b u y b s 9 8 9 8 N 8 m 0 q N q X 0 q a X % v 0 d % v   v v v o t t s 9 s b 8 m b u b 8 3.8 t m 5.5.a a 4.@ u w 5.s Y s s 6.b 5.q 4.v 6., K V W W ~ m.! m.K.J K.m.m.B.B.K.m.K.K.m.B.C.G ~ B.B.c.! K.P P r.E L P E x.7.6.",
"s s 4.4.0 s b b 5.5.Y s K 6.s E K 7.7.! Q ~ ~ ! K.! 7.! ! Q ! W K.7.=.=.! K.! c.~ ! ! Q B.! ! ! K.m.B.c.K.K.=.B.! c.c.~ ~ ~ c.7.! K.K.~ ~ B.K.m.! ! m.! B.! B.~ c.B.B.m.c.c.~ c.Y.m.m.! c.B.B.m.Y.m.! 7.~ Q Q ~ P E K L ; Y Y m 5.v + m 9 5.e 5.e e d % m b N c N v 0 0 v 4.c X 5.s a 5.a s 5.a m v 0 m $ b c 5.m o y y b u Y w e d b t f o e.j l j h h R I L 5 5 T w.I 0.I x r.x 5 g k T T 5 5 X.D h h , T g L h = L I j r y r n M k l 4 - -.r.D P I 2 5 5 R T I T l 5 l R X.5 6 E I I A 6 *.R I - L -.} } } I D -.y.} L A | D *.-.*.*.} #.-.L.-.} *.#.#.F *.-._ #._ A X.R Q *.-.#._ -.#.A S R } *.F } R X.U A - A L 5 L A X.y.F U D D } X.U D *.T.y.#.;.P.;.D } D I } *.6 7 D -.X.7 | I - 7 t.L 5 g l I , g , & i < 5 I 4 4 , k o f n e % e f @ % c %   f 0 X e t 9 f + m o + q X q 8   0 q 0 q + B X 0 $   # n c j : , < g < f j f : $ f f < ..h ..k & g < = k x 1 L k L 4 Y M k f , , j < f I T M . : e. .%   % $ l c 4 4 , w.I I X.R 6 5 I 5 I 7 = X.I X.U.*.Z %.F U D ;.} Z _ ;.} _ P._ %._ _ ` P.U.F G #.S #.F U U P D A 3 < * 2 A h I 5 L 5 5 R L I 5 = R L L A 2 V P L A 2 2 U E A A 1 5 Y r i y . @ b m m t a q v + t N q 0 a q q z N t q N N N 0 N $ 9 v 3.% 4.w s s s u X m b b e X 5.X s v q b 4.s s s b s 6.a 5.m s 4.b a v q 4.6.Y E S =.m.! Y.B.K.K.m.B.m.m.K.B.K.B.K.m.c.B.Y.J c.Y.U.m.! K.E Q E E 7.Y 6.7.7.4.",
"8 4.4.6.w s s b b p Y Y @ p s K K E P E y.W ~ ~ ~ Q ~ ~ P K.=.S ~ ~ ! ! =.K.7.K.K.Q ~ ! K.~ ~ ! ! m.K.=.! ! c.! ~ ~ ~ B.~ c.~ c.K.m.S.$.=.m.H m.! m.! J c.c.B.c.B.m.B.c.~ B.c.c.c.B.K.B.K.K.c.c.! ! B.K.~ =.Q V K E K p s p # 5.5.o 5.e 0 5.X 5.d d 5.e m m j e a q d 0 0 f + 0 8 a 0 9 a a 4.8 0 o o 0 9 8 @ c Y   y u n t Y e f m f f n e n n n : , I t.O.R I I I - 5 X.T 2 h., g T 5 g k g l -.D I l < k < l 5 , < , , O T i , ..5 4 L l X.I L I L 7 5 h T L L k L 4 L 4 0.< = X.I X.L 5 X.h { 7 R -.I -.} D } s.} 7 X.*.R L *.,.D %.D U t.U.#.U } } } D #.*._ s.} A R L R y.*.S F $.} U U } F -.} F D U D A L U } 5 R I *.*.D D A 7 U } D U *.L.F -.-.#.D D I U D D I D D X.X.-.} A *.D U X.I g 5 M T < 4 l , T , x k < 4 5 f % n f O % T c o % M o o 9 f 0 % c   v X v 9 + f   N v X + q N X + 0 X o $ % # N j % f % 4 < O c j r : : x j k I . ..l . 4 < l ..R & 5 < 4 = < 5 r ; < : l < l I x l & & f .   B f f f $ % l l I I L x = 5 I 5 { I D I = 0.t.7 X.} X.7 #.*.} U -.D s.F D ;.- &.&.] ` ;.L.%.Z A C -.y.-.U C - * 1 L h L I h L 5 D L D { A R I 2 E V 2 5 = I R 2 A A L A < 2 L T . j ; O r y b u 8 u 9 a + a + 0 v a q N N 0 q v X X t 0 q v m q 0 N 3.0 6.9 u w 8 c u 3.# a w + 3.8 5.s 4.s s s 4.s 4.u 5.@ s 6.s 4.8 4.4.v a 5.k p 2 Q Q ! K.~ c.c.K.c.m.~ m.! c.B.! c.c.Y.Y.c.m.K.m.! Q K.~ E E 3 y.6.7.K x.6.",
"s 5.4.s s Y 4.6.p @ n K p 6.s E K E K.7.! V ~ ! ! ~ 7.K.~ ! =.! K.! ! K.~ ! K.c.Q m.K.m.K.W ~ ! ~ W Q =.! W ~ ~ m.~ m.=.! m.~ ! ! c.K.! c.! c.c.B.~ c.! =.m.K.~ ~ ! B.c.c.c.m.J c.c.K.c.K.m.! ! ! ! y.! P P Q K K 3 Y L s n Y : e.t N v 8 y c w m m b 5.n m 5.r v 0 N 8 8 9 8 3.# 4.# 8 a v X 6.3.X v 9 8 t y t e.@ d r d r 5.e f T c d e d M O u , g T E I , 0.I 7 R 4 | L T L T h k L < , 0.h X.L I h < g 5 , g ; g i . f n l x T x < T L X.5 U l I 5 L l L T < T , < 0.= T 5 = T R R 2 R I 5 A I *.X.} X.D U } D P } 5 5 A L s.X.D *.D D U.t.} U -.*.U A F } -.;.S D U Z #.y.#.} *.#.F - } F F %.D D U U 5 L R R A R X.X.O.*.U 5 A *._ } D } G @.} } -.-.} } } I #.7 A 7 O.t.R X.R 5 X.U L I T 5 g k T = g x , X.g 4 T & f % f % 5.4   5.% 3.o X N   q % % t e 0 0 % 9 0 0 + v X t + q   o 9 X % q X % % % $ f T . f < , : 4 f j d f . . x k , x , I ; < . X.T < f : f < M < : j ; & T x < T T l , g f M f & M 9.f l < < % l I R | I 5 I X.= A = = L * 5 X.L R L 7 - -.U D F ;.Z D _ - -.#.<.$.%.;.#.y.U *.S y.D - Z P - U - - L 5 L E 2 L I A U I D - U U L L 5 A L 3 A R * 2 R 2 Y L 2 * R Y T r : O d n b w o 9 0 X X 8 + a X 0 v X N q v q v q X v 0 v X M m $ 9 5.  @ u u b 9 b 8 4.w v v   3.X 3.v a # v 8 5.8 9 m b a s q s e.4.s u u 6.; K s 7.7.K.7.K.K.~ c.K.c.K.c.! c.! ! ! K.K.B.K.K.K.c.K.7.! ~ E 7.6.6.7.7.E 7.",
"s b s b 4.5.s s j n n b s Y ; 6.K E E 7.=.~ ! ! ! ~ c.7.! ! Q ! ! ~ ~ ! ~ 7.K.K.! K.Q W ! ! ~ Q K.~ ~ ! W ! ~ S ! W ~ ! ~ m.! c.K.m.! ~ B.K.K.B.c.c.c.c.c.m.B.c.c.! m.c.c.c.c.c.c.c.c.c.! ~ m.m.7.Q W Q V Q 7.y.p Y Y Y b T u u e.v 3.3.y a y w b m b 4.b 5.3.t 5.c c $ c t t 4.a a 4.s q q 5.4.9 4.8 t + s 9 9 m u j w m : M r : j T e j d T y u ; b T x..., h A I X.L X.l l 5 l 1 < < 1 I 0.g X.5 T R 5 = g , k , k f r g j , g 5 X.= 7 X.l.I L 6 I 5 5 I T R h T 5 5 0.h X.h 5 I L I 5 X.X.5 5 } -.*.{ U D } } -.-.| D X.X.I *.D } -.I } l.*.-.U } I I D } U y.-.A Z U I #.-.P } #.} A A } U } -.} } I D 5 A A I A I R D U U D - D *.{ #.} %.D -.;.} U } I } D D } - A R *.*.I I D 7 I I l 5 , 5 l < 4 . k X.T T & l ..O $ 4 M % % $ % d % f M f f % % z B 0 B 0 9 0 X q B + m o c o @ t + 9 0 0 +   0 % f % f M < : j 4 l j e f % & e r , r T R , g = 4 4 0.x g f 4 n r M j : T l < g f : l r f , f < f f < : : , r x < g X.w.t.U D 4 - 2 3 X.E 2 2 I T R I I 5 U X.} Z *.#.F Z _ #._ L.#.F #.` D U *.X.R A D - C F #.D Z = } D - - I 5 L A I D D } D *.A * D V L 5 2 - T 3 2 R L 5 h R 1 , j T k M j j d $ 0 9 t 8 + 9 v 8 X N 0 v X 0 v q q + a z N q v v y c $ j 6.: j : 9 @ X s a 4.q 8 0 f 3.X 3.v 0 4.4.8 6.a a 4.8 5.c a v 5.8 4.m 8 e.# Y s 7.E 7.~ 7.7.T.7.! 7.! 7.K.! c.~ ! c.B.! c.K.K.7.K.7.E E 7.7.7.7.E UXE 7.",
"4.s s 5.5.b s s u b s Y p Y Y 6.E 7.K 7.=.=.m.K.K.c.! ! ! ! ! ! ! ! m.! K.m.7.c.P K.! =.=.N.c.! T.! Q =.~ S W ~ m.! =.c.! c.! ! K.! m.=.c.~ ! m.~ J ! J c.B.K.m.K.=.~ J m.m.m.J c.~ =.=.~ ~ =.K.c.~ V V 3 P K K j K s p p Y > b 4.4.d 4.e y b m y m y c y m m a v $ v d 9 t   m # 4.4.4.8 q u 8 8 a X 5.y c 9 4.u y c $ m O m y % j 0.O j r j j f O g j 0.Y h 1 5 X.O.5 X.L T T < I T p 1 1 T R T * I X., = 1 < 5 % g < l g g < l 5 x < I 0.X.X.L 5 X.I g R T T 5 L 5 5 L k l = L h 5 Y 2 X.R A A X.} } } D } U } X.*.} I R X.I y.D U } D U y.A t.} U D D U -.U ;.s.D D } } -.*.I *.*.} A U } } } } *.U A A I A I R R X.} I } -.D F U } } *.} *.D } ;.@.} } D t.} U t.I -.t.*.X.D I I A I E I 5 5 L x L t.X.I l 6 .., 4 z f k f 9.% . 0 f 0 B X 9.f % 0 o f X + v 8 0 0 X % a + t % 0 X t 9 9 + t 0 q   9 $ f e f f < % k : T g : f % O k b : 1 L T < 5 = < l I : : % . j % < % O f , % f g , 5 4 n j f : f : 4 < & f < l . 4 I x } A 6 U 6 2 5 A L - 5 r.-.X.R | A D -.A - %.F F G Z G F A.s.#._ ;.=.;.A A - A U Z } #.-.#.D A *.S 7 7 L A U } D F *.-.A D U X.A 2 E 2 L * I 2 < Y T p ; j 2 Y : T j b M b o o v t a q v 0 v q X 4.0 q X v v + v X q q v q a 3.b y w m b : n ; u u w 3.v q 0 8 e 3.a a M c 0 3.v 8 e.5.9 m   4.5.s q 4.u s 4.4.4.b s s E K K 7.! 7.~ ~ ! 7.7.! K.K.c.7.! K.K.K.c.T.K.c.K.7.E E 7.7.6.7.7.7.4.6.",
"4.K s 4.s p b b 5.; p 6.; Y 6.3 E E ~ y.=.! ! ! ! ~ c.! ! ! ~ ~ ! ~ ! ~ K.K.K.K.~ ! =.K.W =.T.K.B.! W ! W ! ! ! ! ! K.K.Q ! ! ~ m.~ ! m.=.c.~ m.m.B.B.m.m.B.c.! K.! ! ! c.c.J m.c.~ c.K.P Q W P K V Q V P E Y 3 E p p ; 5.5.5.p m 3.0 m t m 3.6.5.4.s 5.5.y m m N t v 9 5.X v a 9 4.a 8 a s a 6.a 8 a 4.X @ # a 9 b y t e % j r e b T # M d j : T l Y T 5.T X...5 X.R 5 L , h h 1 j l < T k R 0.X.= x X.5 , h r n j k % n g f g k l 5 4 X.t.I R l 5 T L < T h L h n l T L T l = I 5 5 I 2 I I L I X.} } } U } D I D } L I 5 U L l.} X.} D } s.D } U U U F X.y.S *.-.F D U U *.U #.-.*.} A *.S X.U D I D 5 I *.6 A I L U R D A I F I D } } -.} -.-.*.s.*.+.U 7 } } 7 U U t.X.6 U I R I I I U U 5 h 6 < = 0...g l & X.M % . m M f b o % $ o e e   4.o B b X z   X N % 9 9   q f X + q 9 9 3.  u 9 q % t + $ % e f f $ , % j < n f f f d $ f k , l f T 5 R < 5 I x x f 4 : T j j % h f , j j 5 5 M l k 4 < : , % O f % M 4 x < X.0.U X.5 - R U L 5 L 5 5 R I L A < I R = I D D } F %.%.$.;.L.-.;.F } F Z A 3 A Z P U F U #.#.} S F A - U P A 2 U *.Z 3 7 U } U D U A L U 2 P 3 L L P p Y L 1 i r 6.: 5.e $ d d o 9 0 X X X v + 8 X q 0 a q X 4.q X v 0 q X 3.a + 4.m 9 s M u u M u y y 9 y X 8 5.5.9 0 9 v 0 4.a 8 8 a 4.4.m 6.9 e.v 4.5.6.a 5.s X 5.8 6.Y 4.E 6.E 7.K.~ 7.K.~ 7.~ ~ 7.7.E ~ 7.! E ~ K.7.7.7.7.7.E 6.7.Y 6.7.E E E ",
"5.5.b ; s m 5.; n 5.Y > p 5.p Y E ~ K.K.K.! ! ! K.c.c.K.m.K.! c.$.H m.! ! K.! K.C K.=.=.T.B.c.c.U.K.$.! K.K.=.C ! ! B.m.! ! ~ ! ! ~ ~ ~ c.K.m.m.! m.c.! m.B.m.m.m.c.~ ! ! J ~ ! K.c.7.7.Q *.V A * 3 r.L p Y L E Y b p K 5.Y 6.o 0 m o c e t 9 : u s # m e.+ v 0 a 0 0 $ X m o v X X + m X 4.X 8 b 4.4.e X t b 4.y d e b % y b r e M % o Y m n O $ : r k g l g , M O.R T 0.I k T Y , g . X.l T 0.h h 5 T < 5 < r < ; , . j < , k < = h 4 h t.I 5 I 5 l 5 < L h T , 5 g M < h 5 * T 5 1 I L I T A D } I I U D I 7 } X.X.A D I X.I -.I } } D U l.I U U U U U X.s.A *.t.F D U } *.U *.X.} U 5 *.A } } 5 I A L I *.h I E U X.*.D A X.s.*.I U _ U 7 D #.} X.6 I -.} -.X.= I D r.} I X.D I - 5 L I I 5 = x T X.0.k 5 ..= ..l < & f r j u o e d   M 9 X c   N 9 X f     4.X q 8   + t X   X X $ c   # + 9 X 0 o $ e d f f e < , f e j e % o e o . : < 4 < x . l . h x < < . % 4 d : j % O . < , < % 4 n g g & : : 4 % f < & , & < = R O.I D 5 5 A 5 5 . L = 5 I R 7 U I I y.7 U } Z F #.#.;.%.$.%.F #.Z } G Z D U Q 5 - A F F #.-.U F G Z 5 U *.U V U U F = Z } y.y.U U r.y.r.2 h 2 1 * T i L > n 6.n u f 3.$ o e e o 0 q X X 8 q q q q v X q N X v q X q 0 t X 8.v X q b   n 5.u y j j b n u 5.q u a X 4.b 4.a a x.5.a a 6.q 8 5.4.  v 0 + + c q 0 a a 8 5.8 4.K s K K E E s 7.K.E 7.7.E 7.7.7.K 7.7.E E 7.7.K.K.7.7.s 4.7.6.7.; UXY 7.",
"b Y s s Y j Y s i > 6.Y > Y r.7.E K K.y.B.B.c.c.B.! c.K.c.m.! c.m.~ ! ! ~ ! 7.B.! ! =.! K.K.T.K.B.K.K.B.K.U.m.! K.K.m.~ ! ! ! m.! ! K.c.! $.! m.B.B.B.m.! m.c.! K.7.~ ~ K.B.! ! 7.7.c.7.Q P 2 R R R Q r.L R p Y Y s > 5., y n $ c M t c a m y s m 5.s m 5.w e.m + 3.v 3.a 0 v m 5.# 4.8 w a 4.9 X 4.X 9 + 9 w v t w w b @ j j d $ 5.r j f u n p : j r T T T 4 ; 5 5 5 5 I T 1 T l 1 0.< L . x 0.= I 5 T 5 , < g ; ; g : M n T 0.5 l T I X.0.I T I l k I I I k T l l Y l , g Y 5 X.g < l I X.I 5 U t.*.-.} X.} } X.X.D 5 L I X.X.X.P L I } I y.7 U X.R D U } y.D y.;.D A U -.s.U } U U U Z *.A *.} } } U L D R I D L X.X.I 6 A *.X.D D } } -.} %.-._ } D D } I I I - 6 L O.L I I L { 5 I 5 7 D I 6 X.{ 5 6 6 5 T 4 T f % f f & c N . r d # M o $ 5.+ 3.+ 9 3.9 0 4.+ + % X 0 t X 9 8 0 t 9 5.X 8 d X % o 0 z j f , f < f < f < < n f f f $ j k l 5 Y . h 5 ..k < % % f n : % n : o r j f : : h T 4 r % < % % $ z k f l < < 4 T X.I 7 6 X.D A X.R U L E 1 y.- L R I } A } P F -.-.} A.;.*.#.#.s.S F A #.U U } } =.F } G -.;.&.-.F F G Z *.-.U *.U U U #.;.#.U S R A X.P L A R R T , i 6.: p T 5.c f v $ 9 9 t f 0 q q q q q v a q q q q 8.q X N q N q a a v q q a 5.@ 3.m u j b n u s 8 b s 4.4.0 4.8 u # a 4.4.4.a a s 4.4.8 b 5.o 4.5.M a 4.v 8 a q 5.4.b 4.6.K E E K K 4.K 7.7.7.E K E E 7.E K 7.E 7.7.7.7.7.7.E Y 7.6.Y 6.6.5.",
"p Y r n 6.u b 5.u > 6.Y K > R E V ~ =.c.! m.m.m.! K.c.c.c.B.c.c.m.c.m.K.B.c.B.B.Y.K.U.K.K.Y.B.c.m.K.K.S.c.J ! ! K.K.K.! c.! K.K.m.! m.B.S.m.m.m.m.m.c.m.! c.m.m.K.! B.c.c.! ! K.! ~ 7.7.K p p 7.P R p E 2 6.p i Y j b n u n b Y t c m t u 4.m c 5.4.a m t s 5.3.0 v + m u 5.+ 9 a v u b m 3.b t 8 5.t m 4.# @ e e @ r 9 e c e j y T b n 9 : y j j n j T 6.T h 5 ..L l 5 g T < h h : R g l g 0.0.4 h L { T l Y g k j l , 5 r i Y = l L l 0.g < R 5 I h x R k g , , 5 h , h < I 5 T h 2 5 X.T L h I X.U X.5 I A X.} I 5 5 D R I X.t.X.6 I *.I l.A I t.U Z U R t.I } } 7 Z U *.-.I U U } X.5 U } X.U } } U U I A T I L R U U 5 A -.*.} *.*.} X.X.*.} 5 F X.} { } D X.I X.*.*.I X.L R +.A { { A I 0.*.| | { X.O.h 4 < M n & n k % j f # $ w o c X 9 d + 0 X + t + + v % + q 0 f d + + o X $ X a #   v   9 + f m f e : , $ : d f % : e f o & < % : < , 5 O = k T , . < : d k : o e : r j j f < < % , ; < % $ . % < : % & < 4 7 L R R R - - 5 * 7 0.r.2 2 L A X.5 U X.5 - 5 U } -.U.A.s.L.#.G Z Z s.} _ G U U #.W A A #.} F %.%.&.%._ F F - F =.A =.} W ;.L.U.s.y.S L P R L V 3 L Y h 1 Y e.b b e 5.5.0 0 $ d 0 0 v + X q q q q q 4.q X a q 3.q X v q N v a 4.a q v N e.m c u r u b j s b m 4.m a a 0 5.8 q a a q 4.4.4.s 3.6.8 8 5.4.9 % 0 4.4.q q a q 4.q 3.s s 5.Y s s s E 7.4.7.7.7.E Y Y E E 7.E 7.E 7.E 7.E 6.7.4.7.s T.s 6.s s ",
"b 6.r ; 5.y s p 5.Y p p r.p 6.7.V ~ K.K.m.B.K.c.c.c.! ! c.B.c.c.B.m.c.! B.c.B.K.B.K.B.c.B.Y.c.Y.Y.B.! K.K.Y.S.B.! B.K.c.m.c.m.K.! ! m.! m.! c.B.B.B.m.S.c.B.B.c.K.! m.! ! ~ ! c.7.7.E K 3 L 6.Y 1 7.P Y i 5.5.Y Y w 6.u n Y u n r N 5.b y M b 9 5.y m 5.9 v t 3.v f t 9 a X e a 5.5.X b s + # + c 0 4.+ y 8 m c y $ b + M j @ m Y f : % e 5.b u r b j l 9.i l M l g I l j t.5 g n , 0.k , T r.T 5 . = 1 Y 1 T & T g r : ; , j T = 6 ..I r.I I 6 5 T 5 < T l I g , g T g ..< T l L I L l X.I L X.| } } O.6 X.D t.I t.{ 5 k r.I 2 } 0.D L U = T.y.L -.I 5 U } *.U U } U U U X.;.D U *.r.*.7 U U R A X.I I U T A X.R 6 L A D 5 7 -.{ U -.-.D } } } t.} @.X.D } @.= t.I I X.I = -.I X.} * L r.X.} *.0.L A l 5 g 4 X.= M T & M f   m e % m e f b % e 8 d d v v 0 0 9 q X + % 0 t 0 8 a d + c m   5.9 0   f 9 e f e % % e 4 , n b : d % m f : f < < f f 5 g . x k 4 < % f % e f : % % d r % j 9.n l k % : , : . f f < < o , 5 k x T D 7 7 5 U R X.y.U R U R } * - } U F U } #.#.=.s.K.#.#.#.%._ #.;.Z #.Z Z A U *.D F #.F } ;.` #.F Z _ %.S #.-.- ;.y.F *.*.#.S #.A A 3 2 - < * 2 Y h Y Y 5.u m y y X m t 0 v + q v X X q q q q q q q X v q 4.q v q v q v + a 4.q X X 6.3.w # j O Y u n y m s c w 8 s 4.8 4.5.q a e.8 4.a v q s 5.u s v 9 0 4.3.q q v 4.a 4.3.q s 6.Y E 4.6.6.6.6.4.x.4.4.7.s 6.s x.4.K E 7.4.7.7.s Y 6.s 6.b s x.6.4.",
"6.Y j T ; b Y Y T p Y 6.l L R Q 3 ! B.K.c.! B.B.c.m.c.~ B.m.c.~ m.c.c.c.c.c.B.B.c.c.c.B.Y.B.B.Y.B.B.c.Y.B.B.J ~ B.! c.K.B.! B.c.! ! m.B.B.c.c.c.c.c.c.B.B.B.m.c.B.c.c.~ B.~ J c.r.K.K E E K 6.y.p R 3 i 6.Y 6.; 5.# Y b 5.b Y u m b o m @ 6.8 b m # b w m a 5.8 f 0 v v e o 3.4.a w 8 5.t e t c m t a 0 c d y y c y y m b t # d e c j : j M n @ y i p 0.n g L l 1 0.k l k T , T g . T g g 0.0.0.I & M L < g g , > 5.k h i k l T = 5 k I 0.h T < I T 5 & R M g l l g T T , 5 T , h X.5 T 5 X.I *.} I I } 5 I 5 { L X.1 5 l I R < R X.5 L } & T.X.A I I A U R t.7 } E } 7 A *.D 6 I X.*.P 5 I U *.A I } R X.R L X.L I L I 6 A t.U } X.*.D U U a.U X.} 6 } I } { - t.R 4 R D I 5 O.X.U 7 X.*.t.t.X.X.I 7 T = x T x M & f : % T o % d T w f w y t m c o m 9 a v 8 a X t % X X z 8 X c d 9 c d   3.  b 0 o f % r f . % f e f e n o t f % t / . 4 T % 5 l < I T M 4 < f f % % + e w e % : f j j g 9.< & % f O N % , , . ..< l 5 r.I 2 D - A 2 L U I 2 5 L 2 R = A P *.D - *.s.#.-.$.;.&.F $.F #.} %.S *.#.;.D D ;.A } #.#.#._ %.#.G #.F #.G Z U =.W y.#.=.-.Z W A - V 2 5 = 3 * i T p e.p u t a 4.  4.v X c + q a X q v X q X q q q v v q q q q 4.q X v q q q X q X X 5.y t y Y y r 5.u Y j 9 y s 5.v a u m t m a 5.4.a s a 6.a 6.9 y M v t d 3.4.q 4.v q 4.4.v 4.4.4.4.s Y s 4.Y E E 6.4.4.E E s 7.7.E K 7.7.K 7.b 5.s 4.7.6.s 6.5.6.",
"Y Y > u Y j 6.j u n Y 2 L 2 L R C ! m.! B.B.U.B.B.B.c.K.Y.B.K.B.=XB.J.c.B.B.B.J.Y.Y.B.Y.Y.B.B.B.J S.K.Y.J c.c.B.Y.m.B.m.c.m.K.c.! c.m.m.J B.b.B.B.B.B.B.B.B.m.c.B.~ B.c.~ c.m.! ! K K E 7.7.R L L y.L Y l.p # 5.e.@ w 9 m 5.5.b M 0 b b m b y b u 4.t s 3.v 3.a 5.9 v 0 % v v t o 5.m @ a + y 9 X c 9 w 9 t b 9 w u w $ y b d d j r 5.f T y Y u m : n e.n l T M 5 0.k I h T > T g ; T i , L T L 5 5 l k k l < i r k j > 1 j h l , l L | X., I h x , l = l I g 5 r < j k O 1 T 5 l X.h 5 I X.6 r.| I I { 6 D L R 5 I x 5 6 5 I A R I 1 I U = y.I R } X.L D D *.P -.U U - I y.U A } U I A A D R X.I I U 5 5 L h r.1 A D I } U ;.I } U } D X.U -.I X.D I D X.D *.6 r.t.5 R X.I = r.I I 5 X.s.0.y.O.x I x O., 5 T f l j T $   j : o b e % m   + m t t 8 0 + + X 9 0 + 0 X X o t o 0 t + % v X % 9 # d o o n f e f : : < % % $ r . f o t   b % f . T l   < 0.T < : n < e o f O % o O o O : e : % l o : % : & j < f f 4 T = , 6 t.U 7 5 I X.U 5 = 5 5 U 6 - - - D I U D Z F y.;.;.=.#.#.#.#.F #.#.;.F #.} } - U y.F F S %.` Z F ;.-.%.F #.*.*.U *.U L.W Z #.Z S D A U E 2 L Y h 2 6.> b b a y t m 8 m 0 X X X X q X q v X X q a q q q X q q v q X a q v v a v q 4.q q v 5.u M n # i y y Y s 5.n s y 8 t 9 + 8 s 8 q e.q a v a s 9 b s 5.f + 8 5.4.q q N v N v 4.v 4.v 6.s s 6.4.e.x.s s x.s 4.s x.s 4.7.K 7.7.E 6.s E 7.s s x.s 5.4.6.",
"T L Y > n 6.j b 6.k T > r.Y r.y.! K.T.Y.Y.S.K.Y.K.K.m.! c.B.Y.Y.B.c.J.c.c.Y.Y.Y.B.B.Y.B.c.b.J.B.m.Y.B.B.J Y.U.B.c.m.Y.mXY.m.B.B.c.B.b.B.c.B.c.m.c.c.Y.c.B.B.c.J K.c.c.c.! m.~ W K.C V K K E E L K L L h 0.Y r j M b b b 5.m y # 9.t 9.y 5.8 6.6.w e.a e 3.3.0 v N 4.m d X 0 m 9 d m 0 d b w y @ b c e.+ t t c t t y y @ b 5.5.y n o m j m w M : b # j T l g g , = M g T k 0.l Y r g j k f M T l = h < = T , * f , T , i r g Y 1 < 5 5 T X.5 I 0.h & M 5 4 I l , , r Y 9., k T l L l T 7 g | X.X.U I I I U k I R 5 5 L l L 1 l L t.| l R I 5 *.X.} I } 5 L I U | X.I A - I t.U 5 X.L D I L L I I I U X.5 A I A X.5 L D L X.} t.} +.} I D X.D U 5 I I 7 } D 6 { D t.T 7 I I I 5 t.X.X.X.R t.6 I L = l = 4 < & n < f j j r o e b % M % e n . o M $ 5.t b c 8 X 9 9 B 0 B q % 0 o f c % 0 M + m 9 $ M . o f n f % % f c O d o d   j 3.f % z n l < T j & ..T l % O % o e @ m $ o o e # $ $ e r o f < . # O o j r 4 % o & = 5 L X.L 7 I U X.U 5 7 A L A l R A U } } *.F } F #.#.H -.#.F =.G F F } %.Z Z #.U Z *.*.D F D ;.#.#.%.L.;.=.=.y.y.U.D Q U *.W D y.U - S S 2 R * Y R > ; T u b m w e 8 a X X 0 q X X X a 8 q q X X q q q q q X v q 4.q X v q X q a v q q q q + c m b w j p w n m s 6.n + @ y 5.t q s u 4.a 6.s a b s 5.c 5.w q 0 m c 3.0 0 a v v 4.3.v v a 5.6.s Y s s 7.6.s Y 4.6.E s Y 7.4.E E 6.7.E 6.K s 6.s 4.x.7.s 6.6.",
"g h Y i j 6.; Y h ; 6.R y.0.r.A S $.L.K.L.N.B.A.S.K.c.! K.K.B.Y.Y.B.Y.=XdXB.B.B.Y.Y.S.Y.B.Y.=XY.Y.B.J S.B.m.m.Y.Y.c.m.m.B.B.Y.B.' ' ! B.b.Y.b.B.c.c.Y.c.B.Y.B.B.B.c.B.m.b.c.C K.~ V Q Q E 7.E E Q Y 7.Y 1 j 6.o y m s # y y 5.4.b y M e s 0 5.m b 4.5.8 3.5.+ v v v 0 v 9 d 3.o 3.@ $ 5.3.y u d M 9 9.X 9 w # w d t c @ m y m @ b 5.r : 5.4.@ b n Y 6.b 0.9.f l , T k T f T k n r n , T i Y X.T 4 M l & 0.O g Y ; 6.. n > , 0.< k I k X.M 5 k M T = M n g x k 4 < n k T g T , 5 T < X.5 5 R X.R I D I I X.I X.T h = I I X.x k I T L I I h < X.0.X.I R 5 U X.R } X.R I 6 I *.{ L X.I I R D I X.D I R R I T R h Y I I A 6 } } -.} } } } U O.} X.} X.X.L -.D } I D -.L 7 R A I I X.R r.O.X.y.k R w.l x < l M f T f j d % r e , 5.O r < f e M . c e b   b c 8 + X v 0 t a + X 0 % 0 a o o 9 w e y X 9.o % e N l % % f k e d $ e o c f o f % % = % h O , R f : k k . e N % n % + w d % e e , f . : , : O : : M j j , l < T X.R } Z = X.U - 5 7 L L A X.U *.5 A A A *.} ` #.&.$.#.N.;.H ;.#.%.` #.$.} } ;.-.W =.*.U *.G ;._ <.#.;.} } #.W A U - V - A - C #.U Z U *.L T < r 6.. O y y 4.5.9 t X a q X a v + q X 0 q 8 X q q v 8 a a q q q a v v v v v q v q q a X q 0 $ 9 m j u n j u i Y n 5.s w y m 4.s s s v 3.5.4.a s a 5.c b u 4.9 9 v t 3.4.N + 4.v q 4.v 3.q 3.s K 4.7.K 8 K E Y 6.E s 6.s 6.7.K 7.7.7.7.7.7.K s E Y E 4.6.x.s ",
"k R l T x.L e.r.: > 7.k A T E A L.K.A.&.L.I.N.$.c.! ! H I.N.! S.B.B.S.S.B.c.J.B.$.S.S.Y.m.S.N.Y.=XY.K.mXY.Y.Y.Y.Y.L.S.L.Y.Y.B.J I.Y.Y.Y.M.M.m.=Xb.J.Y.B.B.Y.! m.b.m.! B.m.M.H $.V ~ Q Q R P L U E *.7.0.R j 6.9.b e.6.4.x.4.4.s y 5.9.5.y 6.5.@ 5.s 4.s a 3.q a m 0 3.0 t c v d 9 8 5.t 6.y $ 5.t c 9 m 8 m y y u s v w y @ m @ d j e y b b @ # j b n > T Y < j L T k k < n Y T r T < n < g T k g k g g Y % j Y y 6.i k j h 0.1 R I X.0.g 5 n , T k 4 R T x k g < T r % r R % g I l I L X.R l t.x L I I +.I X.k L = l l T 5 I I g 5 T h h 5 R t.I T X.A U O.U L R | I D I X.X.U X.U X.I 4 L X.| I I I I h R 5 I I L L U +.I _ U I U } I *.-.X.X.X.I I } @.R @.I *.t.I O.+.+.I r.X.y.O.| X.< 4 0.< g < l T   e e y M : : : j 6.  % , d O e.% j b b   M c 9 w 8 c 0 0 f 0 o N e N b $ f 8 f $ c : m $ j e f , : f % f c o f o t f + d c N . , & i.5 ..M k f : O   w N 9 e   + $ w e m d r g   O e < o o O : % 4 , 5   1 I { X.} D *.X.U R A A I I *.R I A L #.A *.` - #.#.-.&.;.*.S F ;.=.#._ #.#.#.;.F - F A D F D ;.F -.G *.#.U F A - Z L P U Q D U D *.U C A L Y i ; r O w u b u m 9 a # 8 a 8 X q   q X q 8 8 X q 8 q X q a q q q 4.v v q v q q v q X q q q q t c w 9.n ; b p : Y 6.s s n 5.u q 5.8 a 3.a 4.e.4.s s 3.s s s 5.3.b 4.s 3.4.5.+ 4.3.4.9.b 4.s 7.Y E K 6.K 7.UXs E E 7.E E 7.E 6.E 7.y.K.7.r.7.7.7.E 6.7.6.4.5.x.",
"T Y * T Y j 6.6.; p 6.7.R R 3 Y L.;.;.A.U.N.N.;.=.K.K.! U.Y.B.S.M.Y.Y.Y.B.B.Y.B.B.;X;XY.I.I.V.;XY.Y.B.B.I.I.Y.N.J N.Y.S.K.S.*XY.S.V.m.&.S.D.Y.I.b.v.Y.Y.Y.Y.D.=XY.Y.D.Y.*XY.m.K.U.U.*.Q *.Q Q y.r.y.r.r.r.i r j y y m t 6.8 c e.c T m e + e.m s 4.a s 3.8 4.v a v v 9.f 0 o v M s + 5.b b N e m # e 9 t @ 5.t 9 8 m m s 8 t 5.u u j 5.j 5.j s w n O r n n r l T f k n l g n Y n r n , g ; x l k 4 , < T & , r r i , Y . i > h ; h 6 R ..k k R j T k ; T T l x g : 6.j ; j T . l g k T l L X.I U 5 D I 6 X.L R g ..l I T R x 0.0.I h T 2 h l r.h.5 I U 5 R X.R I X.U 5 5 I } R I I I R I 7 L R X.6 L I R 5 l 1 | l 5 U X.-.D { } D U { D X.X.5 7 X.D 5 I I } U 7 { I 7 L L X.I | 5 0.5 L I 1 < r.l 4 : f T O r b y n 9 r % d n : f l k f T % T b d e c 9 X # 9   9   $ + X 0 o 9 9 o N $ X $ o e t r b r f f : < % n f : % e w d v + e N % & < M < Y < l < % % e + f % % o w 9 $ t b e e f X < , e % f j j e r f g * 6 R I A 5 - = D L U 1 * 7 - I 5 A U } y.R ;.#.Z %.$.#.` =.$.#.G ;.$.;.#.#.` *.#.} D =.U U F #.;.#.-.G U A U - 7 2 2 R L P U S *.A U X.A R R T r >   n r w w + 9 # 9 8 X X X X q X q X q 0 v a q 4.a a q a 4.X q v q a q v q q v q v v v v 3.X d m 6.b n n b Y j b Y 6.y b b a 6.8 b 4.4.4.5.4.4.8 4.4.m 5.s t s 4.c y X e t 3.4.v v 4.b s s K Y E E 5.7.Y 7.E s 7.E K 7.7.K 7.7.Q y.y.y.E 7.7.6.7.s 7.6.6.4.",
"r.h , 6.; 6.i Y 5.h R 6.R L 2 L.L.;.L.L.I.` $.;.L.$.=.K.! U.K.K.Y.N.M.L.S.H B.Y.<.L.&.N.A.P.' A.I.A.$.I.N.] %.I.Y.Y.;X}.I.A.Y.;XA.D.I.*XD.M.Y.*X*XS.Y.V.M.M.S.Y.I.Y.=X*XD.&.` U.;.*.U Q r.=.y.K.=.y.7.E R R 5.r e.6.9.m 5.9 a e.m m m e u e.b e.s 4.4.3.q a v 4.4.4.0 0 c $ b 9 9.X + 9.$ b j d c e 3.e a M s y + c 9 b 8 y 3.b y o n n u u M w y : r T j g k k r k ..j Y i f r y i j g g 9.l T Y , , 9.; l u i l n 6.; Y Y I g l I 0.I T g M I f 4 O x M L x 4 < d n f g l & , , 5 I 5 6 X.+.5 5 I 5 6 X.l | , k g g L 4 5 X.T I T l * < I X.r.1 I L 5 } R U I X.X.A l I X.X.L 5 L I I L L L L 5 L R 0.5 g < T I I *.+.X.D } } D D U I t.-.I I X.X.5 X.6 t.{ D t.} I X.L h.l.X.I t.6 I X.1 = ..k % % f m r y m y b @ y w j : n r k f j O % f % d f d 9 9 t N 0 M 0 c f 8 N $ f 0 e c d $ d o e b M f f f r <   , M % b 9 b 9 0 /   t N 4 . f & T n g , % O % : o o f + e d w t + e o o :   : % o . f m j < % < . 7 I w.I D D A A R I I I A } 2 U I 5 U A } #.#.#.#.;.#.&.H &.L.#.G U #.#.G } - G F -.#.*.F } #.%.#._ ;.D F - C - V L L L 2 P 2 L *.I A U P *.L j @ w   3.@ # @ u u 8 X u 8 X X a q + + q 0 0 v q X a X q 8 8 a q q q v q q q q q q q v 8 a 0 3.X t m c y e.j i 6.i s 5.m ; ; 5.s 5.a s s a 4.a s b s 4.4.@ 5.c a 4.b 5.5.m 4.b 3.4.6.Y 4.K Y 5.6.K x.7.K 7.E 7.E 7.E 7.Y 7.7.K.Q W Q Q 7.K.E E 7.7.7.7.e.x.7.6.",
"I < 1 0.; Y T y Y Y l.0.2 U *.U.U A.;.` ;.;.+XA.L.;.L.U.S Y.U.m.N.&.A.$.N.L.U.N.&.U.I.U.&.I.;.;X#.S.N.U.M.I.A.A.I.A.A.A.S.] &.A.I.V.&.*XI.&.I.V.;XS.I.V.I.A.;XI.S.M.;XI.] Y.D.;.#.#.K.T.=.U r.L.r.y.K.K l T k n n 3.5.a 3.3.s m : e n 9.5.e.# 5.s 5.x.s v a 9 5.0 9 c 0 + 0 o + 5.y o n c $ m j 9 e X c w + c M y b @ e.s m m m 4.T y y y b : s : 5.Y 5.n k f , ; g Y % n g n n j < k i l 0., l 9.< l l , f , i ; 0.; , h k T 1 5 I X.l X.1 1 0.< ; , T f ..T < , o T n : r g T , 5 & = 0.L L I 6 I 5 5 T l R , L Y l X.T I 0.L g X.T I 5 X.I R R X.2 5 X.R I 5 X.U 6 5 D I I 5 I T I I I L L I I h I 0.5 5 - R I X.l.y.} U { D { } | U R I 2 I X.I D I I -.} 7 D X.D { U y.I 5 1 X.< k 0.h = 9.< . f l r u @ y y m $ : ; 5.O j & T % T . f o e n # y + 9 e X 0 f % d +   M e 0 % 9 o e d e $   j T f j : % % % $ : e $ 5.y d + + c % f r % = : h., 4 r j d j m : X m $ t t + e e r % % : o f % : % e b w % , , & g 5 R D I U A U R A - 5 A X.2 I I I *.U *.*.F - ` H G s.$.;.y.` U $.-.G Z ;.G F D L.*.#.} ;.y.*.*.;.#.A *.Z 7 A A A E 2 P r.L U E U A R A L ; i # w + y # X w # 8 8 X q X 8 t v + 8 q 0 0 9 v X q a q q v 8 a q X v v q 4.X a v q q a X 4.q 0 c m   b n n u O u n 5.Y ; w w m s v a a e.s a 4.6.a u 4.4.s s b s m w 8 b 5.5.t s a 4.4.s 4.Y K K 7.E 7.K E E E 7.s E E K 7.y.7.! Q =.r.=.y.E 7.E K 4.6.7.x.x.7.",
"I L L T j 5.6.n L h I X.U A T.;.-.A.A.%.A.U.&.$.K.&.N.=.L.N.$.$.A.+XL.L.&.&.I.U.L.U.L.;.<.;XI.I.$.' L.A.&.U.<.N.&.N.U.A.A._ A.}.P.V.A.S.A.8X8XI.S.S.;XA.V.A.;XI.I.I.I.D.[ ;XN.U.&.U =.=.T.U A U R T.y.5 Y r.; n 6.5.5.s m : m % n   9.6.r 5.3.t 4.4.4.b v e.X 6.c 0 t d X y b y c u # 5.b $ m e $ e f e t f 9 9 $ e d 5.  y n # 5.+ w d n b b j M # r j r n n j j j Y j f j k n j : l T 4 k k l n . n ; j j > : i 0.k g < k g k < r.I x h L h g i < T T = T l 5 f O n n r T % T 9.< I 5 T X.l L I l I 5 T L , l h T l l L g I 5 = I h = l t.I L L L D 5 t.X.X.5 t.5 U 5 X.I I D U 2 I 6 5 L h R I I I I A & D U | } -.X.-.} I I @.U I I U I 5 X.T 5 E { X.| +.D 7 t.} X.*.0.4 y.O X.g Y 9.L O T 4   , f n y # 5.% y u @ r n j . < f = n d d e e e   $ d X % + d t   o + + + 9 n $ d   e o c   : m T j f < : j . e . d d b u M   t d e m o . & M T 4 4   . e % e f O o z o % e e + o e . d % f e o % f % > j , < = = U { A 6 r.O.I 7 A 2 5 5 R I A - } *.Z U ;.L.* F ;.G ;.W ;.;.S F #.;.-.U ;.D } #.#.} -.#.} #.y.U F U U I U - P D A V 3 U U L P L L 0.k I ; : a q 8 X q a 8 X q v X q 8 8 q X q a a 8 0 q a X v a 8 X X 4.8 q q q 8 a q a 8 8 a 4.X a q 4.q 8 8 0 0 b y r e T j m s 6.  e 5.j : 5.$ m 5.X c 5.5.a 8 s s 5.u 9 s 4.y M u 3.m u b m 9 5.5.b b s Y p r.r.Q Q K.y.Q 7.E r.Q P 7.E y.Q y.y.R *.*.L E L h Y 6.6.Y 5.",
"R 1 h Y Y T Y e n T } I *.K.8X;.Y.U.<.L.U.L.<.L.;.A.U.A.N.#.N.I.L.I.A.L.U.U.U.A.N.U.Y.U.L.U.L.U.U.L.+X<.&.U.A.+X;XA.A.A.I.U.;XI.#.&.P.+X}.*XI.F.D.}.Y.;XH ' I.A.8XY.A.V.F.}.[ A.L.F #.-.s.y.-.*.U h.r.5 L x.Y 6.Y s 6.m b y r r 6.: b y T y M b s 5.b a a e.q m t t 3.m + 9 t m b w b y m @ 6.d 0 f % 0 f v v d m e c m b M M y b m m 5.u u y b n u j b b n n T : N T % n j j O n < f k < T k , T : 0.k O T k n Y 6.1 T Y T Y 0.5 t.R k l Y k Y g j T R , Y g i r % j j f T , M T = k 5 X.T l I k I L T g L i g 1 k h T I X.T I T T I L R r.I R L I 5 L X.R I A X.2 I 5 R U I I I 5 L R h L Y I I l l R I - { I -.} } D X.} I 6 U } } U I Y L 0.T 5 l R X.D U } } ,.} } R X.5 0.: T k n < j O 9.l j < % M : + M @ j O % y > j $ k f : b r j d b w + t 0 o d 0 0 + o d M d e $ d $ m % m e b o N M m 4 f f % f % < r b Y o u s r 5.e O N f $ . e.j f M b N 5.e % % % 0 f   c M $ O   @   9 o e $ $ O : r y j ; = 5 L U { I I r.I I 5 L A I P *.X.I U -.=.U #.#.*.G _ S G *.#.-.=.A F } #.#.F #.S ;.;.#.F U #.U #.;.U -.U Z F *.D U V A *.W L V A R R L 1 ; k ; % 4.a X a 8 X 4.X q 3.q 3.q q q q q a X q a q 4.a a q v 8 q v a 4.X 4.a 8 8 8 a 8 X a q 4.q a q v X q X v d 5.d n b r 5.T y 5.y f d 6.  m m w 5.8 4.s s s b 5.s s s 6.c b 5.5.T # 6.w 6.b m Y e.p 7.E T.K.2 L y.V E 7.7.7.E E r.7.T.y.K.K.y.*.*.L 5 0.I r.p 6.s 5.",
"r.h Y b n i T n t.T U } t.U.L.#.L.L.<.U.U.&.L.I.I.L.$.N.U.N.A.N.#.N.}.U.U.&.A.L.+XY.I.U.A.A.` #.I.N.I.;.A.L.` ` &.I.I.N.A.I.I.G F.pXF ;X&.H I.S.A.A.#.$.A.A.Y.P.L.L.I.&.V.V.I.I.L.F y.L.*.y.s.-.R t.X.5 g 6.k e.Y 9 6.5.T j b n 0.4.w y 5.8 b b u 5.8 4.s 5.a 9 5.t 3.v y c w 9 m M 5.m e $ w   M f   8 t f 3.0 a @ d + m e % m w 5.w e.9 y b e u b y w y b y j b T T % M M n r k < j k , T T < 0.: n g   Y < ; Y n . i i g , L , X.T 5 h I T T < 1 l 6.T i 1 k r : : r f j , g k < g 5 0.T 5 I h X.I T < T k i 5 h h X.L R l I I h 5 I T L 1 I h L 5 X.R I 7 5 R 2 I L X.U A I } I 5 0.L Y r.T Y L L I I D -.} t.#.I D X.U U D X.} } I R R L R r.R X.X.U D } @.%.t.} I 5 I I k j T T 6.. k . T > R . & b r : n 0 T @ r N # f l j f g g e r e e t 8 d 8 0 N 0 $ % o d d $ % $ d X %   $ % t o : f 4 % & c o e f e e : 5.O j e r $ $ o $ % $ t b : f n $ e M e . f B $ c f t 0 t 9 o % @ f % 9 4 , o : e j h ; * X.X.} 7 A 5 L 4 A - A 6 5 A I A A U U - A U } #.F ` F ;.#.;.=.-.#.} #.#.#.Z D D ;.L.*.#.#.=.} } *.U -.F A #.U A Z A L U U 2 3 2 r.E l ; : Y w o q X q q q X q q q q a v X q X q q 4.X 4.a q a 0 q 8 a X q q u a X a a 8 8 q v 8 0 0 q 4.X 4.X q 0 t + f j 5.d e j r T r m 6.O b y y 5.T 5.w 5.b 6.4.5.4.5.4.u u 9 5.b b 6.3.4.b s m 4.Y b s 6.  Y X.r.} y.U S r.P Q 7.Q 7.7.y.y.K.K.y.r.T.Q *.*.R y.R 6.6.5.b Y ",
"r.L E n Y u 6.6.0.5 I -.y.P.-.s.<.P.A.I.I.L.I.I.A.A.;.L.Y.A.N.;.` $.Y.I.Y.A.L.I.I.L.&.;.N.A.L.;X&.N.L.&.I.I.L.U.T.&.N.;XA.` A.I.&._ I.A.I.;XF.I.I.;XI.V.I.&.I.A.S.A.D.A.&.M.U.A.&.Z *.L.U U U U X.y.T I 1 T j 6.6.j m T 6.u 0.j u M w 5.M y y 4.q b 8 5.a v a 8 3.0 3.t b c e t t t y 8 w d 5.m N t + d 0 9 v 9 t t c % m O o m b 5.9 5.u 5.M u : Y T s j T b > d M < : j n j j r % k Y < x T < 9.; i j g l g g Y 0.l h , 1 p L 1 R L 1 h M Y k . h i T T , Y T w e % f r , f , , r 5 g X.I 5 L h T k I 1 L T < T k T R T X.< 5 T L I T R I L R 5 I L U I 5 5 5 I 5 I R R L 5 I L L 5 R = I r.Y T L L 5 5 6 t.} X.X.} } X.I I X.X.U A 5 U I 7 - 5 I R D I +.y.s.X.@.} D 7 5 0.< Y k j n & l . g & M   O j f r b y n : e j O : j O , T e O r y 9 y o t 9 c t X $ j 9 e % o e t b e d % 9 e f e c $ % % % k . f j e o # j : n r e % d m T o f z.f f f f # O b d o o % %   o 4 X # t % $ d d : , c f , j f y l 4 < I X.I - 6 7 D I 5 7 5 5 A 5 A 5 A I *.D } #.*.F Z F F ;.F ;.=.#.=.-.*.} *.S Z F F *.#.} #.#.G - =.} y.U U *.*.U L R *.L R P E Y T ; n j n M @ a q X 8 X q 8 q q q q 4.X q v X a q a 8 v 0 X q q a q q a X a 8 q a q v q 8 4.8 q 3.q X q q 4.X X 0 0 c o b d m u r n O y m e.T x.m @ M e 5.s m t e.4.4.5.4.b b m 9 m 5.b 5.Y m 5.; 5.n b : b e.p R K Q U U y.K.U Q 7.y.Q Q E P R Q 7.Q U y.U R y.y.I T j y.T r.5.",
"r.> K b 5.s E g I 5 X.-.;.T.<.L.U.<.V.&.A.I.L.;.N.;.I.I.I.M.&.A.S.N.I.L.+XA.A.N.A.U.I.;XI.I.A.I.;.A.I.A.U.I.A.A.A.A.D.I.<.A.*XA.I.A.}.A.A.*X}.&.;X*XD.+XM.D.*X$.M.U.S.I.F.#.` Y.<.W } *.r.L.=.I L X.Y T l Y n 5.m p u b y O T ; u M b e.b b u m s a 8 6.t t s m m + M 0 m c c d y m t 6.y 5.y y 9 $ v m 9 8 t 0 a b t t m y b b m m m 4.@ b s y # n 0.5.i y n b O M w r k n : r j O j k , k T h , y < p n : , g , T n l 1 l k j I X.I , h k g ,   L , 1 k > L j : f $ j l e k g , I j I R T 5 l 5 l , k h L I < T 5 Y I | I 5 h 5 I I L I L L L A I I I L L X.I 5 5 l R | I 5 R 5 A k I * R X., T l 5 7 A I -.} } } } I } 5 U X.R I U I X.X.I 5 I @.*.D I t.-.} U D +.7 2 5 t.O T n : < p < , l f , . , f f e r r d : O d f O f , : j e % r b t c + 0 % d 0 X % d 9 e 9 $ y t d o e t e o o 9 b d e : & M $ e $ : O @ d O d r n   M $ o , e T T b c M o : d e   f   f f o c m % e $ o e e < $ k f < f : < < = 5 I X.{ D X.5 5 I 2 A A L I I L D R Z #.A D F ;.;.Z F F #.U ;.;.=.W *.#.S } F S #.F ;.F U F U Z - F A #.F - Z A U A A L L E 2 1 k i . n b 4.q X a q q X X q X 4.q X a X X q q X v 0 a 0 8 8 X q q q u 8 4.X a q s v 8 v q a v 8 q a q X X X q q X 9 + c o c d 5.j j T O j : r y j e 9.O f u O m y 5.4.s 4.s 4.b 5.w w 5.b t 5.m m s X e.b s Y 4.@ h X.r.U *.y.W *.V S r.E =.E U K.Q r.Q Q =.*.U y.y.X.I R 6.T r.6.",
"y.b 6.Y 6.b 6.Y I I y.s.s.L.N.#.L.A.P.L.P.I.A.I.I.A.I.N.I.N.N.I.A.U.;XD.S.&.A.A.I.I.A.S.I.I.A.I.I.I.I.N.I.I.*XI.I.A.;.N.N.A.I.A.D.}.A.*X' ;XD.V.I.D.*XI.<.` A.&.I.I.` I.*X;XA.L.A.y.y.*.U.>Xy.A | X.X.r.6.0.R T n 5.Y 6.u T 5.n 6.b M 6.b y e b s s a 4.t t a 4.v t v 9 m a y $ m a s 9 M w 5.m m t v f 8 u a t t 4.u a a y a u b + 5.y w b s M e o @ n T m n r : 0.n r j j n r T f k f g T ..T ; 9.r j n n , i l g ; > , 1 l l T T I 1 l L k h 1 Y i T T 1 T T : f e j n % j 4 g k I k k I 1 5 h k = T g T l 1 T 5 l g R l L I 1 X.R k T I L l 1 I R I I I R 5 5 I L X.I L 5 X.2 5 I X.5 0.0.l X.L 5 L X.*.t.I } } D D { A X.X.L 5 I I A D - 5 D } *.+.-.l.-.-.6 D t.- l L T ; T k k r T O f j j < f f r j r b r e e O b T f m M : O n y w t o c 9 d X % d 0 f % + e e % w % % % t d d $ e f c d % $ o m j r o % % e n o m @ j : # b f % 5.M m , f f % d e f o % %     v %   c e $   % X o % n T f l k l < , X.t.-.} I } 7 4 A 7 x 5 A A L A 5 U 5 y.y.=.} y.#.#.#.;.=.;.#.} ;.F #.U Z U D U *.#.s.U _ } _ F Z Z A } U A P V S R E E L L 2 ; i b ; y @ a q 8 q + X q q X X 4.X q 8 v v a q a 4.a 0 a 8 a a a X q q a q 8 X q q q a v 8 v q 4.a q a q a v q 4.4.v 0 0 0 c m m i n r n j n n 5.9.d 0.: j j 5.5.y 4.4.s 5.s s u b 6.e 5.5.m 5.5.x.5.m m s s 5.Y m g E *.*.-.y.U ;.=.Q r.=.y.r.#.y.r.K.y.y.y.y.*.*.y.*.R r.T Y 6.Y ",
"r.p Y p p > T T L A -.L.L.;.U.#.$.A.I.D.I.A.A.P.I.I.}.S.S.<.A.I.A.D.A.I.I.I.;XI.Y.I.&.A.A.I.I.N.I.I.;XI.I.A.A.&.I.A.I.;X;XA.I.I.D.S.D.S.D.}.D.*XF.] V.] mXS.I.*XI.I.A.}.A.D.L.A.#.#.L.*.y.r.X.7 I l T T n k j : u b b n : b n n b b y m u Y b 4.s b s a 4.a m m 0 M 5.c a + a y c m 9 5.n e y y 5.N 9 + 8 v a 8 a 5.a a m 4.t b b # 5.b b 5.m M o r m 5.m ; y 6.e 9.b : $ f n u j j Y , g k T Y O j , : n T > i 0.Y , g g i T T T I T 5 k T Y j i . O Y Y O p i r d e e j % g < n 4 T g I I 5 h h L l I h T h k T I T I T l T I 1 0.T 5 R 5 1 P L E I R l I T < 5 T L X.L I 1 R = 5 5 I l I X.L X.5 } O.t.+.X.} -.} 6 D X.} t.I I L R R 5 5 5 D X.} -.-.-.-.A } 6 U t.1 6 0.5 > 9., T j T   < : f < f , g f , n r e , r n T m T k , X n e O w   c 9 0 $ + f 9 9 d $ e t e e 9 e w e % e $ b d e e o % $ e d y % e $ d d w n % e 9 . M e + x.e e e % r $ d $ v d f   m 0   f N   e $ o e   % O j f = < 4 , , < A U X.U D I 7 L X.L U L A A I 5 A r.D *.I A Z U U } #.&.F &.S Z ;.F W U F #.D U } S #.F _ *.F F Z - Z S U S U A V r.R I , * u i @ 5.u + X q a q X X X 4.q X q q X a q 3.v a X 3.q q a q a a a q X a a 4.8 q 8 a a 8 a q 8 a q 4.a 8 X q q v q q q 3.q q z t c j b n r n r n Y b 5.; , e.T y Y j m Y Y s 5.4.s b m 5.0 y m m u m x.X 6.X s 5.5.b 5.2 T y.R U U.=.W y.*.=.*.=.K.y.y.*.R =.=.*.*.=.U y.r.R R y.6.r.Y ",
"x.Y 5.K 5.Y 0.L I U s.L.N.#.8XN.A.+XL.A.I.I.A.A.V.L.M.L.Y.I.I.A.I.;XA.I.D.F.Y.A.F.;XS.S.I.;X}.I.;XL.L.m.I.A.I.&.D.D.I.A.A.V.I.I.<.S.V.Y.;XI.&.*X*X&.}.D.;X] ] +XA.A.A.S.&.` [ U.&.U y.y.-.I { U I h ..n T 6.T j Y 6.j s 5.; 6.y : 5.s m   3.9 u 5.4.s 4.5.t 3.m c 3.c 0 m y 3.y m 5.9 e.M y b m 8 m t a a t a X 4.4.s 9 5.6.w m c 9 e.v w e o @ e 5.r d Y y y n , 5.r M : d j , : n 0.l k M L x L y 0.i Y n , T j g 1 g g ; 5 < T L X.h L l 1 1 1 > Y j p j T . d e : e n , j : R < 0.h ..L l I 5 k T , l h 5 T Y R I I k 5 I I 5 X.L 5 0.5 1 R L R 5 T = X.X.I < I 5 T l I 5 X.h I < T L = X.R L 5 X.y.*.I I } I U 5 6 X.} X.A R h I R D A D _ } @.-.-.+.-.I -.7 X.X.7 5 t.. 4 l.. T h k O r 4 O f f < j : % f r : % f j e j b % c . N   + m o m o q v % f X o b $ $ e d d % o e t $ t o d e e e $ d d % e r j b $ k   % $ d j f e m % % 0.o f $ o e % f   + % % X N % % 0 + o o e % j o < O f 4 4 f < g T I 7 7 U } I D = A X.6 U 5 L A I A I L P U A U U *.<.#.%.F - #.#.F N.Z F F *.;.A } U D } F #.;.F U A Z #.U P V R Q *.Y Y i > . p u # u 9 8 8 q q q q q m q 8 X X q X q e.q q q 8 4.X q 4.X q 8 X a 8 a a q X a 8 4.v s a 8 a 8 4.X 8 4.q 4.X 4.a q X 4.+ 8 0 c e 9.e.j j r Y 9.6.y Y 0.f k 0.r n y y b 4.5.5.m u b 4.4.5.4.a 6.4.5.b s e.m 5.4.s 5.6.; L X.U R L.#.y.#.=.=.Q A U =.Q =.S *.*.*.#.y.#.y.7X*.R y.r.R l ",
"y.Y 6.> 6.6.p L *.-.L.L.;.L.U.A.A.;XF.&.F.S.L.A.V.A.A.I.D.A.I.F.I.*XI.I.;XY.I.}.S.I.D.Y.*XI.D.A.I.U.Y.&.Y.;X;XI.<.D.&.F.I.A.I.Y.D.I.V.;X=X*X}.D.=X}.S.D.V.D.D.D.N.N.V.&.Y.] P.;.L.*.U y.r.I X.X.T T 0.6.< > : 5.y m i r 5.l T m O 6.b m # m u 9 m y m m m a a b 3.0 4.+ c b c w m m y b m b 5.e.+ f v X v q 0 8 4.4.a 0 y m b b 9.b b X y # b 3.. e e.u 6.e.r O j j T n d r 5.b : j j g g g l , , j Y k n , k l j i g < l i ; , X.X.5 L T 5 j , r p i j T p Y ; Y r o O n % g r M < X., 0.I l T = 0.1 T X., l T I I I L 4 I h I X.L T 5 X.h L X.L L T 5 I T l 5 5 L X.g Y h 5 T I 5 5 g X.L T I I I X.X.L R X.} I D 6 5 X.X.L I R Y X.X.A = G s.%.} -.D 7 } 6 I 7 I 5 | l t.4 . e., j T : < f   g n l f j . , f f : j , b : f j d . d e % $ v o v o q + d e $ t d t % d e 9 c o $ 0 $ o m m o m d d o 9 w e m o d d e 9 $ d o b f e # j % m 9 t b e % e 9 d o o X N % X d 0 0 d % +   n % % < x 5 4 & < Y X.X.* X.A } I 7 I 5 } 5 D 7 A I L A E R A *.R - U U -.U.Z Z D ;.;.F ;.F W F U U A *.D Z *.Z A } U Z F #.*.U U V A r.p 2 ; Y . b y u w a X 8 X q q q 4.X X 3.X 0 X 0 0 X q q X a 4.X v a # a q 8 a 8 9 q a X v 0 X q q q 4.s q 8 4.q 8 a a X q a q q a a q 0 v c m 5.e.5.l j n T T 5.6.T 0.f T j T @ M b e.m 5.6.y s u 9 5.a 8 4.v 4.4.m s 5.8 5.4.8 6.g h r.y.y.T.U.K.=.=.y.y.L.K.L.*.y.y.y.y.;.*.y.#.s.r.L.*.y.E *.2 ",
"Y p 6.E r.h A I *.;.P.s.&.L.L.%.;.I.&.&.A.P.D.I.&.I.I.I.F.&.S.}.A.I.;X*X}.S.M.M.V.I.S.A.A.V.A.S.Y.Y.pX*XY.D.Y.G.Y.;X*X*XY.D.S.D.I.Y.V.I.*XV.C.mXD.*XC.*XF.I.A.M.S.I.M.' ' G S.L.U.W l.*.U L I 5 L 4 l j j 9.n T y T y j j T j j m a 5.@ s m t y y m s v m b 4.w b c 5.a t 9 y y 5.+ 3.5.  M 5.5.% $ v 9.8 X m 9 s 8 b m 9 @ t + 5.t b 5.e 5.M b j e 5.b t   b 0.e . y t b d n : 5.T f l f l k T . , O r r O j i k k Y k k Y r L T R g I T g L l i i j p p i j . e.m : $ n : n , h , T < R T 5 g T R < k T 5 h I T Y T L 5 l , l T I X.1 R T I R 2 L L 5 L I k L I L 6 < X.T l 5 5 l L 5 T 5 R 5 I L -.X.X.} X.U D } A } X.*.{ } I L I I I I @.y.@.-.X.} X.D 7 t.A X.T h X.k h g T Y g , Y l r 4 n M f , x % f < g f f r j r r e 9 % $ f 9 t 0 X v q d o t v t $ % 9 e y w % e 9 f e o $ M M e d O y + @ e e b e o $ d e f e % b o : @ 9.9.0.t % d y + d u 9.d d o f f X   0 $ f t e % . o k k M 4 < & = x I R 7 -.D I D A R 6 T - I A I L A A I A A *.X.Z Q U ;.=.#.<.$.F Z G ;.;.;.Z Z S U -.P A } G } } #.F U } U L U R E Q L i # y O n u 9 e q X 8 X q q q q X + m 0 X 8 X X X X 4.4.X q v X a q a q q 8 q 8 8 a q 8 q 8 a a q a a q q 8 q q 8 X a q q v X 4.+ + d c c m m m Y b m Y j ; j 6.k 0.T g : 9.m Y y d m d m b 3.9 v e.s w 4.5.s 4.5.s m 8 5.6.5.b T 2 T L D -.#.#.W l.=.=.E L.K.#.=.#.-.=.U.U L.*.U K.*.y.l.R r.R ",
"6.6.Y 6.0.1 R *.y.L.U.<.&.U.U.A.<.I.A.I.I.I.&.A.S.A.I.*XD.V.F.S.&.D.Y.I.D.S.Y.;XY.;X}.A.M.A.I.D.Y.L.I.A.I.;X;X] [ M.M.M.M.A.&.V.D.S.I.Y.Y.V.C.D.D.;X*X;X] V.V.A.*XS.] D.S.&.A.$.N.U y.U I T X.T M k n f < n r : j T j j j 5.j j T 9 m # m y y y c e.t b 3.y 3.@ 3.t v w 3.y b + 5.u y 3.X T u y 5.0 X m t 8 v a a 0 # # 6.m m 8 e v 5.+ d c       M w 5.: Y b M e.b 0.r j O r : y l : n g T Y T r T O r i r T k , l h k , h < L I I l I T 1 j i i ; p i y b Y p 9.t w % M % T j ; n R g I 0.< L T h = h h , < L R R L k 1 5 , I I k X.h R R I L 2 l h L L k L k l T 1 1 T I l 1 l k M 5 T I X.L I 6 *.X.*.{ } 6 5 X.6 R I U I I U I I U X.;.y.;._ { D D } 6 D L , t.5 M T 0.l 4 n g % % T g r x z j $ < j & , % g f f r j j f : o f # 9 o t X X c o 9 8 t t % 9 % 9 t e e : $ d t f o e b m e e o t @ 9 e 9 d d $ 9 $ 0 t 9 o m : & 9 f f e O o w 9 o y # t + t 0 N B   v m   x.% O c f n :   T h 7 < x T L L = t.U | U } I h I = I I I L I A X.L I *.*.A U A *.} Z F G =.A.N.N.F #.F Z P D *.P F - - U #.-.-.A U U A P I L E 2 i # u y b 9 9 0 8 q q 8 q q q X X v 0 + + 0   8 8 X 4.3.X q q q a s a X u 8 s 8 s a a X 4.8 s a 8 a s q a X a a q a q q q 4.X 4.q X + 8 9 e a n 5.Y , n ,   r 0.g T 0.g b T y M @ s m $ c m b b c 4.m 3.a e.5.t 4.s 5.6.4.u 4.5.6.u T R R l.y.;.*.=.=.U ;.*.L.W P F W *.U.U K.U.W s.y.l.K.*.y.R ",
"r.r.p Y Y 1 Q t.s.<.U.&.%.&.N.A.N.I.A.A.&.I.A.}.;XA.P.}.I.F.I.S.I.S.M.S.Y.*XI.A.' S.D.Y.Y.D.I.A.A.S.Y.*XV.S.'.S.;X-X;X=XD.;XF.D.I.V.*X;XI.*X2.] D.*X*XD.M.Y.Y.;XN.S.S.I.*X&.&.#.s.y.L 5 1 5 k 4 j f n M r b j T b Y j : Y n n p b 5.b m m y m b b 5.t y 5.t m e % c e.c c + m a a M m w 5.9 w u % c v   t c 4.+ 5.s a w a X 9.d + 5.+ m e $ e.M j e e.T w 5.  b j   5.r 5.e j d y n n n g T 4 . l n O g r j Y k i j p g < 1 i T l I h L l , < ; n > j s Y Y r j w # w : j   5.g   T T T L X.< k T k 1 T T 5 k l 0.w.I I I I Y t.R g I L R 5 L h 5 A 5 h l 5 5 g = R 5 I L g 5 5 X.L 5 h 0.X.X.X.U I X.I X.R } L 5 } U { I } I I A I I } } t.+.} I D I 5 R I I 5 5 e.% R : t.. & 0.< , M M , n 5.: k l j l % g j j j g f f k f $ 9 M o 0 9 b X t v 9 a d v t $ f d : d e d c o e % t $ m d t t t 9 m 9 @ u 9 e t c N X e e d X N f o 9.: T $ e t b + X m m b e M X B v q % m   0 e d d   j n & < X.l 5 6 h 5 L 7 U I U D R L L r.- I U R I U I y.A L U U 2 U A ;.U F #.#.#.H #.` S =.U D D 5 *.*.I U #.-.U } -.*.D t.*.I 5 L j ; : w w u 8 + 9 X X a X + X X a q X   0     X 0 X X a q q q q X 8 q 9 8 X q 8 q a a q a 8 4.8 X a 8 v 8 a 8 a a a t a 8 q a 3.q a q q 0 + 0 c 5.0.x.T > Y T i n 0.k l 0.k 6.k u n @ m y b a c 8 5.t a 5.4.8 e.6.a 5.v v 5.5.6.e.b m i R y.U *.*.*.S W *.=.Q U *.U *.y.y.*.;.=.*.s.N.s.K.} T.r.P S ",
"Y T T R A 5 U *.U.A.P.I.I.A.N.I.L.;XI.;XI.*XA.A.;XY.*XS.<.] <.S.V.D.Y.*XI.M.M.A.*X;XY.S.S.A.D.I.;XY.Y.;XD.*X*XC.D.D.*XD.S.mXY.*X*XY.I.*X;X=X] Y.mXD.;XS.G.=XS.M.V.Y.G.' V.A.M.&.U.y.L Y Y R 0.Y n f j n d m j j n T r , Y u n y # m t s u u t @ y c b $ 5.y m m t v c c b 3.m @ s 4.m t m m 6.o 8 % N X 9 d c 9 a 5.b a d # b 3.m c d m e   9 b 9 5.$ d 9.n m T m @ 5.% n r : # u r g ; , T T k j i > r , n j l j g g 1 g , n I T { I I T T l p j > s ; 6.b . b r # r : y   n r & T < Y L T 4 1 T Y * , T 2 I = X.T 5 5 h l l r.R 6 I I L 5 2 L 5 L h L I l k I 4 X.< M T 5 g , T 5 < 4 I L I I I X.X.I I | U I 5 5 *.D X.} L } A X.*.t.*.-.R X.D I R I r.k = 0.y.T g 0., T . l 0.= , 9.f < M T % l j j r & l T l x f f r e , $   f o X % 0   d + + t % X e o o c e f $ d c o e   % $ b $ o e 9 u v w 8 t w 8 t $ 0 # + b % X f O o f e m X : % t   @ a m o X d + % t v X B v M o 3.b O < g < T < = 4 I T X.T 5 *.X.} A 6 = 5 0.5 6 A P D L A r.A L A A - U U =.#._ %.&.;.;.;.#.$.&.S S U - I A D *.X.U L A D U 5 *.X.h 2 , , O d d 9 t + 8 0 + q v X 8 8 X s 8 X d m   m + + 0 X a 4.v a 4.q 8 a 8 8 8 q s X v q 8 s 8 a q X s q a 8 4.8 4.8 a 8 X a X q 3.X a q a 4.q 0 m 5.M T j : 6.Y i > g T l 0., Y n b n b b s 5.t t 4.a t 5.4.o d 3.v 5.a 5.4.3.m m 6.4.6.5.s l.*.y.*.U U y.U.y.P W *.U U *.y.=.;.s.W T.U.#.U.K.K.*.y.A ",
"T I 0.I L R #.-.T.A.A.S.I.A.;.I.$.N.N.$.#.I.I.+X&.&.U.F.S.2.S.*XS.A.A.D.I.Y.*XY.N.A.A.S.I.S.V.M.Y.Y.;XY.S.(.;XC.D.D.*X(.S.;XS.S.S.F.F.S.&.C.' I.*XM.*XV.Y.mXA.B.Y.Y.M.M.C.I.$.=.U.S *.L g Y 6.: : e e y r T M j n 5., n k g p n s v m w y 3.m y t y 5.$ 3.b 3.3.+ 4.c 3.  4.t y y m e.m @ w M m 9.M t 9 c e X m a a 8 e.d 5.T d + m v 8 e.c d m m M j b b e.$ e T c n o y y j b 6.j n : i Y l n T g j j r k , Y g , i , h , T n 5 L 5 < 5 h g < p > > : 6.n . 5.5.@ y % r r j f f R , I k l I L l 6.1 h 0.5 X.5 0.X.5 T T T T 0.l L T h 5 L L L < 2 1 , 2 1 < 1 Y R 5 , T 1 I , I T I T ..I X.X.I } } I I U 6 D D 5 t.5 U I 5 { 7 X.%.-.U I 7 U L 7 R 5 T I 5 L 0.. 4 k ; b . , j f : k O , f m e l 4 < , o x M f g g , : O $ e X c t % v 0 8 v 0 9 v t $ N $ f d $ d 9 9 d o d w t b m m f b d # u 8 w c t @ 9 0 c d o 5.X 0 M k 9.. x d o c 9 a @ m e 3.9 8 o % + X 0 0   c x.e d w d M n ; l ..k I I 5 5 2 5 U 5 5 5 L 5 Y R R I } X.R X.L *.R I A A 5 U U *.F D #.#.#.H #.H H W Z D *.7 5 - E *.U P *.U I A I I 5 = ; O ; : d   X q o X X + 8 4.X + 8 X u + + 8 c 8 8 X 8 t X X X a 8 8 8 q a 8 s a 9 4.8 a 8 8 q 8 0 4.X q 8 8 a v a v X 4.v q a 8 v 3.q q v q v q 0 o e : 5.5.T 0.Y j , n l g T p j n 5.s m 4.4.a 5.a e.q v 4.d 0 3.3.4.5.4.b s 4.4.s 4.s 6.Y . 6.r.y.y.R U W K.r.K.=.T.;.*.W L.*.y.#.G N.;.;.K.L.s.;.K.*.",
"y.X.T A I y.L.s.I.P.A.<.A.I.A.T.;.S.+XI.N.I.I.}.F.A.*XV.}.A.&.&.A.M.A.G.S.S.I.I.Y.*XI.S.S.S.S.N.;XS.I.Y.G.] Z.D.D.Z.C.D.v.I.V.A.S.F.}.D.] D.D.G.*XS.G.V.V.S.N.S.C.Y.C.*XD.M.&.$.W Z 7.h I T 0.3.M 5.M M d j d : k M Y n n T u T b m m @ s m b t m b 5.b b b s v 0 c 3.M 8 s w m e.u 3.# x.w m w $ e.3.f d 0 @ t 8 b b M m b e w 0 f b e X e.m m M o b 0.e % e.m : T 5.d e j y r k : j k k 9.k T n g j g r ; , T i g j I l h R T 5 T T h h T k , Y n Y b Y p O p m @ y : r n r k n n T T k Y I T ; T 1 I T < l I T I 5 I T T R T 5 I Y 5 h I 5 T L 5 T 5 l T 1 l T 0.6 1 I , l h g k l L I 5 I { D I R D U I A I I I -.I | I A X.#.L.-.-.U X.D X.T 2 X.l I ..X.& T k h T f t.l f j T , T < M f n b M f , k f T T f , f , f o : e o e 0 9 9 9 + 0 d + 9 t 0 c % f e $ d f $ $ $ b @ + d e c e 9 % 8 8 8 u t t 9 9 o c 9   f   + c $ N   n d % m t a X 9 o 5.5.c   v t N / 0 8 9.0 % f 0.: O g , j 7 < x 0.l h 5 E t.R L U L 5 1 h L D P D I *.5 I P A L P U W *.*.*._ =.;.;.&.L.&.F $.S A U A U R - U U A U - A } r.L 5 4 ; : r e v + 0 0 v t + v X 3.X + s + 9 9 % v % o 0 X o 3.8 X X v q X q 5.q 8 8 s 8 4.q a 8 a q s 8 4.q s 8 8 q a v q q 4.3.4.8 q a 4.4.q 4.q v v m + $ j Y 5.T Y ; k > T k > j 6.Y y m s 4.5.5.9 e.4.5.c t v t 4.m M 3.5.s 4.b b m e.e.a 5.4.Y 6.7.R *.s.=.y.*.y.r.=.*.S S U -.*.;.U W <.W #.;.K.Q #.L.Q ",
"0.I X.I U *.s.=.$.A.F.&.&.N.A.L.&.A.I.A.&.&.K.;XA.L.I.&.I.A.<.D.D.A.S.I.D.S.S.A.S.*XS.A.D.Y.*XI.Y.S.S.S.*X&.D.D.G.Z.v.S.V.*X*XY.S.I.D.S.S.V.C.;XY.Y.M.S.M.D.S.A.G.=XD.G.D.I.8XH - y.T g n y r T M d t T m j j j j e 0.r m T u Y b 5.0 s w w c w m c d 5.c t 8 s e.9 5.9 e.3.m y a 5.4.6.6.: b m 3.f   f m   3.u y 8 6.9 n @ M b 9 5.m 3.5.m o 9 # z.o b Y b n : : 9.b y : n b : r d j n r 0., f l j j i g # n 0.; g j 6.p j 6.R * I R 5 h T p . p u Y j p s i r r # d % : n . j Y = T g L ..L , l T ; l h l , R R I < L I R X.T I l 5 h I L 1 R L 2 Y 2 g R < l T 0.< L i T , g T l 2 X.T L { y.} D U 6 O.I I *.A I X.I I A D -.} ,.F A 7 X.A I I k I k R L T < k n g l 4 l < T n x : ..% Y f f 4 j < : k 4 x g g % g e n O e t 0 0 $ 0 X 8 $ $ 0 0 9 $ 9 M 9 $ c e d c $ e e d $ 9 M e b e $ e s 8 t 9 9 9 w e X N + 0 v B o f b 4 b % % o $ b + o c d v 0 B 0 t N 0 X N d 3.v b   5.e , g < x I g T X.5 , = X.X.L - I 5 L 0.y.I U I 5 2 X.5 h R A X.U Q R *.D ;.%.;.#.#.#.N.H Z #.F F *.A I A U L L I U - I X.5 < h l : j d o 0 X 0 X a v X + X 5.+   t 8 s b + 9 9 + t   X v X X 8 a X 8 8 8 8 8 8 8 8 q 4.u s s q s q 8 8 a a 4.0 s a a a q q 8 q 4.q 4.q q a q v q m v m w 6.b j i > 0.j T T j l r.k j 6.s 5.u 5.v v a 3.v o 5.c c 0 3.5.e.a s u 3.u 5.4.s s u m n r.r.U y.Q y.K.S U P y.*.U K.*.;.#.*.;.N.&.;.T.#.s.K.K.K.",
"y.A I D l.;.L.A.L.A.+XV.A.P.I.;XD.I.L.$.&.I.A.A.I.N.Y.Y.L.G ' D.;XD.V.&.I.*XA.D.A.D.I.D.S.&.D.A.Y.M.Y.I.*X] D.;XG.V.V.S.V.M.V.G.D.G.] D.D.V.D.S.;XS.&.Y.S.D.C.(.(.H.*X&.Y.L.L.*.3 6.T T K s Y p b s b y j s j n j j f j n M . b b $ 3.m c e t w e.# u 5.+ m 5.# 4.m a 5.m b w x.b m u 5.u y 5.b Y m   b b n b d @ b M m w b 9 M b d e.  5.t b # M 6.m m T r i j ; f j 5.: j 5.O r b T o k T . l T < n f % k O j n n j i O j Y Y I 5 l h I T h i , j i n T r g m o . m O r f f d , g Y k T i X.4 1 0.* Y I 5 h T h R L k 1 r.R T l L I h l l 1 g L , R , Y h < T i T ; k > 0.1 k h T 5 I I I X.-.} D +.I I R I I L T } 6 5 U } s.-.} D U 4 X.2 } l L R 5 0.5 h l T g f l l < < | r g < 0.  l 4 n < < & l M x , y r y j e j % f f e   9 w X o 0 t e % d % @ m f e d 0 e d e @ e % o $ M d e d $ e y o 0 0 0 8 0 9 + 9 9 o $ : . o c m   e b # 9 % + X $ e.0 o N X N 0 + 0 t a o o x.k f , M . < = 5 t.1 I 4 I k I L A 5 5 - L 5 = I U 2 A I 5 k 5 . 5 5 I - S R *.W U F ;.` Z #.#.F U Z F S 5 D 2 R R *.R *.1 L L ; ; p : i ; O w X X 9 + 9 8 8 u X a 8 8 8 8 a a X 9 8 9 8 8 X 5.X q 8 8 X 8 8 X 8 a q 8 8 a 8 a 8 8 X a q q q X a q q q 4.X q q q q v q q N B q v q q q 4.q v q z 8.l n T Y = n f 6.Y M 6.j 0.5.s n u b m c d c a m v m 9 a b e.t y 4.5.w 5.u 5.4.5.s s x.y.E R y.*.y.W =.W *.R F U T.;.K.*.U W =.;.T.U.L.=.K.U.",
"5 5 *.D ;.;.L.<.A.$.&.N.A.&.&.I.;.D.S.*X*XI.F.M.;XL.L.A.A.$.N.A.A.S.S.I.I.A.*XS.D.D.I.I.I.I.*XD.I.S.;X*XY.A.D.S.H.S.S.=XdXD.V.Y.v.M.Z.I.*XA.N.D.Y.A.V.G.Z.D.D.=Xn.n.v.S.U.;.I E T h Y : m s 4.4.Y y y y 4.Y b u j O y n e 5.M 5.c e + 0 m w 3.# b a u 4.b m 6.4.m 5.X 3.a 5.m b Y b n m n > M Y w 5.e.O # b 5.m @ u 5.3.m e M c o d m 5.8 5.5.5.m y $ n r.j 1 n : : M j e % n e m n M b k M : x b % l 5.k M . : k Y n j > n T n 5 4 h L T T g r u l j T Y , g k o 9 T % T r j T f T n k h h T l g X.h k T 5 5 T L R L L 5 X.R X.L 5 5 1 I I 5 1 L g R , L T h L L T i < g T Y k , I 5 R D I I } { D X.D A I I I I X.U 5 U -.*.-.D I I U 7 X.6 X.I x { l X.h l 5 k 6 < 5 k g l ..< 4 f 9.< x l M < 4 , x Y T j n r r u : e c 0 9 0 o t t w e e d 9 o y % $ b f : t : w t % $ y % e d f e o e + % 0 t v % % 0 v 0 9 d d e N e n f m e.$ d m o d d $ 9 9 N t N 5.t + m N $   9.M b j $ T , T & < M h y.L T < Y l T X.U U U A R R R L U U R R I I 5 5 } R *.U R =.*.#.&.#.=.#.F -.#.G } } *.U Z R *.I R r.L T * Y 6.j > > # s u ; % w + + + 8 8 a s a 5.8 @ X a 8 X + 9 8 8 q q 8 4.8 0 X 8 3.a q 4.q v q a q a 8 q 8 a q a q q a 8 X z q q q X 4.q 8.v X q q 4.v q v q q q 8.q q v 3.3.Y g l 1 l 0.f T Y l R Y 6.Y j b b n M d m M t M v 3.t t u 3.e.b y m b e.m 5.Y 6.4.m y R X.y.;.=.S #.S W U y.K.y.K.;.#.U =.L.#.;.U.N.U.=.;.N.",
"R X.y.s.T.;.<.` I.A.<.A.A.L.;.L.$.A.M.A.I.A.I.A.Y.L.I.A.I.M.L.A.I.I.*XI.;XI.A.A.N.A.D.A.I.S.Y.A.S.N.S.S.M.S.*XI.Y.S.S.C.V.Y.-XY.G.-X;XG.;XY.Y.Y.*XM.S.Y.=XI.C.G.'.(.G.;XU.U.R R r.j Y s 5.s s s b i n y m m j j j j b r n d k M 0 x.c $ m t 3.u u y 4.5.n 8 @ 5.8 3.5.6.# b @ s 5.m m M r y # b 3.m m u 5.b t $ m t m 5.5.c e.b $ 0.5.c 5.5.0 c b 5.u T 5.r.j i n < T e j : b j n w d f % j , n T f e 9.m n : j : f i j : Y 5.T T A 5 4 < g g T : i j k g O < f # : f o m   o k i R Y I 1 T L T , I l 1 k l 1 k I R T I L R h T < 1 I h T l 5 g T g T g h T h l k n j i k h T 1 5 T 5 R U X.} D { D X.D 7 I I I U R U A +.y.} X.I I R A 7 I 5 D U l I I I 6 h 4 g L 4 5 k g k n Y l g T < j n T . = < g g r ; , y : r y o m 9 $ + o 9 e @ + + y b $ f 9 : c : $ e e % $ + % d o f b e d $ r 9 % 0 e c 9 a 0 0 d 0   % % f   f $ $ 9.o e c   9 e + f v b + X % v + X t m o M % / f   5.f % . 4 5 X.y.T I & g = g I 5 U A A L U X.A X.R } R R 5 - 5 5 5 U - U U S *.#.} #.F F *.F F } - U U U D D *.R L > Y 1 j p j > ; . u u @ @ a 8 9 9 s # q   u 4.# 8 X a 8 X 8 a w 8 X u s a 8 X 8 q 4.0 q 8 q 4.X a q a 8 q q s a q q a a X 4.X a q q 4.v q q q X v a q q q q v q + q X q 8.M b T n Y , L 9.Y l Y n 0.k n n m n 6.M n 9 3.M a 3.a m y b b 5.5.u y b m 5.m 3.p b m b y x.y.T.*.=.T.W ;.U y.K.s.y.y.U.=.#.;.;.=.y.N.! K.$.m.U.",
"y.Q U *.U.y.U.K.U.I.L.A.N.I.M.;.A.S.I.&.;.Y.I.I.L.I.Y.I.U.S.Y.I.A.A.A.;.Y.Y.N.Y.A.S.U.S.A.A.I.A.S.S.I.I.M.I.Y.M.Y.&.I.mX*XY.;XS.D.dXV.C.G.S.I.C.S.&.S.S.D.D.] v.Z.Z.V.` *.L L Y p h u Y Y s s 4.m b n y i b j b y M j e c f : e v 5.$ 9 9 m c $ 5.8 b m @ 8 u e.# s 5.a 9 s 8 b s b b s 6.m n Y y n u w u y M 5.m e @ 5.d M 5.m m d m 0 9 d c @ t u y y 6.b Y j j f d : d e e e M : j k < 9.< M 0.n % j % , : n f d r r O j n T < 1 I L 5 g h T > i n T n , r g d M j d n O < Y f T T T g I 1 I i k g = 1 h l L M I I T I E 2 5 2 5 T h L 1 1 L R < , L h h < g M Y i T i Y Y < h I = I I } I I } U X.L 5 I I I 6 I I D #.} D } D 5 7 5 I X.L L k 5 l T l 5 l 5 5 M < l T f g 5 9.k l x : 4 n x B x x M l k r j w w d c o y e % t 9 0 w 9 $ + d d + O % % e % o f 0 $ $ o e d o e j o d % e % o t 0 9 0 m 0 % 0 v   m $ : c f < . 3.# w M   % t + 9 9 f v B X 5.9 8 y N 9 3.$ d n   ..T < 4 . . X.R x l 5 T l X.L U R U X.U R X.A R U L I X.5 = R I L } A *.*.F ;.F S $.#.F $.D U #.Z I } } 5 A I T L 1 Y > , ; ; # u # : O   # w 9 # + # # 4.8 X a # 8 X a 0 8 q s 8 8 X X 8 a 8 8 0 a a 8 q X q a X 8 8 q q q a a q q q a a 8 q q 0 v q X q + 4.4.q q q q q q q 4.q + v v v N d j T T X.h h T l f Y r 5.n Y n T r m w c b 3.+ v 9.0 m c m 3.5.u y 5.5.m m y 6.b b 5.Y b 0.0.y.U *.H ! W K.U #.=.W L.K.=.=.#.F $.L.N.$.U.N.N.U.",
"Z U Q U ;.;.Y.U.N.K.I.L.I.L.N.;.M.A.I.N.B.I.&.&.I.I.I.N.I.I.I.L.I.I.I.U.Y.A.;XU.L.I.I.L.I.L.Y.N.L.I.N.A.' S.Y.U.Y.Y.I.C.M.Y.-XD.G.=XC.mX;XC.M.N.I.D.Y.M.v.Y.S.=XZ.S.*XU.U.E P 7.Y m s b Y s 5.6.6.m j u y Y b y y j r M $ M m f m + o b t w m c c m b M b 6.4.s a 6.v t 4.b 5.v a 5.4.u 5.u b 8 b m 5.M m t + d w s t e.@ m t 5.b # 3.c c t 5.a w 9 n n 5.r j L r M f r b e b e w j e j f M . . 5.5.: j : f r r j j r i ; k n n g 5 k l g g i Y ; : g n k r ; r : e % j $ $ f n j M T T I j < k I 6.1 h < l I k L l 5 l I T 5 L T h l , l g 5 h T < < T 1 , ; g L Y < k . 1 h < h L , U X.I U } X.T T I 5 U U I I } } -.y.@.D X.X.I I I I D 7 - 7 5 k I h l k k 7 k < T 0.l l , T g M T l : l f 4 k x k , f r j : u t y $ o c X t #   X $ 9   @ 9 # % e d d : + d e 9 $ @ e d % m M + e # e 9 o % t q + t z 9 + +   c     9.n o $ M   e M   % m   X X % d f X 3.0 9 + o 9 c $ % f . f   k 4 g X.X.1 I 5 T g 5 R L U U 5 R A 2 R L U L A L *.5 = 5 5 A L = U U - #.F A $.*.#.#.D F U D U t.*.A 5 1 1 5 g j > y >   # s 8 u @ # # 8 + # 9 8 # m 8 8 s 8 8 8 # 8 8 8 5.8 8 s a 8 a 8 0 X 8 4.0 X v 4.a a q a v q q q q a a q q q q 4.4.a q v v v q 3.v q X q 4.a v v q X q 4.q q q y 5.Y Y 6.T l 0., j 0.< Y 6.6.j y j 6.5.9 e M M c 5.a v m a b c m 4.y 5.y m y e.Y n 5.: j T T y.T.W W W K.;.*.y.K.#.L.=.#.=.=.#.L.U.K.$.N.#.H =.",
"U y.U.L.U.L.U.N.N.L.Y.N.L.A.L.A.A.I.A.I.I.L.I.I.L.Y.S.A.Y.I.A.N.L.S.A.N.L.N.N.N.I.I.S.N.I.L.I.N.&.S.A.;XY.Y.*XY.*XM.S.Y.Y.Y.;X=XM.H.=XY.*X] m.Y.Y.S.&.' M.C.v.Y.D.I.L.N.Q L Y 6.6.p 5.s 4.Y b 4.5.b b m b 5.n m b m M r T 5.3.M 8 5.v c 5.o 5.3.y x.u a 3.v 5.m a 5.4.u s m s 9 8 e.a b w s b 4.5.w b o Y 5.w 5.m b m 0.t 9.b e.M y 5.m e.3.m u 3.5.b 6.r Y i 6., n n r T % T r O e.% k T l n 4 n Y r r j Y j > r j g j f 5.5.T 5 5 L T T l = < Y n j j j j f 6.d % e n % k n x j l L M T 5 l T l I < T 1 L I l L , 5 L T T h L Y I L x I L 1 k l h r L 1 g g 1 Y T g T l h 0.L h I I X.*.5 U X.X.R I I 6 | } I } D R X.X.U 5 L D 5 6 I | l h I x k I I h 4 l k , T T X...1 5 M T 4 M T N , l j 5 M n l f j f b e y @ y c o m   t 8 y y y w 9 t d e w e e d d u d e e e $ e b $ m M w e $ c e @ 0 t % 0 + q 8 f d + % e $ M T e d c   9 m X o M % N c t d 0 X 9.M 0 + t 9.0 % T 4 T T 9.j T . k y.I 0.X.X.< 2 I I } F - U U A X.U X.D R I X.6 - 7 D X.U A *.*.A U #.F } } #.#.Z } F U I t.*.- * g < , j r : y : # # w # y w 8 @ @ X 9 m b # @ 8 s 9 8 8 9 8 8 8 X 5.# X a a # 8 a 0 X X 0 a 8 q s q a q q a 8 8 s q a v q s a a q q 4.q q q X 4.X q 4.q q v q v a q q v v q 4.4.n e.j j T 0.j 0.n n T j T 5.h Y e.j b 6.b 5.m c 4.m v c m a m a 3.5.w m y 5.b 6.5.b Y s 5.Y R y.y.#.N.;.W =.S *.L.K.=.U.N.#.N.$.K.N.=.;.L.I.U.Y.",
"U.;.;.L.U.K.A.I.A.I.A.&.N.L.I.N.A.A.$.&.A.A.Y.Y.N.I.L.A.U.L.N.U.A.N.L.m.U.I.;.Y.Y.I.I.I.I.N.I.N.N.I.&.A.A.M.V.M.S.' S.I.M.Y.mXM.[ G.=XM.V.S.Y.Y.Y.S.M.S.*XB.M.Y.S.;XI.=.A 7.E Y Y u E s 6.5.b m s i b 5.n n M 9.n M 5.  x.n d T 9 9.t 8 m b b t + 5.b v 5.w 3.3.3.t 3.4.4.e.4.s m 6.6.a m u b s @ Y 5.O c 5.y w 5.m y 9.w 5.M c 5.a X 3.X e.a 8 e.w : y Y j l 6.f g j r j % b e O n O : j : n M $ d r o f b j f n n j j r T Y g k 5 5 , , 5 k 0.k k g O r : ; 5.f $ m e $ j j j f k k M n g T I j < < T g k l h T , L T T T L , 5 L T R T T 1 T h L , h h g k h , g , g l < T 5 5 h T I X.- U X.k T L I A } X.D *.} *.-.X.X.U I I U I U L 5 5 I L I T L L 5 5 x 5 ..0.T k g 4 T T f l k , < k x f l f f f j r d y d $ f c 9 d X 9 o y d @ + @ w c u + + o % t $ 9 $ : d 9 e c e e 9 9 9 w d 9 + t % 8 v 9 % % 0 m % o d N % c $ m f % 0 c $ o 3.+ %   % f e o f e e $ % 5.k o n % . T 4 4 , T 5 T g L L g & 2 L U U U S - U R } U *.5 X.R I A 2 5 I *.} U -.=.#.U -.U } } U } D #.F t.U U A = 5 l < k T .   r s O + 9 # w w 9 @ 9 + + 8 s 8 s 4.9 8 u 8 8 w 8 9 8 6.q 8 a c 9 8 a 8 q 8 v s a X a q v a a v a q a X q q a v a a a q q a v X v v q q 4.q q q a q v 4.q q q N N v d T n p T T k Y T Y n n Y T p Y 0.n b 5.d 3.y e 5.a m t m a 5.m b 6.m 9.3.5.m 5.j Y e.6.Y < I y.K.y.K.K.W K.W S ;.;.=.K.L.W =.H $.$.N.U.A.N.N.$.",
"U.;.;.$.K.I.A.N.I.I.m.I.I.A.N.N.&.N.I.;.A.Y.L.L.N.S.N.;.A.N.A.*XL.I.I.I.I.;.Y.Y.U.U.Y.U.I.&.A.A.A.Y.S.S.I.A.A.V.Y.D.D.(.Y.Y.D.V.M.;XH.S.V.G.*XM.$.S.Y.S.*XA.I.=XL.I.N.W V E K s Y Y K 5.5.m s i b s s Y m n b 5.e e t d T e.9 m M + t e.X b y b 5.m 6.+ y y 5.y 5.X s v a # e.c t 4.a m s 3.u s w e.@ n m r b d M b 9 e.o m b   b e.s t a e.+ e 5.c s : Y e.n   0.n d n d n y d e r n N k f < T f M 9.s d r g b j f : > : Y n 4 k I T Y < = , T , Y n g Y r   k + e 3.. , d 4 j 5 T n I g g 6., T & h T k k 5 k T 5 L I L L I 5 l g = l h T i T 1 g . g Y , g h Y T g k h , T 5 l L | A t.5 t.0.h Y k I 5 X.} } } D -.} A A U I L I l I l l l L < 5 x 5 I 4 l I T T x < l T l l T f l x % O f l n x 4 g d j e y $ y 9 c 0 $ X $ m # + w w e 9 + @ 9 9 t e t y 9 $ % % e e $ d e c w w o $ d 9 9 % 0 % a 9 v 0 X v + c 9 d 0 f   t % f 9 0 $   c X o + N v X   v 0 0 X   m 5.o 0.M T f n < 0.T x r.X.k x 4 5 I X.U A *.=.- I I 2 5 F - U I A 6 D L A X.A U D U R D U Z D #.A D U -.7 U - A I L I 0.; $ M O @ y X # + w X + + + 8 + 9 s # 8 8 u u @ s s 8 # q 8 9 X b 8 8 8 # 8 a 8 X 8 X e.X 8 0 q q 8 s q q q q 4.q q q q s q a q q 8.q q q 4.q q q v v q q 4.q q v q q N v q 8.c m T j Y Y T g , T j ; i e.6.s 6.5.5.Y c e.3.e 3.9 9.v 3.m 5.y 8 4.m 3.5.M b 5.i > j Y f 1 R X.y.W L.K.H K.y.=.K.=.L.#.L.$.y.$.#.H K.Y.K.N.U.N.",
"A.L.L.N.I.L.L.Y.A.B.Y.A.I.N.Y.L.N.;.S.N.+XB.;XB.N.;.L.A.I.U.I.I.M.S.A.A.A.#.Y.I.S.Y.;.A.;.V.A.I.V.&.F.&.V.*XV.*X*XD.Z.D.*X=XV.D.C.*Xb.Y.*X&.$.M.Y.;XB.' I.Y.S.B.Y.Y.;.#.A L L p T Y u T 5.@ y y b b M d T j d m b n : 9.@ 9.b 3.e.v d 3.y b e.5.5.c o 5.# 5.5.y 4.y 9 u m t c e b 4.y b a b 5.8 5.b w b : b 5.d w r M e.m f e # e.a 4.b 5.4.v 9 a 5.9 n 5.g j Y 6.f j b M y n @ b r f T n k M N e d e O : r y g n n r k r T 6.g L g k Y k = < O n T T j ; u n b d o e : c g j 4 4 M l T 4 k r , < g k T g I k l l 5 1 L 5 , l 5 I h < w.l > , = k h 1 g Y 1 k , L Y T , k T 5 k X.X.L l U L X.r.5 T 5 k I X.Z D @.F } } 5 I A L L < I 5 I L 5 4 5 I I < 5 < X.L I , 5 4 R x T T l l f T 4 : j n f 4 j j f d t % t $ 0 c + + o e e 9 e @ + u w @ t w t c # 8 3.w e $ o $ o t y M 0 w @ w # a 8 e @ + % d X 0 $   + e m + t 3.  0 X v X % N o X N % e % 3.e o   3.d   X . d M $ j 9.. 0., 4 T T , R < l = . I 2 I U Z S P #.U L L - R 5 L 5 U - L R I D A U *.#.U P U 5 D A - A } D I X.5 L X.. L < j r M # y w + # # 8 + a a X 9 y w m X w # u b @ m 9 # # 8 u 8 8 8 8 X t # # a # 8 8 # 5.X q a a q a X 4.a s 8 q q q a a q X 8 v v + q q 4.+ X 4.q v q q q v q v v q v q z X q d j h Y Y Y T Y e k n r l T x.p T j m b m x.a e.a 0 5.5.v a 5.a b c 5.5.d 3.y 6.y T Y e n O g R T.Q N.*.=.W =.K.W K.L.K.H U.;.N.=.G ;.N.;.=.;.N.",
";.N.A.S.I.M.N.Y.A.M.N.S.N.&.N.A.&.N.L.A.U.$.U.N.N.Y.I.N.N.A.N.;.&.N.I.I.Y.I.I.I.$.L.A.I.I.A.N.V.F.V.M.V.D.I.D.Y.D.D.D.*XS.D.] Z.[ M.=XY.A.M.Y.Y.B.Y.S.L.Y.I.S.L.A.K.=.W L L T Y T j ; k T p j r j b 5.M 3.b f m e 5.d e @ d j y M b N 5.c M c   9 m 5.0.m s m m y m m a b 9 c m v m w 5.b s 4.b s 4.n s # b 5.m b m b y d m 3.e b s a   5.q 8 0 m # $ 5.b j i n M r : : r r m : j e % r , : < : n Y f w n 5.j   j i i g j T n g h k T I k < l g h j p j : : b s d d d f , N l f T l T l , k 4 T , l l n g Y k I g g h T k 5 h < M T h Y ; L T f , g l > l k k g g k h , h L 5 I I R D X.} 7 A I T 0.k I I X.7 7 -.} } U 5 X.E I I I X.L 4 , l L ..k 5 k l < k .., l T g l 5 n l < f : x < j x T l r f j d f e $ d t 9 % + d 0 $ # + t 9 8 9 8 w y + e 9 8 + m   $ % o $ % e $ e w 9 9 0 9 a u u d 0 0 e $ % $ % 9 + o N $ e.X f   9.% e t d X % m 0 o d % 0 9 M d 0 o c N r O M 9.: 6.< e.g t.l { = x k . I X.} P S *.F D A A I I *.D U 5 5 = 5 A 5 A L U } I - U X.D I - } D U R A R I 5 E * 6.e f e m + 8 t e X 0 8 X 9 8 # e X + m 9 w # u s 8 b @ 8 u 8 q 8 @ 5.8 w X 5.0 9 4.X X # 6.X 8 q a a a q v a a q 4.a a q 4.v v a q v q 0 q 0 q q q q a q q q v q q q q q q X v B % # 5.Y p 5.n 0.k T j > j Y 0.y 6.b m M m m # 5.4.c 4.9.m v m y 5.m m y 5.y # T Y b n Y j r l 5 y.W Q F K.=.Q #.K.#.$.K.=.=.#.K.;.=.K.;.;.&.=.*.",
";.&.&.$.$.M.I.B.N.M.&.S.A.&.&.A.&.;.N.L.A.&.I.I.N.I.Y.L.I.I.I.Y.U.M.I.$.N.I.U.S.I.Y.Y.L.A.&.A.I.S.D.V.I.*XD.I.D.V.M.] D.V.*XZ.D.S.I.I.M.S.M.S.' ` m.Y.L.B.K.;XB.I.;.=.} A h E p Y Y j j b k d y n b T 5.n m M 5.o M 5.M c m e.3.3.0 e m d c 3.x.e.b @ w m m 5.M e b m w y 9 u 3.j b 8 6.b s s 4.w m m 5.y d b d 5.5.c @ t $ d e + b 4.5.3.m 0 q e.e m 0.y 6.i j f n j n f y d w r e f j M d 4 f j b r O e j i : f r k r l n k T k h l h g < T Y l p y k u : s ; 0 e d 0 $ l j f T f l k k T , n f f < l n T g g l l I 0.T L T 5 l k l l = h i T < 1 T < g l , g l T g k l k 5 I X.X.I X.X.I I X.X.r.E R } -.D 6 -.X.I D 5 X.I I h l T l 1 4 h 5 T L 4 5 5 l T M , 5 X.g l 4 I l % k < M f n g f l r $ f b f 9 t c 0 q t e @ 9 t + w y 9 e w + t y + t 9 a 9 4.# m r % e e c c c @ 8 w 9 9 s u 0 t 0 0 9 0 + % e B % 0 N X 5.v % X % X 3.X % % X $ + 9 e % 9 y 9 o c   f d o O M k x . T L l x T I 1 l l . 7 L A D C S Z U U A X.D I 2 I U R 5 A I U U A X.} X.P I X.A U - X.L I R L I R R T . < e % % f @ X t a X m 0 a 4.a a t + @ y @ 9 # s s u b # # u X X 0 @ s X X # s #   b # 8 X b   a 8 8 a q 8 q q a q q a a 8 a q a X v v v q q 0 X q q N q a 0 0 8.q q q q 3.v q 4.v 5.T n j b Y T 6.k T i j n i 0.n 5.T T 5.6.3.9 e m 4.m 3.5.3.M m 4.b 3.5.x.5.y 5.Y b n 5.r n l L y.Q K.y.N.y.=.*.K.;.K.N.=.W =.;.#.L.=.=.;.=.;.=.",
";.N.U.U.Y.Y.Y.N.m.A.N.L.A.&.$.N.$.;.;.N.L.N.U.N.L.I.N.L.A.N.H &.I.N.I.N.I.;XY.L.I.&.N.&.L.M.N.N.[ A.&.A.D.A.*XY.D.V.] C.Z.=XS.V.S.Y.' M.S.$.I.$.L.Y.N.;.Y.N.N.L.;.U - I h p T g r 9.R g < b f j n r n M m j n m o 9.y b b d 9 b $ f m 9 M 5.M b b y b e.e m 5.t n b j e 5.T u n b 4.s m Y b s Y u b y M 5.b w e d b b b 5.$ d 5.y y X a e a a 4.8 0 9 e @ 6.p j < 5.T 9.j j d j : e r g T k f l m j e r e % d T r O j , T T < j g 1 h h k , L I Y k n Y y i j w e X d % b $ l x x I % e.T T g k g , < l T k , , g h k T M h I h L 1 5 l g 4 . R g , T i j g . n g T = l 4 5 5 k R X.7 I I E U 5 X.T 5 6 L X.D I -.} A 5 A X.I L L L I L L L I l 5 h l = l I R < k 4 k k T g M l l T 4 T ..T < o f f % : c f 9 d d 9 + t t X 9 M e e 9 @ t t # e w + 9 8 u w y 8 d e o % $ e w e 8 w 8 w @ a 8 0 @ 9 t % f o O 0 $ 9 M t o v v   v % + e.  X d t   o m f b e y $ 9 5.  f N n M T T g g k 0.l I I h I 5 5 5 I U *.s.H U F #.A = *.L A - I X.X.5 2 I L L - E A U A U R L I 5 I - x h I 1 1 Y Y * 2 d . e 9 $ + 9 t X 8 X 8 c 9 X X y t # # @ 8 b u s b X X s # 8 s 4.s s # a X 8 a   w v # u 8 a # 8 4.8 q q q a a q a 4.q v a a q q q X q 4.v a q q 3.X q a 0 3.X q q a N X N X X 3.m O s 6.T n j r T j n T p 6.n s M n t 5.5.e.9.0 M 3.8 5.3.5.m 5.u u 3.y n b n n Y 5.n b 5.i 0.X.R K.U.W W y.W W y.K.;.;.y.U.K.U K.=.;.y.;.K.=.",
"N.#.N.I.U.$.N.L.I.I.I.N.L.;.&.&.&.K.I.N.Y.L.U.$.K.U.L.I.Y.;XK.I.Y.A.N.&.L.I.N.$.T.N.N.&.Y.S.A.$.A.I.I.D.L.A.V.A.D.I.Y.Y.D.D.I.C.M.A.M.I.M.J I.` $.$.H $.N.=.N.N.l.L.L r.R u Y b b T n f f 5.j m 5.f 9.T 5.n m r 5.9.M 5.$ m c c c 5.x.e m w M e.5.j   m # 5.M o 5.n j n e.6.r b Y 5.b p 5.Y 5.m s m y s y 5.j d d b b d 5.    u 9.5.v a e.8 X 6.8 4.y 5.b n m j e 5.j n : m m n d d r % j g j n j e % : e % O : 9.< < < 5.X.i j Y 1 g T T 5 k g l n n n j n Y w t o t 9 N , l l l T < X., , r k , , g k M 5 , l T T T X.I k T L T I T , , I , 6.l , T l g Y ; R k R 4 I I R { X.I X.A I I U I h R T 5 I L I I } t.} A L I } L L L T L h , g I L l 4 h g I L l = X., l 5 n l T f T l 4 f 0.n j , j d : $ d c f 0 0 d X X 0 0 b m @ 9 @ # t y @ e t s t t 8 9 8 8 9 e f d c e w $ 9 u 8 t # a w s @ w t # c . % f $ v e N 0 t 0 0 % / 0 B X + 0 N   % f o M 9 9 y o f . o y b g j n T . e.< I 5 5 5 T , 4 g l U t.U G S W #.D 2 y.A A 5 L L A 5 L L R *.E *.L R L Y X.L X.1 I = g h h L g p : p r M   N @ 9 e + 8 s u 8 8 t 8   y 9 u # @ @ w s # @ s 8 # m s s t u s 8 8 X 8 @ w w 9 + X 3.8 8 # 8 4.q s s q q s 8 q q q q 8 q a N q q q N 4.X X a 4.X q q q 4.q v v 4.v X 8.q q c s Y b 5.0.n 6.r T f T T Y 6.j s 0.6.5.5.$ c c 0 3.3.q 5.4.4.y m s b 5.b 5.b u 5.n 6.4.5.M y T y.y.r.K.K.K.T.Q =.K.y.y.W *.=.*.=.L.y.K.;.#.U.r.",
"U.;.=.;.;.$.K.Y.K.K.K.;.N.;.A.L.#.;.I.H =.$.A.;.N.A.&.N.I.L.$.$.U.L.N.A.L.N.N.H Y.N.I.&.=.$.L.U.` &.A.L.I.*XI.*X&.A.*XI.I.S.*XY.N.&.I.&.I.U.Y.A.I.U.U.L.;.N.K.U P *.A Y 6.; Y 5.4.5.w m M M f n n : d e m M M b c 5.m $ N M d b M t $ e x.5.m y m e.m j M 6.5.6.M T j j T : y n Y s b s 5.b Y 5.b Y n b j b e b e d t e 5.d b N 4.0 8 X 4.4.v 3.a 9 8 e.m ; 0.6.g T e b : n m d j r j % k f M k c j r e d j < : T : ; O f g , l 6.l 1 k k 1 k k g k j j u j m @ t c d N , N f f ..x T n T M l n M < 4 g Y k k g k k Y T h g L 1 l k Y , i T g I g i T p : T g T j T 1 5 L R I I D I 5 L L 5 I I X.X.{ } } I I } r.R D I T R A T k L 5 g 1 l k 1 I g 5 T l T , 4 T g x < 5 l T , l f l g 0.4 x l g j f 9 d f 0 9 q v + d f 0 t b   $ t 9 t t + 9 a m s b 8 w # b   O e : e $ w 9 $ 9 8 w # a 0 a 8 9 0   d o % 0 f f t 0 f v q B   3.0 X   o $ 9 X e t   m   # M $ o 0 e n n f T j 0.. t.g l T = x I l L 5 I X.=.F W F #.U Z - 5 5 5 5 5 5 L L L = E I L R Z D A 5 X.L T * X.= 1 R ; T 6.i ; p ; n # N + + 9   + a 0 9 # 9 8 X s + s # 9 ; s w 8 8 Y u # 4.a a u u s 8 8 X s @ # v u # X 5.X X 8 8 a a q a q q q a a q q q a a v X 0 q q v q v q a N q q q X v q 3.q q q 0 q v N c b Y w > h s 5.6.T i n 5.5.6.p r 6.T 0 y 9 9.3.a 5.3.5.3.3.t b m 5.4.w m m Y b e.u 5.a v y Y j T y.*.*.y.*.Q r.=.Q P *.U =.y.K.y.*.*.l.y.U T.T.",
"y.=.;.=.K.y.K.K.=.=.=.;.=.;.L.L.#.N.L.#.;.A.U.I.L.A.N.N.L.A.N.L.L.N.#.H $.;.U.I.N.;.Y.L.K.N.Y.8X$.#.&.A.A.A.N.Y.A.S.S.S.D.A.A.N.M.A.I.` ;.$.H $.N.U.! N.U.K.G #.*.I R p 5.O m y b 5.t M b t 9 5.n M b f f 9.5.e.M c 3.b m d 3.0 t 9.M c e.e.e.9 e 5.n # m b M e.Y 9.j j Y > T 5.m p Y s Y p b Y 5.n m 5.m y o b b m e $ d d e $ X c e.6.X v X 8 5.t a 5.5.O b T j M j M f n m e e % d < n f k , % y t : : e : r j j Y 9.T T g g T h i , 5 , L j l k l p > u b # t v d m % n 4 g 4 < l 4 x g d < T < i l n k T < L M T T k l T k 5 , l l k l , j g , Y g . T l l k T k l I r.I I I R D I U I X.X.U I I I I 6 D I X.R I I I R 1 E L I g Y L R T 5 5 l k R h T , 4 k 4 T 5 f l X.4 l 5 T n 5.: j % j r e e 9 e 0 q X N 8 3.t % o c + w b e w c 9 @ 9 t 8 8 8 0 X a o % f e d e v c 9 @ 0 + 8 9 8 t + w w   9 % $ e 0 z v % q v q 8 X v % f % % % + 9 f m 9 m   o m $ o % d c T M 5.< x   l l & l = = = = 4 L X.R *.S #.F ;.F - I U I h 5 5 h L L * . L 5 A E 5 A L L I l 1 < I < i R ; > L u j j Y n X : w o X X 9 u 0 @ # y 8   8 @ b @ @ 8 m ; s u b s X s # s 8 m 8 ; @ 8 ; # # u a u X a X + 8 q q 4.q v a q v a a s q a v a q q a 4.q a q q q a q a q v q v v 3.q q q 3.X q 9.y m b Y Y Y 6.j 0.Y y Y Y T 5.Y u 6.3.y m 5.5.t v 3.m 6.4.5.3.5.5.e.e.5.e.5.Y 8 e.@ s u a 9 5.n Y X.K.r.=.P W K.=.*.*.*.R y.r.y.=.U R Q y.P K.l.",
"=.=.*.Q =.W W y.=.=.Q L.#.=.#.y.S #.$.=.K.U.K.;.#.N.L.#.#.N.I.L.*.;.L.=.;.K.U.=.L.=.s.#.=.;.;.#.;.#.;.;.;.#.$.+XN.U.;.A.A.A.M.;.L.&.$.L.A.;.;.L.L.#.H K.D =.=.3 y.= E . Y @ 5.9 9 9.t m c d c M e 5.b m o n o d m m c M M e 5.M @ x.T c p j 9.j d T n d Y b 5.Y : n , n 6.m 6.; b Y 6.5.s s b p m b m b y m y b b b y b m t t c 0 9 8 0 0 e.q 4.X 9 5.w 5.6.u b n M n T $ d T 5.j e n : c 4 n r r y d b b d : r n r % n k n k < < i k l l g j * k l y j u u y O t 9 f m : f f ..& T M T j , 0.M l , 5.T f < k < k I I n 5 5 T h M k n g j l l k x ; g M , Y n n g h k 5 T 0.I 5 5 I 6 5 R I R 7 R 6 A D D 5 L I I R I L L T 5 I 1 T k I , l T Y 4 < I T I k < 5 X.g T k k 5 M < T M M x k 4 k O n $ $ e e 9 d d o 3.  q + c a c @ @ e + @ b t + t 8 8 + u s # a   o d 9 d $ 9 % y 9 b X u 8 u 8 9 t d @ e e f o 0 f % 3.  m X N   N   0 9 0   + f 0 d % M + $ $ e e # $ O 5.9.T e l = < I < , l & l 4 5 X.+.A y.=.#.- #.U - A - 2 A Y L L L L 3 = R L E R I L 1 0.< L   Y , 1 g . n : u s Y   n b o # y @ X w v X s 8 @ 9 X # w w b # # u 5.# u # s b @ y X w # b s 8 u O 8 8 @ 8 8 u 9 u # s 9 8 8 4.8 a a q 4.q a a X a a v q q q q X v v v a q q a X v q q q 4.a 4.q 4.v X 4.4.m 6.j y 6.Y j 5.< j 5.i h m 0.y Y b M 5.m 3.e.c m a a 9 5.e.e.a b 4.5.s m 4.# 5.u a 4.e.t n 5.T * y.r.R r.r.*.*.E y.K.Q Q R K.r.R U P y.2 R I ",
"U l.y.T.y.r.y.*.R K.R y.U U *.=.L *.R } *.U *.R D y.y.;.y.L.y.} U *.} -.W s.y.=.;.W ;.W =.;.#.=.s.-.y.*.s.*.U.U.=.#.` F A.;.U.=.A.L.L.U T.=.#.W *.S =.U r.r.y.5 T 0.m T n n m b y M y b b d m M 4.4.b m 4.b m 4.4.e.a 5.i s y 6.T M d : : l T T T Y T m 6.Y Y 6.5.h : l 0.: Y y Y b b Y 6.u 5.5.w m b y m m y 3.4.a s 3.5.w a a a X q 4.0 a + c c 9 @ y m n 9.@ m n T j e f M : 5.f : c r 5.y y y d b e + y O y n d j T T f k g k T j , i l k , T T m r u j n s w m o M r % T d f : x l f < M x n < 5.< 4 0.Y L f g T l l > T j l l l l n M * 6.g : k i p : 5.Y 1 L h I X.I l L X.R 5 7 T L I L T I R L I D T I R I X.I I T l X.5 k R h < l k I l , l T g k < k T j , 5 = x T ....X.T x n x : % n y o e y w t d 9 $ + w y t o c @ b t c # + c b c m   t + 9 t $ 0   N 0 t   v   0 % 0 0 % X 0 f w $ d % 0 e % t % v o 3.0 0 + b t f o + f X 0   v d N   5.+ 9 $ c . f $ N T T : n 9.. , g , h < 5 4 5 I | y.*.t.D P U *.2 L 5 L I = 5 L T < 1 1 L T 1 R < Y L L 1 < O = ; T n r u n ; m 5.  b 9 8 + 8 5.X X t b X 8 X # u 8 # 9 # w ; # @ b > >   p n u u w b # u b   # 9 9 u 9 8 s # 8 u 9 8 s 8 @ 8 s 8 + v a X v q q X a v q q q v 4.q v 4.4.q v 4.4.q q v v q v 4.q 4.q q 4.c w 5.m m 9 m b x.s b Y 4.6.4.5.s e.O b m 4.5.4.s m a c m m 4.d c t 8 6.4.0 5.w 4.e.a a 5.3.4.s m K 6.r.6.7.E r.E E Q r.R r.r.r.r.E y.2 l.p r.E ",
"R 7.L X.R E *.E U y.*.y.*.r.y.t.A r.R R U I r.t.*.*.X.*.t.*.R *.y.-.} y.U *.-.y.-.*.s.y.y.;.*.=.y.y.L.-.-.*.-.y.y.-.-.=.U.L.U.#.;.s.L.#.*.U =.y.=.P R *.T.R Y r.0.0.j 5.M b j r m 5.j m b M 5.m s b b y m a m b m m 8 w b b u , g j 9.T n M l 5.Y Y n ; j T 6.5.p T l n 6.n Y > n b u s 5.m 6.n u T y y m y b b m w m t 3.X b a v a 3.5.8 5.3.+ + b c 5.m b 5.m f f M f r f 5.d y d d n t m s M r $ d r @ m : b b e f n Y f k l g Y k i r g k j 5.g i y y b b y : b @ b e % n f k c 9.j k f T M j Y 9.k , k g 4 I T x g k 4 T l , k l f h T < T , g 6.1 i j 0.Y < l k L 0.X.I x R X.I L X.I R h I I X.{ I L X.L L k L E g L < I R M I k I O.T 5 X.n l I x l ..0.T x l x 7 l l 4 5 x k g k n r e M c $ t y 9 t e 9 e 0 t t y + b $ t $ e @ t d b + y 0 d o w @ 9 f o d 0 t X t + v % t % 8 + 9 0     0 f d c + % o f 9 m c c 8 0 9 v 9 N 5.o 0 N 3.d v   0 0 % N 9.% $ d T f f r , M . < f ; < 4 < 7 l } *.-.E U U R A X.- < , R l 5 L L L T T g Y , Y R h L h T h ; < g   T , % 6.r s b b s b s 9   + e a X X + w # w 8 8 a 8 9 s b w : # Y > u ; : s w ; @ # # 9 s @ 9 w 9 8 w 8 u # 8 8 s s b 8 8 @ 4.a s t + q a q 4.a q v q q q 4.4.q q q q 4.q q v v q 4.v v 4.4.q 4.q 4.x.M 0 m m m e 5.4.6.; 6.m n 6.s 6.u 3.s 5.5.u 5.4.# b 3.5.m m v t m m 4.x.4.u 5.4.N 4.3.s 6.a 4.5.4.5.x.6.6.Y n r.R r.R 7.E R r.r.R 6.7.L y.E y.r.",
"Y P L R 6.r.r.R L R R U E X.R U L R I R R L R X.X.t.*.U O.*.X.*.-.R } -.U -.U ;.*.*.W U *.W y.;.*.-.s.t.} *.#.X.L.*.*.L.L.;.=.%.L.-.-.-.=.y.y.U -.r.y.r.p R T h k n O j d n 5.n j n e d r m 5.u s 4.b y a 4.4.y u b m b M 5.5.T < % T Y n Y f 0.g k T i T T p p p 6.R Y k T b i b 5.K m b s 5.b b 5.y m 5.s M y a y v a 4.8 4.4.8 q 4.5.9 8 9 v e.X m 9 m y % T r f b e j n M j % y e j e r @ M d O d r u m @ j j e , r j % g g < r l g > 1 j T 6., r y j j u j e w O d d % j j k f 5.& M < ..e o n k Y f g k h 4 T , l M < T l , T T n 5 n < T f ; T j j L Y Y = < k 5 X.X.I A 6 L I L Y L I 1 A L E L L I R L I I L T 5 T - l I 5 g 5 h L 4 = I T x T T < e.t., : f l < g x 5 f k k 4 g n e f y a 9 w 9 % w 9 o w w w $ t + d t w $ @ + e 9 b   @ b t X c X e c 9 v f f + t z z + t % X % % 0 9 o o 9 o c 9 d 9 0 f 0 e c d a X 9   0 v X + v d % a + o 0 X 0 o   o % k m M 9.f k & j k 4 , x 4 5 I I I I I U U U * 5 = 1 1 4 5 5 l 5 5 Y I p Y . T L i , < 1 g g j , > Y   j 5.O y b 0 b u 9 8 X 8 9 t #   o 9   0 # # s 9 # s s # ;   b u ; u > i # # s   8 s s 8 @ t ; @ @ 8 s s s u s 8 # 8 a @ s 8 t 9 q q X q a q X q q q q q q q v a q 4.q q q v q v v v 4.4.q 4.X v a 3.9 b c a 9 4.b 5.u 6.Y m n b 5.w 5.v 5.u b 5.4.e.9.c c 0 c c v t t c 5.c 8 4.c 3.v q t a m t 3.4.# UX5.e.6.6.y.6.T.K 6.E 6.r.R L r.h E r.Y R Y ",
"Y X.R g R R X.0.r.X.r.U I *.Q R R R R X.r.r.X.I L r.r.X.R } X.y.r.U X.U U y.*.t.*.-.} =.L.y.L.r.D U X.U } +.;.*.-.-.;.%.} L.s.U y.r.-.=.} U } 5 Q r.0.E P T h T T e.d j $ T 5.m d m r n y b 5.s 5.3.b a y b 4.a a 4.e.T b Y n 6.5...0.5.x j , 6.Y Y T Y x.7.Y r.g L T k p k < g Y b u 5.5.m m n b 5.e d y @ b w w y u s 8 8 s a q 4.0 a 4.8 t t 5.  5.# 5.e.e d b j n f M m c r m n e d b b w M d % j d b M $ d n m j j n , k k Y n 6.Y g g g T T i j g d b u y $ % r e j e M j j f T O n f T f < M , l g g x g . ..5 n T % n x l k k I g l O T Y ; h i g Y y h k , | 5 0.I h X.I k L A L L R h T I I 6 R X.| I { I L ..l X.5 L X.k R I L k g h g I h T T g r.0.l f k x g ..0...k | n 4 f n r m e y w 0 w w t y   w e $ + u + y y t t + # @ + m @ @ t w # y # e 9 9 % 0 + X o 0 0 + t % X 0 % t $ + % c X m 9 0 0 o v X 9 0 N m $ N X 9 d 9 9 3.+ X N v 9 M $ e $ M M f f f j 9.f , & : i 4 . g l 6 I 5 6 A R U = X.- A & 5 1 5 5 < 7 , 1 < 1 1 R < Y i i L L O g k n . k i . n r b u n 8 9 y # # 9 + t 9 8 s a # # 8 8 # a u w b u O u ; Y u ; w p b #   m + 8 v @ @ # u u 8 @ s u 8 8 8 s 8 # s s # w # 9 8 8 8 4.4.q v q v v q a q a q 4.q q q q 4.q q q v q q 4.v 4.q 4.q q 3.c M v w t 5.b b s b y m # b u b 4.m 5.8 b b b 4.4.a e.M v c m m c m 5.5.s 5.c 4.0 8.a v 9 b 6.5.5.Y s Y n 5.6.L r.p r.Y r.l.7.R 0.Y Y 6.T Y Y ",
"h T 6.< r.L p 0.0.Y R L 5 E I T L h 5 L R T R L R I I X.*.I 6 r.U L X.I I r.U U L *.*.*.y.D y.-.} X.X.X.-.} T.y.D F } D D ;.;.I *.-.*.U U 7 U I X.T L L r.T g T O n e r % b n r j n j 5.b d 5.b 3.b s a u w a t v b m m s Y n 6.Y e.0.T n , k T p g Y j 6.Y p 0.l l X.Y k l i T Y p r Y 5.n j y 6.5.n m y r j b 5.4.5.y 3.4.4.b v a a v 4.8 3.8 m c @ 5.3.n e b n y m f n b e : T 3.e d M b w c d e m d b b 9 y j y j b n f T T i 1 g i f i 4 j T f g y r j y b o e n O e m T $ f j M f N f k M j j f , M g x l < 0.k ..R , l k g , , f l n < T T h L : O T Y T I 5 0.k X.L 6 0.X.l A 4 L R R 5 I I L 7 I I L , L h I T 5 T 6 E R 5 g l x L 5 g T I 1 l k X.T k f f 4 l 4 x T I 4 T l 4 f M r n w 9 $ @ 8 w e t X t y 9 + t @ y t @ e @ @ $ o d w @ 9 w + + o t 0 d d t B q t v 9 % t 0 % 0 % 0 f 0 + f   N 0 3.q   v % d 0 v 8   c % 0 %   X N X X 0 t + v f v   f f f f $ r 9.n n g l l T l T T 4 l 7 I I L A - E = E 1 1 = L I h L g T 1 h L Y i p p g l Y * Y , n g : # j y @ 6.8 u @ O c u + + 9 + t # e.w X y X 8 # s 9 9 5.w w u s n u * . u p ; # y 8 + c @ w # u u w 9 u @ 8 ; u b u @ @ s 8 s s s 0 8 8 4.v 8 q q 8 q q a q q a v v 4.q q v q q q 4.4.X X v q v q v q 5.v N v t t 3.v 5.M n m 6.y 5.b 5.0 5.m m + a N 3.3.0 m 0 m m 3.s a a m 4.0 s 0 v 4.4.4.q 4.a 4.u X e.5.6.5.e.b j 6.5.y.; 6.0.E 6.T n i Y 5.6.e.",
"h h R h l.Y h 6.R L T R L I Y R I k T T T R X.T X.R I T R R R X.X.U -.r.} X.} -.t.*.D U y.*.y.} *.t.-.*.*.I s.t.} U } *.-.*.-.;.*.t.| D r.R R R R P r.Y Y l Y ; n 5.j b r r d r j b e m u $ b n a e w b 0 9 t 9 a t w 3.y 5.Y e.g 6.e , n l Y n j 0.0.Y T L Y Y h l 0.L Y T k Y > Y T m j d r : j j y > u $ w c t @ 9 8 u s 9 8 8 q a m m X v a a a X 5.s # @ m N : b r b N r e d b r f m r 9 : f y j j d e r d % % j b l , M l f g < l k Y T T n , r l y : r d e e t y d : d f j f : : j k f 4 < : j , T g f T 4 0.g k 9., n k < , T < 4 l l n g l Y j ; Y l 6., L w.5 Y L l X.R 1 5 < L T I 5 h I R I R I I I 5 h 0.X.1 5 5 I T 5 l I I T x L X.k M k l T 4 < I k l M 5 k x k & I l r d T : m w @ $ + + $ @ t @ c d $ $ t $ t t o @ 9 w w 9 X $ 9 + y $   + e % 9 0 0 X % 0 e + X 0 % 0 X 9 o + e d M f 3.  % a   0 0 t 0 d X + 0 + 0 0   X 3.% + % q X $ f 9 o c c % j j j f f 4 f 5 % k M T I 5 l h L h L L L 5 < 5 , g = , < 4 5 = i , g r 1 ; : l r ; , ; g k r n % . r e @ 5.; # u 8 8 # 8 8 8 u X X 4.X X b X # X # # # 5.@ ; ; p p s w # ; y y # w 8 @ 9 $ u 9 8 # 8 # s 8 u 8 s s @ # # s 4.m s 8 a s 8 4.q 8 4.q X q q 4.4.q v q q q v q q q q q q v v q X 3.q v q 4.M 9 t M d + t 3.c d 5.e b a y 4.4.0 m t 4.m q 0 v 3.e c v 5.v + a m m 4.4.s m 4.v q v q 3.4.v q 4.6.a 6.b b 6.5.Y Y T 6.. 6.n b Y s j s j 6.j e.",
"e.Y Y k T p Y T R k I 0.Y R R R X.Y R 0.R T X.T I 0.h.*.L I -.t.t.X.U R I U r.l.A } r.y.y.A U U } R X.-.U D } *.A X.X.I -.} *.I 5 *.X.*.r.T R T h T 6.h T , , n n c : e b y 5.m m 5.y n b y b b s s b 4.a t c 9 4.m y 5.y r j k 9.0.e : T n k k p 0.Y p j p R T h I L l 5 k 1 5 h r j > Y Y Y y y n r r b u p n y y y m a 5.a 4.8 3.a 8 m m a 0 8 e b w a 5.5.@ T % b f b n d j y n d b b y c e r m r t d @ j w r w M T j : T r k T , g g , T I k l e j j : j : n $ o M j # o c M f : e T 9.l : f j j j I 4 : j , Y f , T < l x % 4 e., j g M L , g 1 T g k i T 5 T X.l I T I R X.5 5 5 T E h h 5 6 I I R 5 L I I l t.R l L l L h 5 T R I k l l Y l T I l x < < r 4 f I < f f l < T k f y Y % b c e c y t e 9 b 9 y t @ $ y $ t c @ 9 9 0 w b   $ 9 + t 9 # 9 t f % f t + q f f % X % 8 v   f X 0 v 0 c f 3.  8 f + 0 f + 0 N X 0 9 X + t + 0 N t t v f % v q 0   f d o b f x o j < : f O l T g M 5 g L h h 5 R 2 L T 5 = i , 5 1 I h 5 , L g k , r j j g > ; , O 5.< r > r # d @ 9 + + b 8   X t y 9 b   X # # # u # # 8 # 9 # Y @ @ ; n Y p j ;   Y y # u @ # o u @ u # @ u   b @ u # s s @ b @ b 5.b # 8 v 4.8 a q q a q q q q q q q 4.q q q 4.q v v q q q a 8.v q 3.t 0 q q m v v 4.v $ f e.a y 3.t c m t 5.0 v N t 8 x.q a X c v v f v N c a 4.a a 4.4.4.4.a 3.q 4.4.5.q v 4.X 4.m m s e.6.y n i Y : e.n n m b 4.e.s 6.t m ",
"6.6.6.6.k 6.t.Y 0.T Y r.T 0.0.r.x.R T R X.0.r.t.r.T 0.r.X.X.0.X.0.-.X.+.r.r.y.} t.*.*.X.t.*.*.X.} I t.l.-.l.} t.y.s.-.*.T.*.-.*.U h.0.y.0.R R l 6.g Y j g Y 6.j 5.T c r T M 5.% f 5.y m T 5.m y b b 4.4.a s 4.9 5.m m 5.n y b : n 6.T M Y j , 6.i 6.T T R 1 Y 1 0.0.L T 5 T i k T g Y i n i n T j 6.: j T u b b j s m b b b y m 3.m t 4.t 8 0 u e.5.X M m b e.y 5.$ m j d j b m f b e e e e m $ t m w e d # n % r : n T , e T < j T , g g < 0.6.< x r f y j 5.o m d o b e % : f e n j r M T M j j Y < M Y j , l l x T f T < g n 5 . Y % X.n n l n 0., g < T T T I X.I l k I L I T 5 L 5 T I 5 I X.R I L R 6 h I I - X.I R T I 5 k L X.0.T I 5 , T 5 T 4 l k k g g g n ..5 4 x T 4 9.l e y M ; b u @ c d w @ o b 9 t w $ w c w c b $ $ 9 + @ 5.w t $ + @ w e y t N % t 0 % X t 0 0 + + % 3.X m $ 9 f % 0 v 3.X 0 9 0 t v X 0 3.+ X 9 t % t 0 B 0 B 0 a t X N X t o e N N 5.B b < 0.f < k < I X.< T , = Y T 0.h L L . 1 1 1 h < 1 < I < h . k ; n i > Y O j n r y O r w O % y O j u @ # u b X u 9 4.# + + u t X u t X 9 # w @ b # m @ . ; b j ; p w   6.w   y 9 X e y # u @ y b # s u b 8 4.s # s s s # u X s 4.b 8 q a a q q q a q v q v q v q q 4.q v q q v q q 4.q q q a q 4.X 0 N m f 9 8 0 3.d c t t c m a v a 3.x.v X 3.q 3.d c f v t 8 a t 5.5.s s 4.5.a s v 3.q a 3.4.v v e.8 4.b e.8 6.6.b e.5.5.b 5.w b 5.6.b x.w e.c 4.",
"T 5.6.T 0.l Y 0.T T 0.R t.T 6.0.0.Y r.T t.r.X.0.X.r.T r.w.t.r.X.-.O.R t.y.l.X.L t.X.y.l.X.0.R 6Xa.t.t.t.*.l.*.y.-.t.-.*.s.r.*.t.r.X.R T R R n 0.5.n Y y 5.n r 5.j y 5.b y m y b m b b j T j b w u b 4.s 4.u c + m m m b b j 5.6.j : l n j r , 0.r R 6.L L Y 7.6.t.R X.h T r.i T 0.T Y Y l 6.j p 6.0.n u T j b > n b 5.b s b w w t a 4.t v v 3.+ m 4.c 3.5.  b b 3.# 3.9 y b r c j c y m d e r d y w t y b e j % r w 5.n r . 6.: ; x , r g f T ..& T e , r : m @ 5.t o m y e n e j   l % e T m e T b % T : T g 5 n X.l f n < j T g O T r R M k l M 0.r M 1 e.L k 0.T h I T I T L L L l L L 5 l I 0.A L O.= I X.L 5 L R x 5 5 L I 0.X.h < 5 I I T l h k g T l k g & T k 9.0.5 T M f T e r j 0.  @   b t y   $ m # b 9 t 9 @ e w y c e y o t t w b @ o t @ + w X d 4.X t X 0   o z X v   o z X v   X f t % 0 t X 0 0 + N X 0 t 4.  0 0 q X v v X v q   v v   N q X z 8 N 0 : % m f f . < f T T T 5 4 , k 5 l R i h T 2 < j 1 R . h Y ; l l g , p n O r p # b # ; r b j # n % e # b 8 o c y t   9 s m + X m   s v # u 9 u   # u # w s i . ; ; p > # u O i b # # 9 @ #   u u ; u m @ s 8 s ; s @ u @ # s s u 8 # b X q 8 v q q q s a q q q q q v a 4.4.q q q 4.q 4.q q a v 3.q + N a v q 4.t 0 f v 3.b 3.o c d m v 5.0 0 3.v 4.q v v 3.t q v 5.d v v 0 e.8 4.0 a 4.a 4.q 3.q 8.3.4.v 4.4.a a a 3.5.4.w UX6.y m b 3.s 9 5.a 5.3.e.3.a ",
"e.Y j Y 6.6.6.g T 0.Y k L 0.R T R T X.Y 6.0.R T k t.y.t.T X.X.t.y.t.-.r.R } y.T.y.R U X.r.L.R X.I U X.} I l.X.X.} T I I 0.X.R X.T X.r.T Y k j T u r 5.> Y Y n 6.b b w b y 5.y y y y m 3.3.w j m 5.a y 9 t t a 8 m w c u T r n u j r n T T j ; g j 6.T T 0.R 0.Y I X.X.L I X.T T R 6.h k k n , r i n 0.6.n y n w b p n b b s w e X v 3.d 0 d m m 3.m # 9 m w 3.y m @ T t y d y m d d d d n j b e m y y t e $ y e b j T n j % 0.j r T i g : 5 M n j j < j r # b t r y d n : % m e f e T M f n 4 O T g O j < T , , j T l ; x g Y f % < x j l k f T , R k R < k k T I k l 5 h 5 L x 6 L 5 l I I E r.R L I X.= L I L 4 I l 5 L T T I T I L k x I h 5 I M I 5 x g g 5 L e.x T T M ..l , M f : w M : 3.5.y @ m 3.t t $ e + e w 9 t t d b 9 t + w e + t e @ 9 $ y t X o 0 0 % 0 f 0 + 0   v o X 0 0 v f X t 0 X t t X B 0 + 4.q % X 0 q + + 0 0 X f q N f q % v   v N X v   d v N 4 M T $ < < l I Y I 1 g g 1 : > p 1 Y ; * 1 h 1 T . 5 I 5 L , i k n : : j y : M O y y j m f m e r o u # # c 8 + X 9 t 3.+ # 3.# X #   8 b 8 w O @ 8 # ; s . u u O n * u . w s 8 8 8 X 8 # @ 8 @ w b # 8 ; u @ Y u s u ; s 8 a s X 8 a 8 q a X 8 a q 4.4.q 4.v q 4.q 4.v v a v q q v v q q v q v q 8.a N 4.8.N 0 % 4.0 c 0 3.f 0 m d 3.v N 0 X B q 8.3.+ 8 3.+ v 5.v v t 4.3.a a 3.s v q X 3.v x.3.4.a a x.4.q x.3.X x.b x.e.a e.m e.4.m m v 4.3.a 4.a ",
"j i Y k g k 6.h T Y T L X.T T L l T l I L 0.I I I L I l L X.L l U I U U *.*.X.X.*.X.X.R U X.L X.I U I U 7 -.5 - L 6 I I *.X.R L T R X.k k Y s b : j 6.r Y 5.T 6.u n @ b u y y y b b b n 5.b b d m b m a a s a e v 8 y y m y p r 6.T 9.6.6.6.r Y Y 6.p L 0.Y y.7.3 I T I I L L h k T i Y R Y 0.T p ; > T Y y 5.6.5.j 5.a n s b m 8 t v d d c 0 3.+ 4.5.t t 8 6.4.c @ m m d c e m @ @ w @ M y b # 4.m 9 w e u e r r d b f j : T d O k , r , l T T f , j d e o m s b # @ m m e y d c k m T < f : < e : r n j 9.g M 4 k 0.< g f n l : f f , . r O T : n l f < i T l X.R T I T I I l L I 5 5 T L 5 X.I 5 I I 7 I L x L T I l L X.X.L k 5 l I L l k l k L l 4 k g k M I 0.4 z f f k j < M b r t m y 5.0 # X $ c $ # t 9 # w t w t t t b @ 9 + + y w t e + 9 $ b w @ % % c o e v v + X v % o X m v o v 0 0 t X v q X X 0 0 v a X q 0 % + % a N   0 0 q 0 N X q X X N X e.X t d $   % n & f 1 R k T k , l j r 1 j , i p > i h , < T < h T , g < 1 i y ; : y # o 5.$ y   e j y u @ w 9 @ + $ 4.8 8 + 9 + t y y y + o 9 # # m # u # # 8 O ; b ; b Y . 6.; >   @ u # 8 8 X s @ w w u u m # u ; u @ m u ; O s s # s m 9 9 8 0 a a 8 q a q a q 4.q q q 4.q q q q q q q q v q 4.q v q v q N q 3.N 4.v 0 q 3.v 9.+ m 3.c v 0 v 4.q v 4.v v X a q 3.X 8.+ q X 4.6.a a X 4.a a a 4.v 4.q v q q x.4.q 4.5.a 5.5.3.5.y 6.a 5.t 4.4.m 3.4.c 4.5.4.a ",
"l T e.0.h Y 0...L g 0.X.0.h I h k 0.k R T 0.T I 0.T X.R R X.X.X.X.X.-.I X.I X.U R *.*.R X.U 5 D U A 7 U I y.I A *.I R P R R X.X.I I k i b Y T Y M 5.6.b b n n Y s M u y w u b b n 5.m j n 5.n : a s m 5.b a t a 5.m n 5.y n n e.n j i u h n > Y > k p h T p Y T k L R 0.0.I h l L T k ; e.< : n : 6.T y i p p s 5.s n s b : u s m 9 0 c v c X 3.a m c 9 3.m 6.8 t w m m b d e n e y d d 5.M 5.y b m + w d b e : : M k j m y Y b r j r , j f Y M n e e % m m y # 9 e m e w d n m f m : 3.f M n f d y n l r r O , g , e.g j , k n < f : g f 9.k 0.x l , , T i T , T I x 5 l L 5 < 5 l = 1 R I E y.I 5 L L I I h L 5 I R L l I L h L 1 k I l l I T 5 l l 5 l k M R M T < T 4 < f T l 5.n r t n b y   y t w t c t 5.t o w y $ w y e c $ y m e d o # 9 @ 9 $ c X e c + v X 9 f f + + v + B + N %   3.0 0 B X v B + X 0 0 0 v X 0 q q X + q N   0 a   0 3.q a + X v X N   v f $ % ..e.. l < e.g X.L 4 , l , g T g n , Y h i < , R 1 , I 5 l g g r j s u w @ : m w @   c b t 8   w c a w 8 c o w 9 t X   m c @ # w y # # b   : # @ s ; ; n ; K Y . 6.; ; # y u @ u 0 0 # + : w @ u s @ s @ ; @ b ; # O w u # 8 5.s 9 X a a 4.a v 4.q q q a a v 4.v q 3.q q q q v q q q v 4.a q 4.v v v / 0 a a 0 v N N e.4.X 9.v c 0 8 a q.4.a q 0 4.q N N X a q 5.0 N 4.q a 4.4.8 q 3.4.q q 4.3.x.v 3.q a q e.q 3.5.6.3.a 5.6.b y c 6.m a 5.4.6.a m 5.",
"Y T T Y T X.L , l T X.R 1 I T I R X.Y T T I L R L I X.I x R X.X.-.U U A *.I *.} *.X.A L r.y.t.y.O.U I R R U I I L L E I R R r.r.r.0.T L j u p n u s s s b 5.Y 5.m b b s b b m s y 5.m b j M n y 5.8 u a a a e a e.v u m w ; u 6.b j Y n Y 5.j T Y Y T p L h Y r.T 5 L Y Y Y 5 L 6.1 T T 6.n Y T Y i . l 0.b i Y Y b 6.Y 6.b b s N 8 v 3.0 d + m b a m s b # a m c s b a y b y 3.e y w y d d b y t a 8 s y d w w : 5.n r n y n j d r j , n r n M r j M d b #   m m w y y m @ $ M M M : M f r O   j : j : , g j ..l % 9.< n l n k f f , f f n . . T f k T e.< l g X.T L 5 l T L l T X.h 5 R T L X.I 6 L I I I 5 I 6 I X.T I l L X.l 1 L X.l h L l l L l g l x Y ..Y T , ..g , f R j M b o @ y b + @ w + w $ t   c c % w y @ 9 d t c $ t d + t @ y u w t @ t # 0 f X t % + v + X 9 0 X %   f t % 3.+ % % 0 0 t q t f 8 v e.q q X 4.X X B q X 0 N   0 0 + a X + 0 X v + N 0 % o e m % j & 0.g ..L L = l , , Y 4 T i k i 1 i h T = = 1 g k ; < < n O u O s 9 u 8 + 9 m a + 9 X w e e e X 9 X q 8 t t # y # 9 # # # w @ 8 ; # ; u u u w p ; s p u Y . O # s w   8 8 8 # 8 u u @ @ s u s w ; O s s > w 8 @ 8 8 5.X 8 0 8 q q q a a q a q q q q q q q 4.v v q q v q v q q v q q q v q v v q 0 v v z 0 0 X e.X e.9 c 5.e.0 q e.X v v 3.a X a v 0 0 5.4.a 4.q 4.4.t 4.8 5.q v 4.v q a 4.a v a q x.4.q e.3.m m c e.m b y e.3.t m b 5.3.4.e.",
"T T h I 6.0.k 5 T I T I I L T R T T R R 0.L I T X.R I L U t.l.X.I R t.*.s.*.y.y.*.X.} X.*.I 5 U I R -.U U I r.X.L I R L T L Y Y E h 1 k Y n 5.5.5.6.5.b b Y s ; b b 4.s 4.b n s n n s m m b j d b w s s y t t m 6.a 0 m e.n Y m Y j Y Y n n > r Y > 6.R 0.R l L X.R r.I l X.Y k 0.r Y 0.; n p > T k Y 6.i ; y p b > p p m i s b t t 3.m $ v N v 0 s b t b w 4.a u 9 m a c b w y j b e d d r d b u 4.y y w % : : : T d : y : y r j r j : Y j M T j j $ $ m c 8 b t c y o m b d 9 d m e n M b M M 6.j f j r f n l g r R % g j j f . O e r , T f g n k T g 0.k T I 6 5 I x l I 5 M 1 T 5 5 R X.E X.6 E E I L 5 5 T L L h 5 5 < 4 L h 5 k I l 6 k h l l l x k L k T l x < 4 f j M M : d m : w 9 b # @ 0 e b w y 9 w c @ $ a @ @ c e m 9 u 9   w t 5.9 @ e + d 0 e 9   + 0 + m   8 f % X X   q t 0 3.X q q t q B X t +   + 3.X X   X X + v X + + q X N X X v + v + X N + N 0 z 0 f ..< 4 , 0.L R 1 k O I Y l Y ; k , i > , 1 h h = 5 5 < , ; % O r   m # w X @ y + u e +   w X e 8 + 8 X t 9 + X + 9 + 9   u # #   @ ; @ s @ @ s @ u u b ; ; p s b . s > 4.s u a 8 8 8 u @ s s s s @ u s > . ; i y ; ; 8 s # m q a v q X X 4.q q 4.X q 3.q q q v 4.q q q q q q q v 4.v 4.q q v a v 4.q 3.0 N t q v 0 0 4.X a c v q 8 v t X 3.X a q 4.X v q 8.q q q q 4.a a q q 5.4.4.q q 4.q 4.4.3.a 4.4.a 5.3.a 4.4.c n u T 6.y w m b M b 4.4.e.b m ",
"l p 5 T L k 5 g r.h R I y.L I *.0.R r.X.t.r.R r.R I t.R U t.y.*.;.*.*.P -.r.*.5 y.*.} *.t.r.t.y.*.y.s.r.R I } U 5 5 5 > T 0.y.l.X.T h k k j b # 4.6.5.s 6.Y Y 5.u c b a b 9 m b m m t M m j y y b 8 5.a c t a 4.4.c u y 6.j 0.r 6.b 5.5.p p r r Y ; L K L K Y L P T R L 5 Y I < i r.j p 5.0.i 6.Y > * 6.T p j p 5.b n p p m n M w c m t c m 4.y + s 4.t 4.m 5.a 9 9 5.9 m m @ w y d e e b j m y u a b a w @ r : e 5.j y b b j r b Y b r d b d d r j e b w y s b # y d y M # y T j r d % j . : : j ; O l r g 6.4 l l T < f , , j < % f f . f , f k x k . T 0.I T 1 7 T L l L 5 I 1 R T L I E I I 2 X.I R 6 A I R X.X.I l L I L I l 6 h 5 6 L k k 5 l 4 I M I l x 6 M f l f M T 5.# O Y 4.b # b w   @ m t @ 9 5.9 c @ $ b 9 + c 9 b t m c y $   9 @ + e o d c $ % % X t 8 N X 0 f X o f v   X X 9.B 8 q 0 q q X % 0 + 0 0 q a 0 X q X v X X q q X 3.X X 3.q 3.B v z X f X d %   T < < Y 0.L .., 5 1 M T Y T . f < , , g 1 5 , 1 L k , i k l O i y 5.9 8 8 w v w a w X 9 t 9 y a 8 + 8 t c 9 9 X o X @ 9 @ # # u # @ @ u 8 u b @ @ ; p : ; Y ; h i : O j @ # t X 8 @ u @ u @ u u @ s b > # ; u ; # s u s 8 a a a q q 4.q q 4.q X a q q 4.q q 4.q q q v 4.q v q v q q v q q v a v v % 8.q 0 a q N N 0 a m 5.4.t a 5.0 X 3.m 3.v a X N q v q 4.3.v v X q a v 5.a x.a e.q v q 3.a 4.a 4.3.a 4.a 4.4.4.Y 5.b 5.5.b y Y s y 6.e.6.a c 5.",
"t.l 1 0.X.X.T 5 X.X.R | X.T I X.0.R X.l l T I t.t.< r.r.X.X.I r.t.*.-.s.l.=.} P -.*.t.r.*.U *.*.} R U X.I I L L I R R I y.t.7.6.1 h h Y p j 5.y 6.4.b u 6.O s 0.b 5.+ y b u 5.b # b j m e e e d m 9 4.w m m m m c 5.b c r # 5.i n , T 0.Y T Y L T h Y T Y i R Y T T 1 5 L Y R i p R T i Y Y 6.i 6.0.u : i 5.Y T Y n 5.m m Y j d e c f 0 v t c c m 9 a s 5.8 b 5.a u 5.# t m e b t e y $ 5.M 9.d u w a s d e b % % n y b T T b u w n r f % 5.b b T e w e.t 8 t m @ m t $ 5.9 n m d % b f e.j M m M j r 5.: , 0.j T f : < T b f T f e Y 5.< M f r Y l n I e.R & R I 5 L 5 5 I g T 1 T X.T R X.X.X.5 t.7 I L I X.T h L h 5 l L g 5 k I L h k I l 5 l k l T n T g g l k T M k < d T : @ m M m   b d t 9 m t w # e.@ d + 9 m 9 o c o y $ y + t 9 # t 9 9 d + 9 b X X f X d + d 0 0 f 9 $ v 0 X 9.9 X v + q % a q % X q X 0 q q q 0 + 0 X B q   v q X 8.X X 8.X q X N + 0 3.% f o   9.l f T k < T 5 k T 1 1 1 T O g j < i l g g 5 < 1 < 5 I n , # n j b u w s 8 + 8 9 a + w # # + a X t 9 q 9 X c 0 9 #   s 8 # + b # 8 u @ w @ b 8 u ; p ; ; 6.  n Y u : m w 8 m u v 8 s 8 s @ u ; s n s w u s @ # u u 8 8 m 8 X X q 4.q q q a q q a q q 4.q q 4.q q q 4.q q v 4.v v q 4.v q v a q q a N + 0 N v q 3.v m v 5.9 + 9 9 4.0 3.3.4.X 4.3.v v 0 v 4.4.4.4.v 8 4.a x.q 3.8 a 4.4.q 4.v 4.4.a q 4.4.5.v a v 3.n Y 5.y p b e.m 3.b b 3.6.5.m ",
"T L T ..I R X.I L I L h X.T l r.l X.M T T X.k R L l r.I T I t.X.I t.} } R U t.=.I U U D } U U X.D *.U -.*.t.0.I I I l h 0.E r.Y , k l Y Y s n n m b b m m j r r 5.y 3.y m 5.b u n m m t 8 3.y 9 m 3.0 y y 9 b t w m m b n n n n T R T I X.5 R 4 L R h 6.L Y 6.T R T X.T R R g Y T h 6.T L u p i 0.x.p 6.u > Y b s p b u y b 6.r M e e 5.j w 3.c 0 t 3.b s t b b b y Y y y u d e d % e $ b : 3.N a a 0 d @ e b o d d d e M b e $ b : e n e M d 5.r O m m e d   e   % M % j b r m j y M y e n d r j d r T o k M n , k < f n % m Y b f Y w : n Y ..Y , l L k 0.L , r.= 1 5 L L h I 5 L R X.X.L X.L 5 L I 6 I R l L 5 < A L T I h 2 I T Y I k 5 x l < 5 9.l ..< T f : T f b f f y j # e c e 9.  : y + # M + + 9 3.y $ X % t M $ o 0 t v 9 o c 9   @ b # 9 t a b   # m 0 $ X % + 9.+ 0 X X 4.  0 N X v   q N N q q X q q q X q 8 q q 0 X q q 0 0 0 q N q X v q X + v   $ N % N % . N , < M 5 T , T 5 Y g , g k ; , , ; , g g i l ; < i T i g j g j   n u 9   9 # 8 X 8 + 8 + X 0 8 + X 8 X a 8 0 9 s # + + # t # 8   8 w s b s 8 u u O p ; s s : u Y # p b : ; s s s 8 # s 8   b s 0 s u @ u s u 8 u 8 # 8 # t a 8 q a 8 q q a q q 8 X v q q q 4.X q q q 4.q q 4.4.q 4.q q q q 0 a 0 v 5.0 d t v c v d 4.c t t 8 v v v X a X 8.q v 4.a 8.q 4.0 0 q 3.e.X t N 3.c 4.d + 4.e a 8 t 5.4.4.a 4.4.u 5.4.a b x.b m m 6.u 5.y n 5.u j x.s T ",
"5 l Y T n 0.T k l X.l L k t.L R I L X.X.T l.L ..0.I t.R I L r.t.D r.X.r.t.-.t.-.*.-.y.-.y.*.R U U +.} X.} I I ..5 5 L A R 1 T g 1 h j n n j m n m y s b 5.5.3.b m s m n n y s n m m m m y 3.t c d t e d t 5.9 m a s u p n r u h I T I k R h 0.I T T g R T p Y T L T 0.R T I k T T R h p 7.0.p Y s y 5.6.m Y i b b n b y r u m r f < j M e $ 5.m v t a 9 c c y u j r b y b r j b d 9 9 e t 0 b d y b % f e d c   b f % w t b d $ b o O y O d y M e $ o M b r : : w # d d m w $ 9.M m j : % m n n y d T   M 5.O : e d d : M : f b y y r j : k j g g < L k I X.5 5 T T R g l l 1 h 1 T T I 1 5 h = 6 5 k R X.I L I 5 2 h L E T L T I L L I l l I l f l T j M f ..f $ N e e % d j y X e m d 3.o 9 y O + 6.t t u m t o + 0 % v c c d d t 8 X a e 8 # s 8 s u u t # u t e t % 0 9 v + + X + N % q q X N + q t v + + q q X 4.q q q q q a X v 0 q q B X q 0 + 0 B q z 0 % d e   % d 9 T f . f g T , T 5 , 1 1 k T : g g : , u : : g O , < l , i p i Y w u @ @ # 9 + 8 # 9 q 9 8 8 u a a 8 0 s 8 8 s 8 8 X 9 9 9 # X 0 s 8 # w 0 s 8 8 s # Y . p n ; j p   s ; # # u ; p # 8 u s 8 8 8 w 8 s s 0 8 8 # s 8 @ X X 8 a + 8 m 9 8 X 3.X 8 a q 4.a q v 4.q 4.q q 3.a q q q 4.q q 5.q q 4.v v t N v M M % f m m o t 9.a a t 3.0 4.q v 3.X 4.a q m v q 0 4.t v v q 5.0 0 0 0 e.e y t m a t q 8 6.q 4.s s 8 6.4.b m n y e.5.m e.T b 6.e.6.# 5.e.",
"T 0.0.X.R r.X.T T T 0.T X.R R X...r.0.t.R X.0.X.r.L X.X.r.X.0.X.0.t.U I R U *.} I } R } r.R X.y.I X.U I L 6 X.r...R e.0.0.5 K h Y k j n 5.Y 5.b m b y y b m m y n b m M m w m n s b u b c c + d d d b c 5.m v 4.m m b n T 5.n k L M T I T l T h T X.T T T Y 6.Y k I X.T l T T T 0.Y x.T ; Y 6.h Y ; n i Y 5.u j y n j n n y j j j j n f 5.m t + v c 3.e 5.n b j 5.j j j b : : e e e 9 r 0 f 0 e m 5.o b n e d o m 9 o t $ b c $ M w $ d e y 5.m : m y M w O b m d O e o j M d b t b : : O b d e r j e # j T j e : j 9.j M e r n M T r 6.n T M k g g 0.I X.L 5 Y 5 T R = h I h I R r.r.0.h 0.T I R { X.X.0.I 5 l L h L h 5 5 1 h Y I k I k 5 l g k I I f l l T k f e f % $ m d : : c n $ e $ 9 b 9 # 5.@ w y 4.b 0 9 0 $ N 0 0 d m d 0 X 9 w a t 9 + y 9 9 s 8 s e o + 0 v 9 X d X X q 0 t q 0 + 8 v 0 % t 0 + X X X 4.X X q X q q X 0 q   q v   0 q X 0 v q a q X M v %   b 4 k M % M T 0.5 X.g < g k Y T < j T , f , : % g : i ; i < i r < j r : # u 8 u t 8 0 X X 0 8 8 8 8 0 # 8 8 8 a 4.u X X 8 X + X 8 8 @ 8 # 8 8 s 8 X u O p . i s ; b j . b O : b b @ s # y 8 s w # # a 9 s a u # 8 @ u X w 8 w a 9 u v v X v 8 X X a X X v q a q v q q q v q v q a q v 3.q 4.4.+ v + 3.v m d v 0 e d N e.v 9 0 3.v X 0 4.N q v 4.4.3.q q 4.4.4.q 4.0 v N 4.q $ 4.4.v m b y 5.a v c s 4.4.8 6.4.e.q e.5.5.5.5.a 5.3.c b c e.# 6.y m m m ",
"R t.6.X.T 0.I R X.I r.T t.X.0.R 0.y.6.l.r.0.l.t.t.X.y.0.*.X.t.y.*.t.X.X.t.y.t.*.;.y.r.} *.U U t.I *.t.X.r.X.X.I l l 0.R 0.T Y h Y n g j b n j u b j t u y b b d c b b y b y Y i b b s b m c X d e d c e 3.# s m u y j r m T n g T T R T 0.I R g g T Y 1 k j 5.p T g g r g T Y < 0.* L i 6.h p T T T k p s : j T 5.T r n j y O i M : n r N b 5.m e 0 M w 5.y y b b p y j j d d j y d d d f m f v d 3.# e e X $ e m % w d e d b o $ % : y e : 5.: y d w @   e f e   e m % O c j e e T e b d n b : d j % j r f n r % f 5.r n : r : b d : m r k r g g l 0.I R I T t.L l L , l k h h M I 5 l = X.5 L l L L I R 5 l I I L Y I I Y L L I L l I l h l 4 k M g 4 < f x : j d n : O N d o c f d % o 0 % b u   4.# + $ b d $ $ $ 9 v X % 8 X 9 b t w 8 u X 9 8 s 9 s a w 8 0 o   o d f   v X % 8 +   X 0 X X t 0 + v 0 q X q X 4.q X 4.X 4.q X a B X q N X 0 + X B a B 0 t   b N e o f f f = < k k T & < < < , i , h . ; g , g , > : j r g , i r i r # O @ u   + X X 8 # q 8 8 t X 8 8 8 u 8 w c s 8 t X u # t @ # + w 8 9 9 9 s # v w   9 s p . ; @ ; u Y . n # s s Y # @ u u 8 w # # # w 8 8 s u # w w 8 X 9 8 e t X 8 t 0 X 8 a q 8 q a q v q v q v q v q 4.q v q q q q q q q a X 4.m 3.v 4.0 c 9 M $ + 0 m 9 X 3.9 a 3.0 a 4.4.q 4.4.N + 3.v 3.3.X 9.0 m 5.0 v 3.m c v m # 3.9 b 4.q 5.a a 4.4.v 6.X 5.b b m 5.s e.5.5.5.5.6.u e.w T m ",
"I X.l T Y R 5 X.T l L h I r.R 1 T 5 I R I X.I 2 r.} X.I L I U I E X.I U X.*.*.*.I X.} X.R U I *.*.*.X.4 L ..0.T 5 l 0.R 6.T Y p T n l j b b s u m s u u b b j r m n d j m j 5.y y n y b c t % c c r m b b 4.9 5.b y y b Y j g Y L n p p p i Y i l L h p Y p n n 6.x j l x T T r T R e.p 6.n i k < Y ; b b ; r < p y O , d k b e.M Y T $ 5.$ $ M y 9 y @ 6.s s b y b y y j n m n 9 e t $ d v t c a e.t y c d m M c # t e d w b + @ e b m d e e.w m m r y @ d d b % w d e : y e y c 5.e b r M b e : % b f n j e f f j r % T d n : M d Y j j T k k k I I l I L L X.I 1 L h h L T 5 T A h L 5 I h T X.0.X.I I 7 L 5 5 2 5 L L L 1 5 I L 5 6 6 l I k M T x l g k x , c f m w % j y o b $ w d @ t X w c # M 9 w + 0 @ + v v 0 d f N d c 0 v 0 + @ y e y t y 8 a s 9 X t f 0 8 0 m 0 3.X + 0 4.% q m q v 0 % B v X X q X X q q X 4.X q q q 0 0 t q q   X X q q X N q B % c f % & b n f . f g g 0.< , L h I L g L 4 > g < f ; % O f , f j r w r w o o @ b 9 8 8 8 0 8 q 0 9 0 X 0 + + 9 a 8 9 8 8 s X 8 X u a # # X 9 m X s b   b u # ; Y p ; ; # O : b   n @ w # b ; s s # v m # w 8 # 8 # s s # 8 @ 8 y c 8 u m a 9 8 3.a q 0 8 X X 8 q q X q q q q q q v q q q q v 4.v q 4.q v q a + v + + 9 v m c f 5.3.v M N 9 3.9.q f 3.3.0 a 4.+ a v 4.v X x.v 0 3.v m v 9 c 9 M 5.X y u 5.4.s 4.4.5.4.q e.8 6.5.6.3.m e.u 3.u m m y 6.4.y b j @ ",
"n 0.k R I 0.l T y.X.r.X.R r.X.X.X.R E X.R X.X.2 l.R U R X.r.X.- X.X.D 5 D I X.*.U } U U D 2 - 5 5 h I L X.X.I L k T 0.6.L p Y > k k Y j m Y j y 5.s s b j y e y b e r y d o y y y m t c c t e v y t t c m v b s m n j i i r i k T Y T Y k L L l l T Y p L j h Y k Y T L l j Y l T   < 0.; T 6.> T T 5 T r.0.g f T Y Y n j d d T . . n n T f m d 5.t m w 3.9 w m b 6.Y j b m d j : w d o e c 9 d w 5.t + e m b 8 m 9 c @ m 9 m c # o y y $ @ 5.@ $ e o M e # y m M 9 o : d n j $ e n e : : d : $ d , j n e T 5.: j 5.r r M r T n j w T y r n g j T Y l k T T L L k , L 5 = l 0.I E x T I l l I X.R T I 5 R l X.R I l L I I L L L I L 5 5 h L ..X.5 l , g , 4 r O , e N e d j f $ m $ + m @ e + $ m + m w c $ m t o e $ o 9 X f 0 9 + 0 % + o 8   a y b 8 t 9 s @ $ X % t % +   N     X N +   d 0 0 0 + a v X X q q X q q q 4.X q q t + X z q X + 0 X q 4.  v 8 + + M N 9 X $ k f . , & . x < = g < 4 k , M , ; 4 < g O < ; f d d d e % $ w $ u y w +   + 8 8 X X 9 q q X w + X 8 4.X # X u 4.y X + 9 u X a u @ + X m m   a s @ # s b # u ;   : # u b w ; O 5.w u s X 4.5.X u u 9 @ 8 0 w w 8 # 8 9 w   X 9 e 9 8 a X 9 X X a 3.X a v q v q v v q 4.4.q q q q v q q X a q v 4.q 4.e.3.f t 9 d % $ v 0 o 0 q 5.0 m v 0 4.+ 0 4.v + q q q a a v 3.q 4.v a m t c v 0 4.s 4.9 4.5.4.a 4.8 4.a 4.a b 4.4.4.5.4.3.m 5.5.M 5.m 5.5.e.6.$ ",
"Y r.T X.I 0.L Y h.R 0.X.X.h I r.I I I R R R t.} y.E R U L U X.*.L D D I U U I X.} *.I U X.X.E r.X.X.X.I T r.T R 0.e.e.r.T Y 6.h 1 , j f p M r u y u u j b y b n 0.m T m n d m n b m d M c d m 3.d M s M 5.@ x.s 5.6.6.j j Y T T Y Y Y Y l Y j 1 r T Y < , Y h L < Y h Y k 1 h h l 0.6.r.; L T Y Y k Y 1 k r ; k n g T n k n l b < M n j t o y M c u b u u @ u j r T n b j n r b d m m e d 5.0 m c 5.c e e m t 9 m b y # 3.e y m r + y M e w 5.y b $ X m n b y e d f e d w m m d : b j e d n @ % 5.5.: 9.# e 6.. % n d g r % t M f r b n r k g l k 5 I L X.T X.T T I T , * 1 X.k k L l I L k T X.I T 5 5 I = I h 2 2 l L k L L I k l 5 I k L T T L x Y x x f k f f f d e b y c y c : 8 b # $ e 9 n @ w 9 b @ 5.m d d % t v X d v 3.d t + e w y w s u s 8 e + a y c o t N t + X m t 0 + 0 q   0 q X N q + 4.X X X X 8 X q 8 X q q q v X   v q B a N X X 8.X + 0 + X M f 0   4 j f f f ; ; l f h g = 6 I g M 5 = l % j : f e f c f d $ @ @ 9 9 0 0 8 0 X t t 8 0 0 0 0 a X v 9 8 a a 8 b 8 X X u X s 8 # # 5.5.X   # 5.w # s u :   p s . u ; o ;   y @ y # w m ; X u   u s   # @ u 8 w 8 @ u y 9 @ + u t # 8 b t t m t q q 5.v 8 q q q q q X v v q q q a v q q q q v v 4.q X 4.8 c v v v N % 9.c 0 4.9.3.t 9 v % 4.a 0 3.X q 3.t 4.a 0 X 8.v q N 4.t 3.t 3.c 0 m + s a 4.8 a a 4.a 6.4.e.4.s s 4.4.a 5.5.a 5.3.e.3.c b y 5.5.n b 6.",
"I t.T R L h.0.R y.r.I R R t.R r.R A r.} X.*.I P t.U X.y.*.*.X.*.y.t.*.X.*.X.} -.*.O.I R R *.L U R R I 2 l t.9.X.t.0.Y R l > L . > > g , j 5.i > 5.u @ j T b r y b e b w d n m m y y w m d w d m y m a 5.@ y 5.5.s y y j j p r Y n h j p g L Y I T R L I L Y g 0.T X.I 0.t.0.R T T r.i L X.L < R k k I 1 T < , l T r l % r n j < n T : j d j 5.r c r b u b m m p r n p j j r O d w b d e 9 3.o t c w w y 9 9 # m 4.M e # 3.t @ b d   $ 5.y $ m e y @ j e % m @ u f e % b y M M r $ j m % d m O : r e j $ n % d j e y w d j m o : m j : Y f l g x l l 0.l L 1 X.Y < 5 l h l 5 I 5 L l 2 I I R X.L I l , 1 R < T I 5 L X.T L 5 2 L 5 5 L | T x L 5 x f l j g O f 4 d c $ $ N : d e $ e w M + @ t # 3.w w t b   c # + 0 + + d % d 8 d 0 0 $ 0 + 9 8 a w e 8 s # w @ d + t 0 + t N +   q X   v 0 8.0 X 3.8   4.X X 8 q q X q q X q q   q X X v q q X 0 X X 8.+ 8 8.X 9 /   X % 9.M < . & , 4 , 5 T 5 = l T < g < & l   f < f d f , % 0 9 9 9 8 8 + o 9 a X c a q a a 8 + 9 X a 8 8 a a # X t + 8 t # X 8 # # # 8   b   b # # s w u # 5.; . # # u # # c X 6.  8 @ u s s 8   9 # # 8 u   8 u # # u 8 u 8 s a + w a X X y q 8 4.a q X a X q v q X 4.q q v q q q a q q q v q q q v 0 8 0 9.t v c $ $ % $ 5.t t d a   3.4.X N 0 0 N v v 0 v q v t 3.4.4.v 4.M t % t m c + 5.b u 4.3.q a a v e.x.4.4.4.b b 4.e.8 5.m m y 5.m c 6.n w T 5.n ",
"0.T R R I r.T I r.T X.T P l.y.X.I R 5 E U L U *.} X.E L X.*.} U R t.-.*.y.X.X.r.*.r.X.y.I I X.X.*.0.0.5 I l.0.l.0..., T , < g > O i g Y j 6.b n i u u > b r b j b j T n j 5.T % w n 9 c e w c e m 5.c e c n b Y 5.5.n j : L T l Y Y h E g I R R X.I 0.R T r.R 0.r.r.R I A R R r.L Q y.I r.P R L X.T 5 L I T i g , O 6.: g r , n p n k u f n n j d w j u 6.5.s i p T m b b Y ; d # e @ 9 # a + s w y 8 y w u a 0 @ t t y m 9 # y w + @ w   m 5.  5.c @ + + 3.w w t : e f % b y r   : j : b % o n f j d b m j b j : n e j j $ f : j b k j r M i g T 5 L T l h R < h X.* L T 5 0.2 h I g L I k X.5 I 4 < h R 5 l h I R I L l L I I 5 6 I X.l 5 6 I < l f 4 < < $ f e m e f % e w y 0 o w e.X X # a e.# m # m 8   b 9 $ 0 + 0 t d 0 X % 0 X c X @ y w t y w t @ y @ c o t 9 X $ 0 X q + X a %   t q X 4.q X 8 N X X a q q X q X q v   v q X 0 v X q   X q N q B v q e f 9 B % m : f e 4 < g l T g 4 k < , I T & f < : . e $ $ f + X d X 8 + q + + q 9 t X q q 0 X 0 q a   X t 0 X 8 u # 8 u 8 q 8 8 u u 8 # # u # b w # 8 ;   s ;   Y ;   O u @ u   @ u m   : u s b @ w # m 9 @ u 8 @ # 8 s X u y X + v 9 # X y X a 9 9 a t a X X t X q 4.3.q X q 3.4.v q 4.q q 4.4.q q q 3.q v q 4.v m 9 d N + % M   4.b t b @ d 9 t m m 4.0 X v m 5.8 v a 3.9 t 8 3.X b a 8 u 4.m u 4.u s e.a s 4.8 4.5.4.5.v 8 5.4.4.4.4.3.m 5.u 5.# e.n i e.y 6.",
"T R 0.T I t.X.T y.I r.t.r.L E X.U *.X.*.R X.*.r.*.r.*.} *.-.*.y.y.t.X.U t.*.*.*.t.*.X.*.t.E r.R *.I X.0.l.l.T 0.I l = 1 h L L T 1 k n Y j 0.m j i n b u T Y T j j m b m 5.c y 5.n d e.b M M d b T 5.5.b 0.t u 5.b n Y n Y 6.6.h L 6.T R L 0.X.I r.R *.I I t.I 2 I X.R A A R R L L X.L L U L y.R E T k h k l I T 1 k < t.l 0.r 5.O i j i j j j % n r b . m s s s Y 5.n n m T u y @ y w u @ a + w 9 c t c 9 9 t y a u +   a m a X y w o w t b e a b u @ t u 5.w d d e b M e M r b d n b @ : m b d m j d n T M b r : n f b b : d e e d j j l g g 4 T I T X.T k 0.1 p T < L T 1 X.< 5 L I X.R 1 L < L 5 1 5 I 1 5 5 T L 5 L E 5 L 5 I R X.R 5 k l g T T f r f j f j r d % c 9 e w 3.d e t m # w 9 w m + b t 9 y   c f 9 f 9 e N v v o t c o y o w c y m b 9 @ 9 b 9 c 9 t c + % t v e X X N 0 X % v X a X X 8 v X X v q X X q a q X 0 X X   0 q % a B q z 4.0 0 B X 9 N % e % M % < . , , f l l 1 5 R x = g j l x j f $ e % % c 0 X + X q + q X X X 8 q X o 8 0 X s 8 0 8 8 8 a 8 X 0 8 q s w s 8 u w w b 8 8 w @ @ : # ; :   : O O Y : ; @ ; # b @ b @ u 8 b # @ s # 8 + y 8 @ s w w + w s X w u # 9 m u w @ 4.9 b 4.t 8 # a a t 0 q v 4.3.q q q q q q q v q q q q 4.q q 4.q 4.X e.v v N 3.d w d e w 5.d m w t t c e 9 a a d v 4.t q a 4.a e.4.a 4.3.e 4.w m b 9 9 v e.X c a 6.u q 5.4.a 5.v m m 5.5.t e.m x.@ 5.y Y m 5.n ; Y Y T ",
"I T 0.I L x.r.y.R 5 R R X.l X.T L R *.R L } T L X.L - I X.U I X.y.r.*.U *.*.O.X.0.} U I X.L I L T I t.t.O.0.5 5 & = * , , R . h g j h Y > 5.b p n 5.b s m i g j : b j j e % b y 3.d 0 c j m e d j % m y 4.y b T p u Y p n h k , 1 L L T 5 X.R I U 5 I L L X.R I A I I U I L A A P U A E A A y.U h I T T X.h X.0.T 0.O T O r j Y ; j n n T Y l r Y : n # b u b s Y Y j u : i u j o w @ 8 # w   + 8 y t b w 8 a b c w 9 u y t 9   b @ @ 9 + m y @ # @ @ b   9   n d   e n # b @ d w : y w   d o $ j r r m b b m j e d r n d : j e : e j g T , M 5 l l h h 5 < i 1 1 1 5 5 h 1 R = 1 5 I X.T 1 I I T L l 5 T < 5 g L I 5 L R 5 5 h T X.T I 5 k l f k l ; & % r % % % t $ c w e w M c   + y t w # X m # 5.9 u u 9 t 0 + $ + + 9 q f   0 d % w X % t e m t + @ 9 M w m X   t % + + X X X X a 0 v 0 v q 4.X + 8 a X X X q X q q 8 8 X X X a 8 B   X   X X % t % X t q o % X % f M % f % f k l l l g g I T & & < < : . f : e 0 0 c 9 X X X q q + X + 0 8 + 8 + 8 e X a 0 9 8 q 8 5.3.X s 8 8 8 # X X # 8   s # ; @ s ; : u O Y ; ; . ; b > s s @ # b @ w w b @ s O @ u @ s 8 y 8 @ u + 9 w 9 s @ u u 9 @ s 8 @ # a # # y y t 8 a t 8 X q q X q a v q q q q q q v v q q q v q v q X v 5.3.m 9 + c c e f $ d M 3.m e c 3.t 9 9.v 9 + 8 0 a v 3.q 8 0 a t 8 m v m 5.X 6.v u 5.s m a 4.a 4.v e.4.m 9 y s c 4.a 4.m 5.w m Y Y M 5.Y Y T 6.p ",
"X.L t.R L r.T t.R X.R 2 P R T.y.A P *.X.L y.*.U U I X.*.U I U t.*.X.y.r.y.*.*.*.X.r.I I R U T 0.X.t.y.6.= Y 4 < f l Y 0.l e.* 6.T Y n Y p m p 5.: y r i 5.r f T n 6.5.T m M e.d T 5.M 5.b 3.4.0.5.w n M y 5.5.u e.Y 5.5.T i Y 0.E T T r.L L 1 A X.L I I L L A X.R r.E y.R X.L U *.I r.*.R U *.I 1 I 5 L T 1 Y g > T 6.0.6.k 6.Y > p i , f r r j n % m u Y p Y s Y l j > u j u j : u u w + t 8 s w 9 w a a w t y 9 8 a 3.@ X # w m @ e 9 t 6.m + m d 9 m 9 M @ m M X b 5.% 5.y M y o e.0.o T @ Y % e f b r f 5.j j : r b r : b % e r j r T . T I I X.T L Y h Y R T = T h h p I < , T r.0.X.5 T 5 R I l 5 X.5 L L 1 T I L I I L E X.L l L l l l l k T n b g b y y o d d d e m 0 y e + m 3.c + # a 5.  m @ t 9 y y v f f v t d d 3.o 9 c c b $ 9 b u s o + y @ b # M 0 8 e.d % q d q % X + + N %   v 4.q q X q q q X v X q q X q 8 B X 8.0 q + 3.z v 0 0 N q X B % 0 d B B c N % , f g l l x g 5 5 5 ..i 5 M l f : f o + 0 t 0 + + X X q + q q q 4.q 8 t + t a X 9 X 8 a 0 X 4.5.q t X 8 # 8 8 s b b # 5.8 w u Y 8 u p # 5.> : ; s p 8 ; ; ; ; b #   u 4.@ 8 u s @ u s u u w w s @ : @ @ @ w u 9 u y b y y w y 9   a 3.m 8 @ 0 t 0 q a q X q a q v 4.4.4.q q a q 4.q q 4.q a q v 4.v f v c M 0 o 3.t O m c 5.c 4.M c X a c t 3.0 N a 4.e.4.a 4.5.m 9 x.u 8 e.# v s a t t b 3.q 3.5.8 5.4.4.m m 3.t s 9.m 5.y 5.5.6.T j T Y p 6.R 6.",
"X.T t.t.R 0.L T A 0.r.l.y.*.r.E t.X.r.*.L R A 7 R X.*.t.X.R X.y.*.R L.y.*.X.-.r.*.X.X.I R r.0.r.0.T h Y . l , k 0.; 5.j n E p 6.5.Y h Y p Y s p : j n Y e.j j 6.j 5.r n 5.r f n m $ e.+ M 6.m y b d n b s 5.s ; 5.Y b Y p j k T h 1 l X.L R L X.X.L I X.X.T L R L r.Y I L E L I E L R *.Q U R 2 Y X.L T h 1 h g i Y j i : j 6.6.n 6.h p k k j T Y ; b s m s 5.; n j j i Y T s u O O w 9 # 8 8 u 9 8 u t t 8 9 y u t e 4.X c c c w 9 @ @ m 5.9 w y w # u + 3.9 c k   v T : 5.w y c e T m   m d n O d M m r b T $ m $ f b r % b : : r j r T . X...l I M h L g i T T * T 1 5 h l 1 R 0.X.L h 5 | I k 5 1 = I , 5 5 5 T E L L I I X.T h 5 k L k l k % j f y : r w e % d d c w m 9 t w 8 y 8 + 9 X + M X w b @ e $ m o o 0 t e 9 9 N   o % 0 $ $ + e y d w w y @ r # 0 + + 5.0 o X v 0 X + % % 0 X X X v 8 q 8 q q q X 4.q q v + N X 0   t X X X 8.v N + q N B X v N B 0 % o z b : f l n Y ..T k 5 k 4 L f < ..< 4 $ @ X o 8 X X q q + X q + + + q N 9 9 a # t b   + 9 + X o a 3.4.X 4.s a 8 8 8 8 s u # b s @ s p   u 5.. s ; u i p Y ; @ O # 8 Y u u s s w s b s s # @ 8 w @ w s w w w @ + w @ + w # 9 9 w @ 9 # X + t w X X w 9 q q a q q q q q q q q q q q a v e.q q a q 3.v v 4.d X d N c 9 d b 5.d $ u d 3.b t c o v v X v o a 0 v 5.8 4.v 4.v 8 4.5.8 4.s a 4.4.s 8 5.4.a v 4.a q a 5.5.b e.8 m 6.4.m M 6.Y y Y Y E r.2 Y > E ",
"R 0.r.0.I y.R R R r.R U T X.X.X.*.R R R U X.R X.t.X.L R I t.X.X.y.*.l.r.} *.t.*.r.U X.A y.0.R L Y g > Y ; j : n 6.s u 6.s e.p 6.p j i r 5.6.b ; b 0.5.n R k M T T Y d T 5.% d e.3.w b w 5.M m y j 5.T e 6.Y 5.e.p 5.b L Y 6.Y L T Y L E h X.5 1 h L T P T R 6.0.T X.T L 0.L I T h X.1 y.X.0.r.r.T t.X.r.I k h l 0.Y T n Y j u j j T n y n k , r T u > u s ; Y @ p L Y > b y ; p u w y y 8 u w 8 9 w m t w 9 8 u @ + X m   y 8 @ X w b u w w t # + t y t @ b w m M X f c : M e d T b X e j y M w j n b y e M 5.% n O d j d % j w % e j j M < T T l L T I h Y g i T . I 5 5 l h L R I L T I L L k 0.I h I R L I h R A 5 5 L I I R I L I h h M T l : j r r w b t y e e e d 9 b o y 4.9 w a u 5.8 # m X u m t o X m 8 + v d v % % t + e $ e o d d d O b m @ + o y @ d 8 $ b 0 9 % v   X 0 X X q + 0 X v X X 8 q q X X v X X v X q X q   t 0 0 X + q N q % 4.+   X % 0   % X f : e f : x T 0.T l 5 Y T T g * 6.O e % X u 9 X X q q q X q X X q q X q @ 9 9 + 9 b @ 8 X 8 a 8 # 8 a 4.u 8 u 8 8 8 8 w @ # s s ; b s u . Y . p > s ; > K s ; ; ; # s u @ 8 s O 8 ; # 8 # # : @ @ # 9 @ u @ @ @ u # @ 9 # y w w e 9 9 @ y 4.b a u a @ X v q q q v v v v q q v 4.a q q 4.X v X q 4.a 4.4.3.v 0 9 3.M 5.N c b b u m b m e v d b m c x.3.m 3.4.3.8 4.a 4.s v 6.a # 5.e.  8 b b u 4.a s a a 4.4.s a 4.s 6.0 u e.e.Y b O M r.u L Y Y R T r.E ",
"0.0.R R I X.*.X.X.X.R A E r.t.*.r.y.X.r.*.0.*.r.X.X.R t.I X.X.t.y.-.y.R X.*.X.*.-.I t.Y y.0.R 1 > Y 5.Y n m j M 5.b 6.s 6.m 5.s i p i r 6.6.p n n Y j : n Y 6.T T n n n b y 3.9.f M e 9.y @ b 5.n 5.y u 5.w n e.s Y Y p T T Y h R Y Y 6.L r.L Y L R T L L Y E r.T 0.h T e.5 k T < X.& T l I I X.l R R R T T g 1 6.i 6.j 0.s p u s Y h p Y n < < 5.y ; ; ; s b ; j 5.T ; n u @ n w @ w w 8 8 + # w t 4.t t w 9 9 a 9 t 5.t 9 8 c w u 3.4.@ w 6.X b u 9 # w 3.u w b + f $ e d d d M y   o 5.: d . b n r : e m T e 5.@ j j b % j w : e i j l l l l T 5 L M < Y k < T 2 R L L T L X.0.I 5 I l I 5 L T 5 , T h 5 x 5 X.2 5 L L I I L 5 h T h k l Y j f k e w 9 b y y d t e t @ y   y u + e 5.X a   9 5.+ y c 3.o o v 0 9 M 0 c X 8 % e 0 o d o e 9 y # e M + # 9 y y 8 % N t X % X N X 0 N X + q q + q 4.q X q X q a q 4.X + a X 0 q X X + q + + + 3.X + X N + 0 t B M % f $ f o : < & j g T < 4 & 5 , 4 & . g . % o X 0 q q X q q q q q X q q 0   q X t 8 @ + y @ @ 9 X q o X X c 4.a q s a 8 8 @ @ 8 u s O # u ; s   Y u p s 2 * s s s u @ s # u s O b 5.u @ s u ; 8 O y 9 @ # ; 8 u # @ 9 s # ; u @ b w @ s @ + @ 4.3.s 9 + #   8 q q q q q q q v q q v 4.v q 4.4.q q a q q 4.a 4.  v 0 $ M + f 0 @ b 5.b e.e M a c m 3.m 9 9 a 0 a 8 3.4.4.4.5.8 w 5.u m s e.b 4.4.s s q e.4.3.q a 5.4.s 3.4.e.5.5.6.b Y 6.5.6.0.x.E R ; 7.1 6.L ",
"X.r.X.r.R R T L T E X.5 I I E X.L R L Y I I T *.L L I t.I X.R *.r.X.y.X.*.y.} R R L r.R X.0.T h j y b i 5.Y b b 4.6.5.Y 5.b b s i j s p 5.p # 6.n j g j 6.n T g n 5.n d 5.M e 5.c M m M n e.5.d b b r 5.m u 6.5.s b Y n T i h R 6.Y E 0.L T 3 T T R Y E 0.7.6.0.T x.Y t.0.9.L T T r.I L T T 1 T T l I h R T k g R Y T i Y u p i p 5.h r T T j j T Y s p s s p 8 i L r . 6.Y . # b 8 u w 8 u t 8 e e m 9 s v t 9 9 w b y 8 # u c 9 w @ a m 8 5.c m e t # t m s c e o m b n n b r c m T # Y d r w e m j d b b b r 5.: b r b @ e : y r r g 4 M 5 g X.5 L l ; 6.R 1 l 1 T x l L 1 T L Y 5 T k t.R L T 5 5 0.L k I L l 1 X.X.I X.I 5 4 , T Y I , j n : m b y : y u c d m m y + m + w 4.9 8 m   e.# + 5.@   d m b + m $ o m o d o 0 $ M 0 + 9.d e + M w $ m : w e : e o X m + % f + 0 X + 0 X v B 0 0 X a q X 4.X q a X N X + q q q B X N X X X N X N X 0 % / X 0 % X v   e % f X f , e T f k ; T , 5 , k f < f o $ o X X q v q X X q q q X q 0 a + v X v e s + u # X a X 8 0 w 8 a 8 8 8 8 s 8 s 8 s # @ b : s s @ Y O Y : ; > > s 6.s s ; ; s ; u s # 8 s # ; s u @ u @ y u u + u y y # 9 9 s # 8 8 # b @ # s @ # + 9 w X t w a + 9 q q q a q q v q a q q q q q 4.4.v a q X e.q 4.a f c 0 m 3.o 5.m t T y b e.m m y 5.d 0 a 3.+ 5.a 9 a a 8 4.5.a 0 a 5.4.c 8 x.8 6.8 s 4.4.x.4.3.a 3.a a 5.5.a m t u 5.m Y e.Y Y Y L > 6.R R T > 7.",
"0.Y r.X.r.Y R I R X.R 0.T T *.0.I T L T R r.I L 0.0.X.X.R X.T } w.X.X.L I R X.T X.T R Y Y j l 9.j 5.i y T b 9.n m n n u s 5.m s Y : 5.; 6.@ 5.y i n M y T n n O e.m @ 6.c 5.o M m c 0 v 4.9.9.q 3.3.a 4.m n M n r Y Y l , Y Y L Y T k L Y T I R p R T 5 6.r.h I I L X.R R R R 5 0.L 2 1 I 0.I h R L L 5 L l I Y 1 h i r R j p p p b p h j Y h : Y n Y ; p u > > p Y > ; n > r u w y u w 9 8 t + + @ $ c u t w t # b t u w X y 9 + c # m d e m + b y $ w 5.9 8 m % e : f d n M d % m d O M u @ T t 6.t d d n d y n t e m y e w @ r T : k & M x 5 l g 6.i 6.p h Y = T X., l I x T k k I L L < R . R L Y I = X.5 5 5 R 0.X.r...5 M k 1 Y g j j j e o y b m w e t : c t 9 y @ m + @ 3.@ % b + m @ o m 8 @ + b + # y c o f X M 0 % f f % X N v 8 9 + v d c y e o y y 0 + 0 + 0 t   v q + t X q X v q q a q q v X 0 0 X N   8 0 0   N + q X B X N 8 3.% X q N X 0 X q f + B X $ % 4 k f f T T & l < M l f : f d % X 8 9 8 q q X q X X q X q q q X q 8 q q q X a X a a 8 8 X 0 9 a 0 t u 8 0 u s 8 s 0 s X @ u w # s b u Y p : : > s b j i u s u : w u # 8 b # @ u s 8 @ @ u s @ # 8 9 u 9 w 8 8 t 8 # u 8 8 8 u u w @ @ 9 # u 0 0 u 8 X X v q q v X q X a q v q q q v a q q a 4.v s 4.u s c 4.% e X 4.9 b : d m 3.e b c $ u e v m 5.c 8 m 6.0 q 3.m m a 5.0 m 4.5.v 3.a 0 8 m q 8 4.s a 4.4.a 4.4.v 4.5.s b x.8 6.p Y Y 6.6.7.T T Y T.",
"R I X.T X.Y R T k R 0.t.X.7.0.X.R X.T I 5 l R 0.R X.R X.R 0.R R X.E I I I X.9.T 0.Y n g l j u n w b u j 5.n n : 5.O b ; 6.s n 5.c w y d 5.9.5.b 5.% r y e.m : e 5.M d e.m 3.9 3.c 9 v M q e.4.3.e.x.v 4.5.M n b n n 6.T Y l g j T l h T T L L X.r.0.I L I R L 0.I l R T T U R L R r.X.E L R T 5 X.Y L 5 L 2 l Y , L j p 5.p r > > > ; r g 1 i > u > b s s ; > > p p i i 5.p u u : w @ # + 8 w + 9 9 $ t 0 w 9 t 8 9 + + a + u 8 + e 0 d d % m f N 9 % @ M 9 # c X b 5.d 9 e m d M 5.n d n w w Y % M % r e j r e M e w b t w w $ y m r l 5 l R l l T 6.> h j j 1 5 L 5 l T R 4 5 T k X.T x l R L R L I T = I 5 5 I R I h Y L h T T f n g j f r w : e $ r O w d d d e 9 u $ b + $ m w 0 c 9 y + 9 m 9 # b y @ o 0 b % c X b % % f 0 q o f 0 % % X e e w w w o y t 9 + d X 9 t X v X X q   X X 0 X q q X q q q q X X v X 8 0 0   v X q X + q 3.a 9.% X % 9 X q X % q X % X $ % d n l f n g < j 4 n b f e e y 8 + 9 8 8 8 8 q q q q q X q + q q q q 8 q q X q 8 q 8 0 8 X X 8 8 4.3.8 t s 8 8 X 8 # u X w u : 8 p ; u s @ > w : O u s ; # ; ; @ 9 s @ @ 4.# @ u s 8 8 @ u s @ @ w u 9 8 w # @ u 8 # 8 # # + w w @ @ b 5.0 s 8 X 8 X 8 q X X q v q q q q q 3.4.v q q q q q a 4.v 8 a a a a m 0 v t 9.M d m : y M # b c d c c t 8 m a t c 4.3.a a a 3.v 3.4.0 v 5.# 5.v a v m a v 4.v q 4.a v 4.v 5.a 6.b a 6.s 6.5.m e.7.6.m 0.l T l.",
"R 0.T R X.T R R t.r.T R k R r.l.I h l Y I E 0.t.X.r.l R I X.X.X.-.R X.| R 0.0.R R k r u b Y p b j Y j j Y j T n n n j T m 5.s Y a u : m n T w r r n r 0.b e f e.M m m 5.d c 0 j 5.c v N v UX8.3.v x.s b 5.b b T T Y e.T Y Y Y i Y L n I I Y I T L X.X.T X.T L l 0.X.r.*.X.r.y.R r.r.R y.r.E T X.r.I R T R 1 5 Y Y Y l > i > k p j i i k T h j b Y ; @ s u u i i ; ; u r T j : u u @ 9 8 8 w 9 t u y 9 w e e 8 b m 9 9 8 3.@ + 8 y 8 $ w 9 f c f n @ 9 $ y t # c f t m j b : r y m b d d e r r b : 3.$ d e d r e m u t j e 9 y y e e , , l l T l 1 T Y , ; Y 1 < T 1 , X.X.X., 5 T 5 0.I - h 2 = I L I X.1 5 5 L X.T I 5 l l 5 k T g k f r r e : b y % y : d M m y 9 9 $ w y 9 9 b e X $ y e @ + y u   5.9 @ # @ d + c + e 0 t f d v f 0 c 0 e + w t 9 e w 9 y t $ 9 v + 8 a + v B q v + t v N q q q q q q q X X q v q % 0 t 0 a q B q q q v % N t % t % % 0 q 0 B 0 0 B % e M f k , k f , k f f d : O % $ o X 8 q q X 8 q X q q a q q + q q q q X q q 8 q q 8 X 8 X a X 9 X 8 X X s a 8 # u s s 9 # y b u ; u @ Y O # i r u   i u O . . # # @ u @ # b # 8 8 8 s 8 w u w 8 @ 9 s 8 w 8 # + u 8 9 # + @ 8 u w @ : y b 8 u X 8 q 8 q q a 4.q q 4.v 4.a q q q q q v 4.q q v q 4.a 4.b b y c 0 c v 9.m m M N M b c b t b m 3.m 8 4.c 3.m a + a 9 3.+ q x.m t 3.v e m c c 4.m q 4.a 4.a 5.4.4.4.v 5.a 4.4.5.6.s b 6.6.Y u 6.6.6.T T 6.",
"T r.Y X.0.X.R T T X.0.r.R R 6.R R 0.r.X.0.l.y.g t.l.I r.I 0.t.r.X.R X.T I ..T I T h < r j 5.n n % m Y m n : n n r Y e.y 5.s b m M 9.m T 6.% w 5.b : e.. : T k 6.e f n d f v N b f f 0 + v 4.3.0 5.x.4.s m j w M r g Y g 1 Y 6.j Y L Y h L I T 5 , T I L h I 0.k R I I Y L L Y L V 0.T E I T r.L X.R 0.r.0.L h L < h Y L j i n > : ; : p L , 1 i 5.p s s : i Y n i i Y i n Y i j j 9 s u s t 8 0 a c @ 9 y y 9 b a w y 9 4.+ + u c u w t o 3.9 d M # w 9 e m + b M % d d M d j e n r r n % b M b f M : n d d d e M w y d c e c d j d g i I x T M h n n Y p T 1 1 I l 5 0.l T 4 L L 4 X.X.l X.L T 5 L L R 5 5 L I { R T 6 k L , f T l l r , r e : d u o t : e d d d 9 9 $ d t e w w b 9 e b # t m a b # 4.w 8 + 9 d X d f 0 B t v 0 f v X t 9 $ o t b 9 c t y y d % 0 c o X B X t + X q X + 0 q X q q q X q 4.X X X 0 q X % 0 d 8 + q 0 B X N % a % 9 t X q % X q q v v q % e f $ j : g < , j f , f , o O w 9 9 t a q X 8 X q X q v q q X q 8 q X X q X 8 8 q q X 8 X v 8 t 8 a 9 8 c c q X 8 8 8 9   s 4.u   ; ; 5.* ; s > u . j y ; # # @ O ; s 8 @ b w u 8 u b @ 8 u w # # w u u w s + 8 w 9 8 + + @ 8 w @ # @ y b # 0 8 8 8 X a X q v q q 4.X v q q a 4.v q q v q v 3.a 3.v v 9 t c 5.3.c + 9 : f t r M % m y $ e t m m u a y a w a a t o 3.v 8 x.w v 5.+ 4.a 0 c 4.v s 4.q v a v 4.a s a 5.a 4.a 5.5.5.Y 6.Y Y E 5.K 6.R g R ",
"L X.l X.0.X.X.T 0.0.T R k R 0.r.r.I L 0.0.L 5 R T 0.L r.I T T L R T 0.I l I g k k Y s s i n b j b Y 5.n n f Y 5.m r 0.b e.@ 5.6.s e.u u 6.o n 5.6.m x.u r 5.T m T M M d c M m t v N c m e.  5.5.x.5.a s m 5.r : y.x.5.0.k r Y 1 Y 1 h L I 2 l l 5 X.T L 5 T r.X.X.X.R E L I P I L R A 0.I 1 I r.L L T I R L Y 1 1 p T T k p T r p i b h T I T Y > u 5.p s > 6.T p p b ; ; j : O y O u w 9 9 X @ y y   @ t y @ y 9 8 a w a @ 8 t w t m c   b $ k m # e $ 8 5.+ y d w M e c m M : M O $ d   s n : % b : M d b d r m $ t d b t b d n m f j x I g l k g j Y k h i h L I T 0.< T g x k 5 5 L 1 I L T 1 h L X.5 5 l X.I I T 5 g k l I n g j r : r : w n b w m y r d j t @ 9 w c w w $ d y     4.w c e 9 3.  w b 9 # b d X j N f $ % f f m 4.% d t t 0 w c $ t t y w t % 0 f X X 8 + q q X 0 X + v q X q 8 0 X + N X X 0 0 0 + X q d X q + X   + 3.0 9 o % f   q + X q X v B q o f k $ 4 : < < < g , % f : O o 9 9 8 0 q 8 X q q X q q v q q X q X q q X q X 8 8 a q X q X X X X q q q X 8 u q 8 s 8 c 9 # w b ; # ; @ 5.; ; : O u # j s w # @ : w u b @ @ s 9 9 8 8 s # @ u w # # 8 9 @ 9 s w + u 8 + s t 9 w y w O @ y m @ t t t q X q X q X a X q X q q q q v q q q v 8 q 4.q 5.v a b d e e c 9 c m M y T 9 c e b M a w t w e a 9 m + c a e.q 5.m v a 4.a u a t c 4.w c v v a 4.v a 3.v 5.4.v 5.5.5.4.s 4.5.6.Y 6.s r.5.6.Y p L T Y ",
"L R L X.0.R T I R R X.T I 0.R X.T 0.R T T r.X.0.R T T y.r.| X.I X.I r.T l Y g L j Y r b y b s n m j r O j r j Y j u   5.j s u 5.e.b s e.t T UX@ 5.x.e.HXf : 5.9.5.M m e M M d u M w f N 9.N 4.5.4.a u b b 9.n d n 0.l T h l Y Y T i Y k T x R L L I T X.I L T L T { L I L P Y P L R L L < 5 h 5 Y I X.L R 0.r.T Y Y R Y j p 5.Y p j Y < j i Y y ; ; 5.u s ; E b j n Y i u Y i u s @ 8 @ 9 9 8 0 c e   8 t c 9 t 9 u s 9 u 9 t @ 9 w m w 9 $ j c d % t e + 6.@ 9 b $ 5.f d n m e 5.r y b u M 9.d $ j $ M y r e w m O e y m u b e m n < 4 f T = 4 Y r p r i p h h 5 T I X.= X.Y I 0.X.l T k L L h 5 h L I I L I X.I L I g 5 l h l l 4 4 r : r % : u w @ y % O w e e @ @ 0 c + @ + + y X # t   w w + m # # m e @ 3.d   c c N % % f $ 0 f q 0 t $ % % y @ @ w w 9 w 0 t v q X % % 0 % X q X X v q X q q 0 X q v + q f t 0 9 + a v + N q q X + N % X % 8 f X t q X v X N q % + B n : r e < 5 < f r , e : . X @ @ + 8 8 X X q q q X q q q q q q X q q q a X X X q q X 0 + 0 c 8 a 8 X a u 5.4.8 8 # 8 u # # w # u w . b u ; : # > O j p @ # ; u @ w s 8 # s 8 @ 8 # 8 # w s 8 # # @ @ # 8 u 8 8 9 8 + # X   X + #   # 9 y # t a a a X q q 4.q q X q q q q q q 4.v v q 4.q q v X 4.a v t d c b 3.0 v v f e f o j % y d b t m t 9 m 9 4.a 4.a 3.a x.m X a s 4.t 9 4.a m c d c c v v 4.a e.v e.4.v 5.a 4.b m 5.Y 4.s 4.s b Y 6.; 6.p l h ",
"T T R 0.R R T L 0.R X.R I 0.T L I t.L E T t.I T 0.L I X.X.I R R 0.I 0.I 5 M < j p n ; 5.n m b Y j r d b 0.Y j y 0.m r 0.Y 4.5.b 5.5.; b M 0.e.# 5.s T.UXy r n 9.& O % % 3.5.b M e 0 M b m 9.v e.a 4.4.5.m M 5.n i 6.6.i h 6.5.R Y k R h T R 0.L T I R I h 5 g h T E L L I I I E r.R L R L L < 5 2 L L - h L R T g Y 6.6.6.h Y h p y Y < h > p < p s s O ; s K s > > ; i i j y : u w + 9 w w y y b t @ t u c y a y c t a 9 9 a + t w 0 @ c # M d r f d e o e.0 @ M o c M n b r w m w e e y n 5.y e j $ M e : w % m o e e b @ y w n 5.r f h X.< g X.j n Y p n Y T , I I T g 0...X.T x 5 R R T T L L 5 L l L T I X.I l I h g l 5 < h , r j : j % O y y $ d $ e y f t 9 o t y # + o b b X # m m m $ @ b @ # m a 8 M 9 # c 0 M 9 0 N d 9 0 d d m e $ @ c 9 + t $ w w d t N 0 % 0 q 0 0 X q X q v X X q q 0 X q v q a q + X 0 8 0 0 + q X 0 X X t 0 z 9 X 9 X 0 B X 0 q N q 0 9 e z e g g O M , j 4 f f w O o e t 9 9 X X X q q X q X q X X X q X X q q v 8 8 X q q 8 0 X 8 q   a 8 X 8 # 4.a 8 # 8 w w + # w # s u . p b : : ; > : b n : # ; u O ; s ; 8 s u 8 u @ u + w y w # # 8 # # + u 8 8 u 8 # 9 + # 9 y s @ w u b 8 t 8 9 8 X q X v q X q 4.q q q q q q v q q a q a 5.q 4.q q d c b t 3.+ b M % M u b 9.e 3.c @ t a t u m 8 y 8 8 u 4.4.X m 5.9 5.3.4.v 5.v a m + v t a 4.4.t 4.a 3.4.4.3.q 4.5.4.s 4.b 6.4.s 5.6.6.> T r 5.p "
};
