/* XPM */
static char *xpm__the_scream_resized[] = {
/* columns rows colors chars-per-pixel */
"64 64 255 2 ",
"   c #1D1D1B",
".  c #1B1714",
"X  c #181112",
"o  c #231C1A",
"O  c #261816",
"+  c #311D19",
"@  c #1E201E",
"#  c #24211E",
"$  c #2C221E",
"%  c #38241C",
"&  c #1B1F22",
"*  c #1D2325",
"=  c #1E262A",
"-  c #1E2F34",
";  c #232523",
":  c #2B2422",
">  c #2B2A25",
",  c #23272B",
"<  c #242B2C",
"1  c #2B2D2B",
"2  c #252926",
"3  c #322622",
"4  c #332B25",
"5  c #322D2B",
"6  c #3B2C25",
"7  c #2D312D",
"8  c #25312E",
"9  c #33322D",
"0  c #3D322B",
"q  c #262D33",
"w  c #2C3333",
"e  c #2C343A",
"r  c #2D3B3B",
"t  c #263438",
"y  c #333432",
"u  c #3B3533",
"i  c #353935",
"p  c #3C3A35",
"a  c #33353B",
"s  c #333B3B",
"d  c #3C3D3A",
"f  c #3B3539",
"g  c #352E31",
"h  c #261F20",
"j  c #43352B",
"k  c #49372C",
"l  c #433C34",
"z  c #4B3D34",
"x  c #423D3B",
"c  c #443A38",
"v  c #543C32",
"b  c #4E3227",
"n  c #41271D",
"m  c #3D413C",
"M  c #3B4339",
"N  c #26413D",
"B  c #4D4235",
"V  c #43423C",
"C  c #4A433C",
"Z  c #4A4639",
"A  c #554336",
"S  c #54453B",
"D  c #524A3D",
"F  c #5B4C3D",
"G  c #5A4539",
"H  c #5C513E",
"J  c #56432F",
"K  c #644C3C",
"L  c #684938",
"P  c #67523D",
"I  c #76563C",
"U  c #734B37",
"Y  c #2A3A45",
"T  c #363D46",
"R  c #263F59",
"E  c #423E45",
"W  c #2C4448",
"Q  c #3C454C",
"!  c #374547",
"~  c #2B4656",
"^  c #3C4A54",
"/  c #384857",
"(  c #395354",
")  c #3B5467",
"_  c #3D5974",
"`  c #334E63",
"'  c #444442",
"]  c #454A44",
"[  c #4C4B44",
"{  c #434C4C",
"}  c #494749",
"|  c #534C43",
" . c #5B4D42",
".. c #554B49",
"X. c #4C514C",
"o. c #47524A",
"O. c #5C5342",
"+. c #53524C",
"@. c #5B544A",
"#. c #595648",
"$. c #434C55",
"%. c #474C57",
"&. c #524D57",
"*. c #4B535C",
"=. c #495556",
"-. c #545454",
";. c #5C5B53",
":. c #53545B",
">. c #595958",
",. c #635444",
"<. c #6A5444",
"1. c #655A45",
"2. c #6C5B44",
"3. c #645B4B",
"4. c #6C5C4B",
"5. c #65544B",
"6. c #735C44",
"7. c #765C46",
"8. c #645C54",
"9. c #675B57",
"0. c #6D5650",
"q. c #5C6259",
"w. c #556155",
"e. c #6A614B",
"r. c #7B6345",
"t. c #74634B",
"y. c #7B634B",
"u. c #7C6A4D",
"i. c #746345",
"p. c #6C6354",
"a. c #6C655A",
"s. c #6C6A5C",
"d. c #656458",
"f. c #746453",
"g. c #7D6A54",
"h. c #736B5B",
"j. c #7C6C5B",
"k. c #766757",
"l. c #7A715D",
"z. c #445362",
"x. c #4B5869",
"c. c #585966",
"v. c #485C74",
"b. c #535C71",
"n. c #424E60",
"m. c #645B63",
"M. c #596568",
"N. c #4B637C",
"B. c #596576",
"V. c #496B6B",
"C. c #686867",
"Z. c #746C63",
"A. c #786B66",
"S. c #6B7369",
"D. c #7D7365",
"F. c #777569",
"G. c #676974",
"H. c #6D7478",
"J. c #787875",
"K. c #756B74",
"L. c #815E3D",
"P. c #8A623C",
"I. c #AE6E3B",
"U. c #C56F35",
"Y. c #835C42",
"T. c #8B6545",
"R. c #83654A",
"E. c #846A4B",
"W. c #8B6B4B",
"Q. c #866646",
"!. c #956A48",
"~. c #8A724C",
"^. c #96744C",
"/. c #846C53",
"(. c #876C56",
"). c #887459",
"_. c #967658",
"`. c #916F51",
"'. c #A4774B",
"]. c #A57B56",
"[. c #B0744B",
"{. c #836D64",
"}. c #837364",
"|. c #8D7B64",
" X c #837B6D",
".X c #887769",
"XX c #967C66",
"oX c #887B73",
"OX c #947D74",
"+X c #A47E64",
"@X c #C17548",
"#X c #9A835A",
"$X c #A98759",
"%X c #B68958",
"&X c #BA985A",
"*X c #B38C4E",
"=X c #8B846B",
"-X c #94846B",
";X c #9D846B",
":X c #998768",
">X c #8B8473",
",X c #898677",
"<X c #968775",
"1X c #9B9279",
"2X c #AC8B64",
"3X c #A68868",
"4X c #B68B67",
"5X c #A99169",
"6X c #B49363",
"7X c #BB9C6A",
"8X c #B89669",
"9X c #A58B75",
"0X c #A99479",
"qX c #B79876",
"wX c #BCA37A",
"eX c #BBA16B",
"rX c #B7A05A",
"tX c #C7974C",
"yX c #C58C58",
"uX c #C89A57",
"iX c #D39A57",
"pX c #CE954C",
"aX c #CBA45C",
"sX c #CCA658",
"dX c #D4A757",
"fX c #D6AF56",
"gX c #C39966",
"hX c #C49C74",
"jX c #D49D62",
"kX c #C8A667",
"lX c #D4AB66",
"zX c #D8B768",
"xX c #C5A475",
"cX c #C8A977",
"vX c #D3B579",
"bX c #CDB073",
"nX c #486985",
"mX c #556E88",
"MX c #6D7789",
"NX c #445E80",
"BX c #3D5C83",
"VX c #75828E",
"CX c #898686",
"ZX c #978B85",
"AX c #98948A",
"SX c #909093",
"DX c #A89785",
"FX c #B69D84",
"GX c #A69393",
"HX c #B7A488",
"JX c #B2A798",
"KX c #B5ACA5",
"LX c #C6A784",
"PX c #CAB585",
"IX c #CDB28C",
/* pixels */
"s.p.V $ 3 : 3 6 z  .G  .L L G <.<.U L v G L <.L v k v c c z z v x ..&.| } ..} &.9.m.&.0.&.0.0.0.E m.m.E T T T Y q , , < e q t ^ ",
"Z.M.=.! ! ! Y ! { %.:.-.9.c.&.m.C.m.m.9.m.C.K.G.B.8.5.} } } %.&.9.H.H.x.x.MXSXSXSXSXCXJ.G.MXMXFX{.E E T Y T T g f g a e Y T Y ^ ",
":X2X0X-X-XD.D.S.>.d.Z.a.d.S.K.H.G.H.K.J.CXMXoXoXoXXX0X2X+X5X0X3X9X0XDXZXCXJXKXGXCXVXVXSXCXMXSXOXm.{.m.E E &.&...&.@.-.a W W Y W ",
"eXiXsXuXuXjXfXdXdXiXuXuXkXjXlXgX&X%X*X6X$X$X6X6XkXhXhXhXgXgX3XXX;X9XqX,XF.J.F.F.F.J.F.J.K.{..X.XOX9XOXZXOX{.A..XA.{..XZ.=.^ *.M.",
"iXpXiXtXtXdXiXdXiXsXuXpXpXdXfXsX7XkXkXcX7X6XbXxXcXwXkXeX6X|.oX;X;X}.Z.{ =.X.;.;.x.:.z./ Q Q { T E m.c.&.m.m.9.A.k.9.8.-.! ^ >.*.",
"5X5X9X-X;X1X1X2X$X8XqX8XxXcXxXqX9XDXcX0X<XZX0XFXFX7XkXqXZXMXJXqX2.1.+.C.C.C.C.M.n.$.v._ ` / R Y Y Y E c.c.&.:.&.&.} X.Q *.%.$.W ",
"#X$X$X$X&X$X$XuXtXtXpXsXiXkXkXlXkXlXkXkXgXgXuXuXsXtXkXbX0X<XZXZXh.a.q.>.-.-.q.d.&.E R _ _ ) R T Y T E c.m.&.&.5.m. XC.M.c.} Q Y ",
"#X2XcXvXPXLXhXgXgXkX6X&XyXyX8X&X&XgXuXgXuX*XtXaXdXsXaXdXaXgX6XqXqX0XHXFX0X0X0X9XGXGXm.R _ ` Y Y , q Y E c.&.&.m.>.:.%.^ ! Q ^ W ",
"%X&XcXcXxXxX7XuX%XwXqXhXhXLXLXLXLXhXhXhXqXqXxXLXxXxXhXhXhXhXhXcXcXvXcXPXPXLXJXKXGXGXc.~ nXv.Y q , q Y E &.c.&.m.c.R Y Y Y / / %.",
"5X*XuXtXpXtXpXpX*X&XsXlXvXvXvXcXvXkXgXhXxXxXxXxXcXxXkXuXhXLXLXLXLXFXLXbXkXLXHXCXH.( BXBXNXR q , , q T &.&.n.$.%.T Y Y Y Y / *.T ",
"-X=X X|._._.#X$X*X*X&XaXsXdXiXuX*XtX*XtXuXkXaXxX8XqXqX8XhXFXJXJXHXxXuXuX9XA.&.x.mXNXnXv.R e q = , q E E T E / / / T / n.z.^ T a ",
"&X&X6X&X2X9X:X_.). X#X:XDXDXDXGX9X9X5X9XDX1X<XZXZXZXDXGXHXFXqX8X&XI.^.-XmXv.MXMXN.v.nXv.` q = = & q E R E x.v.z.n.R / %.a 1 w i ",
"_.)._.E.u.u.#X#X_.#X_.#X:X:X5X5X%X6X3X3X3X#X#XXXh.a.k.j.R.k.5.<.F x %.*.b.MXMXmXB.mXnXnXN.t = , q a n./ ) v.~ Y q - 1 1 < < s ! ",
"t.+.l m } T ! ! / z.( *.=.$.=.o.>.9.+.;.;.[ ..E a e a g T E $.%.c.C.MXK.MXNXb.NXB.nX) ) ) ~ q < , q Y n.$.s w t t t - < e ! { d.",
"k 6.W.v D [ :.>.B.>.m.G.m.c.=.*.E T f g g g f x E E } c.G.MXVXMXMXB.b.B.x.v.b.NXN.) v.mXv.^ q - , g / E i t t 8 - - t ! X.9.}.j.",
"I k R.:X4.V *.z.$.$.$.c.c.b.c.M.b.b.x.x.b.b.b.b.b.v.mXB.b.b.x.*.&.c.m.c.c.b.n.) ) N.nXN.z.T t q q T T Y N t r W ! ! o.8.OX;Xj.(.",
"E.L n P ].(.} B.B.M.c.c.m.b.b.B.b.c.*.$.z.b.x.x.b.c.c.x.:.>.-.:.c.x.z.~ ` ) _ _ nXv.~ *./ T t e a Y Y T ! ! ( o.{ o.;.h..X8.g.4X",
"L L U k L ^.E.X.*.M.C.m.c.c.x.x.%.&.:.&.%.:.n.%.c.*.&.$.%.%.z.x.V.) v.V.B.v.) nXmXb.n.( ~ Y Y W Y Y E &.:.-.X.^ ^ e.4.+.@.y.;X3X",
"v v P F j b W.$XH %.M.-.@.:.b.c.n.^ ( { %.%.%.%.^ / ` _ ` ` R ~ / x.C.s.S.B.M.V.v.x.z.) ^ Q ( W W } 9.G.8.8.=.{ ;.j.#.#./.:X2X].",
"T.n U y.G 6 6 Y.*X_.c.c.C.-.9.G.G.B.M.M.x.z.n.n.) ) ) ` ~ Y r w.:X6X7X7X8XAXH.M.*.) ( v.M.x.W N =.H.S.D.5.>.X.{ +.#.#.).#X5XXXh.",
"].U b T.<.F j % G !.!.&.B.G.M.&.:.*.%.=.z.^ ) ^ %.n.$.z.W t d.$X&XuX&XeXkXwXHX,XM.( ~ V.V.*.W ( S.S. X(.d.-.X.X.+.X.A.9X3X:X).{.",
"[.L.b b 7.K O.A 6 k T.[.;.b.M.G.*.! Q { { %.%.z.x.} x.%.r M _.*XuXsXsXsXbXeXbXwX,X( =.B.x.M ( S.s.Z.D.).;.o.;.8.+.A.XXOX3X}..XoX",
"U I <.v n U P 2.F j j P '.i.%.MXC.:.*.:.c.c.b.c.} c.$.Z s d.6X*XdXfXzXzXzXkXbXPX1Xq.M.V.{ ( V.>.s.A.{.p.! ] l.f.a.0X5XXXh.h.}.A.",
"+ v K P v n I <.5. .g 5 G $X^.C.MXC.:.-.Q E &.E -.M.u e.w.<X&XkXlXfXzXzXzXvXvXvXwX-Xq.w.! V.G.-.S.S.j.o.! q.$X).;XxX5XXXh.s.;X(.",
"n O I K k n n U R.,.5.u 5 B `.].j.H.G.K.9.m.B.b.oXE ..qXS.eXrX*XrXzXzXvXvXvXvXbX8X-X>.X.V.V.G.d.S.C.d.( o.}.8X3XwXhX6X_.Z.s.:X9X",
"L.% v Y.O % v k (.R.| +.l 1 p R.yX_.K.G.G.E E &.m.E 9.HXw.0X6XwX7XkXvXPXPXvXkXbX4X+X;.^ V.C.A.M.A.A.q.=.>.3XqX9XqX5X6X=XZ.l.5X9X",
"u.S + U J X % v % I y.| 8.S p u 0.[.].k.MXmX&.:.5.5.9.HXs.#XeX5XkXcXPXPXcXhXkXbX2X].;.( S.>X Xs. XZ.+.w.F.2X5XXXXX2X4X).F.=XqXXX",
"/.Z 4 + 7.k . 0 6 6 I _.,.3.| u c v [.yX_.b.K. .<.A.A.LX=X=XcXeX7XvXPXPXLXkXkXPX7X:X#.( S.,X{.S.OX9.=.C.oX4X;X_.].4X+X}. X=XqXXX",
"E.O.u 3 % P % O 0 j $ P ~.4.4.O.z u k '.pX^.9.C.0.m.{.FX-X{.wXcXkX5XwXxXPXsXeXIX8X3X@.! S.<XD.Z.<X9.>.S.-X8X;X3X%X6X$XF.D.0X5X:X",
"t.e.D u o % U $ # B j $ F $XE.(.K j > 5 W.dXtXy.9.9.k.0X5X/.qXPXkXxXwXPXbXtXHXIX].0X} o.S.>X}.#.K.d.q.H.<XqX>X2X8X5X#XF.>X1X0X3X",
"E.O.O.0 $ X b I o h l 0 $ F '._.<.S p 1 5 R.uXsX(.0.@..XxX~.|.LXbX7XXXHXkX7XIX9XqX<XQ :.C..Xl.o.S.s.J.,X9X5X=X$X8X$X=XF.9X-X5X3X",
"_.e.O.B O O X U I . > x j $ A '.I P 4.x 5 5 7.yXdX&Xf.@.wX&X!.<XIX2X0X;XkXIXFX4XIXZ.! c.Z.oXC.=.C.S.,XAX0X9X<X2X8X3X}. X9X-X0XXX",
"`.u.D Z O O . p E.B   1 B j $ A U Y.E.3.} 9 y <.].dXfXW.A.bX'.4.JXqX5X>X&XcX0XqXDXX.Q S.C.oXZ.=.C.J.,XSX1X0X-XgXgX3XZ.<X9X-X<XXX",
"P u.,.| 6 O O . V L.j @ i Z 0 4 k T.3Xq.=.+.u 5 | _.&XdX_.qX$XG l.wXh.D.&XwX<XLX,X] $.C.Z.oXD.-.d.>X1XAXZX9X=XgX7X_.D.1XqX-X=X.X",
"F 6.i.D l O . O . O.!.6 > M S 6 j b $X#X;.s.d.u g E 3X3Xi.5X4X .Z 7X5X3XgXHX}.LXF.] ^ S.}.oXA.G.C.J.1XAXAX X>XhXqXj.|.1X9X<XoX|.",
"1.,.Q.i.D 6 4 # X : E.T.9 i M l k 6 B $X'.i.k.8.5 <.0.[ y _.2X .7 9XxX7XbXHX{.FXJ.i o.S.(.OX{.9.H.F.ZXDXAX X>XqX5Xd.-X0XDX>XOX0X",
"1.O.E.E.e.Z J J O X l !.L.7 i H A % # K ].].7.9.5.f.f [ y R.3Xj 2 d.0XqXqX}.5.qXZXM ]  XXXXX}.A.J.S.,X9XSXJ.>X4XqXp.<XqXDX>X X1X",
"2.O.t.^.i.P D H j O o D [.7.u D S k 3 > G 2X_.<.f...T c c `.+X5 > p.:X4X+Xh.' 9X<XT V F.XX`..X{. XZ.}.<XZXJ. X4XqXs.-X0XDX1X X;X",
"6.O.3.W.E.~.2.P 2.> : 9 6.[.I l z v  .0 $ v 4X3X| ! x g c _._.1 * f.xX7XqX{ e j.qXX.d s.{.(. XXX,XF.}.oXOXF..X0XhXZ.<XqX0X5X=X-X",
"4.O.| i.E.u.E.6.i.| ; 4 y `.[.K z z 5.S 6 $ <.XXZ s y > k ;X`.6 & [ cXwXZ.T t [ FXa.X.4.A.k.s.).;XXX}.}.oX XZ.DXqX XoXDXHX0X=X;X",
"e.H | #.u.r.u.t.u.i.j > # [ [.[.G z  .4.0.6 6 5.+.r < > v _.R.0 @ w 1X X! N e i d.s D.:Xd.l.h.F.3X9X+XD.F.=XS.,X9XoXF.<X<X>X,X-X",
"3.1.D #.u.~.u.E.~.Q.2.4 # # f.I.L j  .t.(.0.6 p y i < 1 A `.<.1 = - d ! r r w w m C  .bX$Xe.).l..X+X+X.XZ.D.J.F.9X>XF.oX9X X=X=X",
"O.3.H #.h.~.~.Q.Q.~.7.V 2 o 7 P U G z 4.f.f.y.Z 8 i ; 9 z E > 2 < < i i 8 = 8 w l @.y $XfXrX~.j.h.{.|.).}..X}.D..XDXOXZ.-X1XF.D.",
"P #.H H d.u.P.u.i.~.i.D 9 # O # v U 2.| 5.@.y.8.1 y ; u z 1 2 , = , s V < * 2 2 u [ w i.uXfXfX#Xj.a.l.).|.|.|.).XXZXZXoXD.,XS.}.",
"O.4.#.O.1.t.Q.`.i.y.y.O.D > o o j U I.2.8.5.0.9.1 y ; p C i < * * , u V , = , 2 9 m s d _.uXdXfX&X~.h.l.l.=X).-XXX9XXXOX}.}.S.Z.",
"P i.e.O.2.E.W.^.~.i.u.6.H V # O + oX%XI.| 4./.8.> 7 < p C 1 w =   ; p ' = = = , 1 m i y v [.iXlXzXbX#Xf.h.F.).|..X3XXX{.oX}.F.s.",
"P P 8.3.i.T.!.Q.W.)././.P O.9 . O 1 <X@XP.v R.9.; y 1 V V o i * o c i p * , < = r s ! u C x 7.%XzXzXzX#Xe.s.}.).|.XX9X}. XA.Z.w.",
"e.P t.4.e.u.T.~.~._.g.E.E.2.Z ; O X u ].U.P.5.T ; i w m p ; i * 3 v a f ; 1 2 2 s s ' y C ] ' | '.dXzXvXrXi.p.)._.=X-XXX Xk.k.#.",
"j.2.i.h.1.y.T.E.W.`.).4.(.R.H p # O O #.'.I.}., > x l ' 1 ; m , j C w p * 7 * * r s +.x d ] o.C V `.jXiXjXkX~.1.).|.D.=XD.j.g.;.",
").t.Q.~.d.1.T.R.u.`./.f.T.`.I B 7 @   $ 9.U.7.& 5 ' A a w > i   v ' d d ; y   * s T [ x ' s m +.| m f.4XiXdXkX#Xt.j.,X>XoXs.s.u.",
"W.k.T.^.8.p 6.W.F u.~.j.7.W.~.P p > . o 5 (.F ; d u l 1 q : ; O z T V y u u * = s ! T 9 8.} 1 9 [ @.p #.#XlXbXbX&Xu. X<X).j.h.h.",
"P.y.!.'.t.C l T.K #.E.t.k.Q._.T.F i > o o B ;.@ | c 5 < w o # 0 D a C d l 7   . w ! w [ p.+.M 9 1 } #.M M ).cXbXkXkX:X=Xt././.u.",
"I E./.W.7.d.B ,.7.H (.W.k.(.T./.<.V i $ O : j = V 4 X w 1   h E x y x x p 7     1 w < ' {.9.' ' 9 > p >.C X. XeXbXkXbX&XE.i.i.R.",
"L.Q.).W.7.p.#.A W.P 4._.y.Z.4.R.t.C d d O + 1 ; m * * e ; o j p a M V p p 1   ; ; ; x x f.s.-.] ] p ; y +.+.#.w.5XLXhXaX&X^.Q./.",
"T.T.E./.Q.4.g.z 7.Q.F g.u.;.Z.6.(.1.M V 7 o d : 9   * ; :   j x s V [ C p ;   1 y | 8._.(.9.@.X.' } C > > X.C.] o.=XhXhXhXgX*X5X",
"E.T.E.g.E.I g.1.P E.H 1.f.2.s.f.r.(.F V w # 7 i ; ; 1 # @   k d V D ..V 8 2 * i 9 x {.&XIXF.A.m.' m l Z i p [ +.#.[ k.8X%XuXgX&X",
"2.T.Q.`.`.T.t.f.B u.O.O.t./.P D.t.R.y.| d 9 # $ 2 ; ; > o 3 B m 3.3.| m 2 * > u   5 B %XyXLXKXCX+.+.] #.Z d 7 p [ H V w.3X%XyXyX",
"P R.T.W./.W.7.g.Z e.i.| 2.g.i.h.<XT.^.<.C i > # # @ ; > . k | V 0.4.Z d ;   l S 4 > i {.].[.IXDXs.h.q.X.#.Z Z > p O.D [ ] g.%X%X",
"D i.L.T._.u.R.y.8.H u.O.H u.).2.oX_.!.T.,.V C u * 2 1 ; . L S d 6.<.p s   * 3.P l 4 > 8 }.].%XhX0Xs.d.q.;.#.Z M > V [ [ V ! t.].",
"z i.7.P._.E.Q.Q.h.] g.i.O.r./.t.t. XQ.!.<.| C u , 2 7   O <.x C 7. .' s = 9 ;.5.A 9 : ; e D.gXyXgXDXZ.p.d.;.,.| d > > p l ..z <.",
"B P W.L.T.(.E.r.g.[ 1.u.O.2.Y.k.e.}.|.T.2.O.Z 9 < # > . 3 G i C f.Z ] N < V +.+.Z x 4 4 > w }.%X*XyX3Xf.h.p.3.#.B 9 $ > y B l z ",
"B F W.P.L.Q.E.t.r.;.D t.1.1.Y.R.(.4. X(.6.4.#.9 - # i . 4 z 7 D 1.O.X.t 7 ] ] [ | ..l 4 4 > r D.4XyXyX0Xh.h.p.O.D l 9 $ 4 3 6 6 ",
"D Z y.I L.Q.E.r.i.f.8.i.e.1.7.W.).k.p.j.7.3.o.7 2 # 9 @ 4 v 9 D ,.[ Z 8 i M ! [ @...[ u 4 $ > i k.4X[.iX3Xa.p.4.P Z V 4 3 $ $ 6 ",
"D B 1.r.I r.j.W.^.`.h.u.t.4.7.!.W.D.1.e.t.[ ! 7 ; # 9 . 3 k 1 S D M m 8 D s.M ] @. .@.V 4 4 3 > f '.@X@XjXqXa.4.7.F Z 4 $ % O O "
};
