/* XPM */
static char *_15_resized[] = {
/* columns rows colors chars-per-pixel */
"64 64 53 1 ",
"  c #699E5F",
". c #75B367",
"X c #76B36A",
"o c #79B66C",
"O c #7BB86D",
"+ c #7BB770",
"@ c #7DB971",
"# c #81BB75",
"$ c #85BD7A",
"% c #89BF7D",
"& c #86C07A",
"* c #89C17D",
"= c #8BBF81",
"- c #8EC284",
"; c #90C486",
": c #94C68A",
"> c #97C888",
", c #99C98E",
"< c #9BC792",
"1 c #9CCA93",
"2 c #A1CC97",
"3 c #A4CE9C",
"4 c #A5D197",
"5 c #A7D09C",
"6 c #A9D29E",
"7 c #A9CFA3",
"8 c #ACD3A3",
"9 c #AED3A8",
"0 c #B0D5A7",
"q c #B1D5A9",
"w c #B8DDAE",
"e c #B7D9B1",
"r c #BBDBB4",
"t c #BFDBB8",
"y c #C0DDB6",
"u c #C4DEBD",
"i c #C6E1BD",
"p c #C6E0C1",
"a c #CAE3C4",
"s c #CFE5C9",
"d c #D1E6CC",
"f c #D3E8CD",
"g c #D6E8D2",
"h c #D9EAD6",
"j c #DBEBD9",
"k c #E1EFDE",
"l c #E6F1E3",
"z c #E8F2E6",
"x c #EDF6EB",
"c c #F1F7F0",
"v c #F5F9F4",
"b c #F8FBF7",
"n c #FDFEFC",
/* pixels */
"                                                                ",
"XooXXXXooXoXXooXXXXXXXX+X+XX+XXXX+XXXXX+XXXXXX#X #XXXXXXXX#XXXXX",
"XXXXXXXXXXXXXX.XXXXXXXXXXXXXXXXXXXXXXXXXXXXXXXXXXXXXXXXXXXXXXXXX",
".XXXXXXXXXXX.XXXXXXXXXXXXXXXXXXXXXXXXXXXXXXXXXXXXXXXXXXXXXXX.XX.",
"XXXXXXXXXXXXXXXXXXXXXXXXXXXXXXXXXXXXXXXXXXXXXX.XXXXXXXXXXXXXXXXX",
"XXXXXXXXXXXXXXXX+XXXXXXXXXXXXXXXXXXXXXXXXXXXXXXXXXXXXXXXXXXXXXXX",
"XXXX.XXXXXXXXXXXXXXXXXXXXXXXXXXXXXXXXXXXXXXXXX.XXXXXXXXXXXXXXXXX",
"XXXXXXXXXooXXoXXXX+XXXXXX+XXXXXXXXXXXXXXXXXXXX..XXXXXXXXXXXXXXXX",
"XXXXXXXXXoX+XXXXXXXXXXXXXXXXX..#XXXX.XXXX # XXX#.XXXXXXXXXXXX+XX",
"XXXXXXX+XXXXXXXXXXXXXXXXXXXXX...XXXX..XXX#.#XX# .XXXXXXXXXXXXXXX",
"X+XX+XXXXX+XXXXXXXXXXXXXXXXXXX..XXXX....# .... #XXXXXXXXXXXXXXXX",
"XXXX+XXXXXXXXXXXXXXXXXXXXXXXXX..XXXX# #..#.X..#XX.XXXXXXXXXXoXXX",
"X+XXXXXXXXXXXXXX#..XX.# XXXX# #.XXXXXX #..XXXXX.XXXXXXXXXXX+XXXX",
"XXXXXXXXXXXXXXXX #.XX..#XX #....XXXXXX# ..X%X.X.XX XXXXXXXXXXoXX",
"XXXXXXXXXXXXXXXX...#.# #XX#... #X+XXXX.#..qx3X.X.XXXXXXXXXXXXXX+",
"XXXXXXXXXXXXXXXX... # X.......#.X XX....##dnv3X.XXXXXXXXXXXXXXXX",
"XXXXXXXXXXX...XXXXXXXXXX #........# ....X.$gnv3X.XX...XXXXXXXXXX",
"XX+XXXXXXXX...++XX++XX+X###..###...##.##.XX#gnv3;a=...X.XXXXXXXX",
"XXXXXXXXXXXX..-s3-ge@eaw%yiy#ii0#y#0%0d%.XXX$gnvxnaX.X.XXXXXXXXX",
"X+XXXXXXXXXXX.&pe&pp3kwk4%#s*%%f4i#i=4h<..XXX$gnnz:X.XXXXXXXXXXX",
"+XXX+XXXXXXXX+pe:wi::r6j0##i<##a5s#u7g6%..XXX.$gz:.X.X.XXXXXXXXX",
"XXXXXXXXXXXXX+epw9du:apa*yyi%uiy#uss=ss4.X..XXX#=X.X.XXXXXXXXXXX",
"XXX+XXXXXXXXXXX&&o*&X+-@.$$###%#.#%#.$%# #.XXXXXX...XXXXXXXX+XXX",
"XXXXXXXXXXXXXXXXXXXXXXXX...# #.....#... #.X.XXXXXXXXXXXXXXXXXXXX",
"XXXXXXXXXXXXXXXXXX..XX.....X........XX.XXXXXXXXXXXXXXXXXXXX+++XX",
"XXXXXXXXXXXXXXXXX.XXXX..XXXX.#......X..XXXX.XXXXXXXXXXXXXXXXXXXX",
"XXXXXXXXXXXXXXXXX...XX.XXX +# .#..#.X.# XXXXXXXXXXXXXXXXXXXXXXXX",
"X+XXXXX+XXXXXXXXXXX.X.XXXXXX# . .. ##..#XXXXXX XXXXXXXXXXXXXXXXX",
"XXXX+XX+XXXXXXXXXXXXX..XXX.# #.## .. . #XX.XXXXXXXXXXXXXXXXXX+XX",
"X+XX+XXXXXX+XXXXXXXX.XX.XX..# .. #..#.#..XX XXXXXXXXXXXXXXXXXXXX",
"XXXXXXX+XXXXXXXXX.XXX.XXX# #..#.#.#... #XX.XXXXXXXXXXXXX+XXXXXXX",
"XXXXXXXXXXXXXX+XXXXXXXXXX.# .. #.. #.....XXX.XX XXXXXXXXXXXXXX+X",
"XXXXXX+XXXXXXX+XXXXXXXXXXXX.X.XX# .# ...XXXX..XXXXX..XXXXXXXXXXX",
"XXXXXXXXXXX+XXXXXXXXX.XX-;-;-:@X.#..##>%=+XX+===%X.XXXXXXXXXXXXX",
"XXXX+XX++X+XXXXXXXX..XXOfnnbbbr.....Xfbbc=..=zbng+X.X.XXXXXX+XXX",
"+XX+XXX+XXXX+XXXXXXXX..o8utiabjO....ohnfs=..=vcau$.XX.X.XXXXXXXX",
"XXX+XXXXXXXXXXXXXXX.o...X.X.Xfb-....Xhb=....=vj+.XX.XXX.XXX+X+XX",
"XXXXX+XXX++XXXXXXXXX...XXX...8nq....#gn=XXX.=bj+X..XXXXXXXXXXXXX",
"XXXXXXXXXXXXXXXXX.X..X..X.@,qanf#.X.ohb=XXX.=vjXXXXX.XXX+XXXXXXX",
"XXXXXXXXXXXXXXXXXX..X.XX.-hnnnnc$..Xohn:XXX.=vj+XXXXXXXXXXXXXXXX",
"XXXXXXXXXXX.XXXXXXXX.XX.$knk817f2.XXXhb=+XXX=vj+XXXXXXXXXXXXXXXX",
"XX+XXXXXXXX.XXXXXX.X....eng@..Xo#XX.+hb=XXXX=vjXXXXXXXXXXXXXX+XX",
"XXXXXXXXX.XX.X.XXXXX.XXXhb:..XXXXX..ohn=.XXX=vj+XXXXXXXXXXXXXX+X",
"X+XXXXXXXX.X.X..X...X..#lx$XXXXXXXX.+jn=XXX.=vj+XXXXXXXXXXX+XXXX",
"XXXXXXXX.X.....X.X...X.#kv*.XXXX..XX#gb= +..=vh+XXXXXXX+XXXXX+XX",
"X+XXXXXXXX.XO-O#*O$$$...ab9XXXXX=<X.#gn=XX..=vh+XXXXXXXXXXXXXXXX",
"XXXXXXXXX.X.18680:q$7o..1bx,XXX:zv=..hb=XX..%vhXXXXXXXXXX+X+XXXX",
"XXXXXXXXX.XX8*r5,35.2>..+ebcseacnu#.Xhb=....%bh#X.XXXXXXXXX+XXXX",
"XXXXXXXXXXXX-9399-<X+9+XXX7gzxcl9XXX+sj+XXXX-peXX.XXXXXXXXXXXXXX",
"XX+XXXXXXXXXX++++X+XX--XXXX+-:-$XXXXX++XXXXX+++XXXX.XXXXXXXXXXXX",
"XXXXXXXXXXXXXXXXXXXXXXXXXXXXXX XXXXXXXXXXXXXXXXXXX..XXXXXXXXXXX+",
"XXXXXXXXXXXXXXXXXXXXXXXXXXXXXXXXXXXXXXXXXXXXXXXXXX.XXXXXXXXXXXXX",
"+X+XXXXXXXXXXXXXXXX XXXXXXXXXXXXXXXXXXXXXXXXXXXXX.XXXXXXXXX++XXX",
"XXXXXXXXXXXXXXXXXXXXXXXXXXXXXXXXXXXX XXXXXXXXXXXXXXXXXXXXXXXXXXX",
"XXXXXXXXXXXXXXXXXXXXXXXXXXXXXXXXXXXXXXXXXXXXXXXXXXXXXXXXXXX+XXXX",
"XXXXX+XXXXXXXXXXXXXXXX+XXXXXXXXXXXXXXXXXXXXXXXXXXXXXXXXXXXXX+XXX",
"XXXXXXXXXXXXXXXXXXXXXXXXXXXXXXXXXXXXXXXXXXXXXXXXXXXXXXXXXXXXXXXX",
"XXXX++XXXXXXXXXXXXXXXXXXXXXXXXXXXXXXXXXXXXXXX+XXXX+XX+X++XXXXX+X",
"XXXXX+XXXXXXXXXXXXXXXXXXXXXXXX+XXXXXXXXXX+XXXXXXX++X+XXXX+XX+XXX",
"XXXXXXXXXXXXXXXXX+XXXXXXXXXXX+XXXXXXXXXXXX++X+X++XXX+X+XXXXXXXXX",
"XX+XX+X+XXXX+XXX+XXXX+XX+XXXX+XX+X+XXXXXXX+XXXXXXX+XXX+XXX+XX+XX",
"XXXXXXXXX+X+XXXXXXX+XXXXXXXXXXX+XXXXXX+XX+XX++X+XXXXXXXXXXXXXXXX",
"XXX+XX+XXXXXXX+X+XXXX+XXXX+XXXXXX+XXXXX+XX+XXXXX+XXXX+XXXXXXXXXX",
"XXXXXXXX+X+XXX+XXXXXXXX++X+XXXXX+XXX+XXX+XXXX+XXX+X+XXX+X++XXXXX"
};
