/* XPM */
static char *Impression_Sunrise_resized[] = {
/* columns rows colors chars-per-pixel */
"64 64 254 2 ",
"   c #0C1727",
".  c #151C2C",
"X  c #162537",
"o  c #252B3C",
"O  c #070F1E",
"+  c #714C28",
"@  c #1B2C44",
"#  c #283547",
"$  c #2E384E",
"%  c #3B495B",
"&  c #364667",
"*  c #3E6371",
"=  c #4D495A",
"-  c #6C5758",
";  c #494C67",
":  c #47586B",
">  c #57566B",
",  c #485676",
"<  c #585775",
"1  c #4F4F6F",
"2  c #65586A",
"3  c #685C79",
"4  c #755C78",
"5  c #6E546A",
"6  c #57657A",
"7  c #506471",
"8  c #7A6869",
"9  c #686679",
"0  c #786777",
"q  c #787576",
"w  c #696D70",
"e  c #746352",
"r  c #423A47",
"t  c #B9733C",
"y  c #B16836",
"u  c #95663B",
"i  c #E85530",
"p  c #B25D5C",
"a  c #8E6854",
"s  c #B97A47",
"d  c #B87D56",
"f  c #AD7454",
"g  c #876C77",
"h  c #877777",
"j  c #977A74",
"k  c #91726B",
"l  c #A67B66",
"z  c #B07275",
"x  c #9A5F6C",
"c  c #CB584F",
"v  c #C67C49",
"b  c #CB685C",
"n  c #D3784F",
"m  c #C8756B",
"M  c #DC6051",
"N  c #FD3522",
"B  c #7B877A",
"V  c #C5823C",
"C  c #B98558",
"Z  c #B48B52",
"A  c #99847B",
"S  c #92886F",
"D  c #AC846C",
"F  c #B68768",
"G  c #A78779",
"H  c #B88776",
"J  c #B99376",
"K  c #B29570",
"L  c #A4996F",
"P  c #C7854B",
"I  c #D7864C",
"U  c #C88959",
"Y  c #D88956",
"T  c #CA955A",
"R  c #DA9558",
"E  c #E59757",
"W  c #E5904F",
"Q  c #EEA151",
"!  c #C68B66",
"~  c #D78D65",
"^  c #CB9368",
"/  c #D99767",
"(  c #C99776",
")  c #D79A74",
"_  c #C88A76",
"`  c #E39967",
"'  c #E4926D",
"]  c #DBA579",
"[  c #D0AD79",
"{  c #E7A56A",
"}  c #E6A775",
"|  c #E9B378",
" . c #F1B96B",
".. c #F6C970",
"X. c #295398",
"o. c #37599A",
"O. c #32528B",
"+. c #3C6897",
"@. c #35709E",
"#. c #3A5EA4",
"$. c #2D5EA4",
"%. c #3A65A8",
"&. c #396EB4",
"*. c #485789",
"=. c #575A87",
"-. c #485C97",
";. c #575D93",
":. c #685D89",
">. c #675C8D",
",. c #586685",
"<. c #5C7687",
"1. c #48689A",
"2. c #57679A",
"3. c #4A719B",
"4. c #5A759A",
"5. c #4B668D",
"6. c #676888",
"7. c #776988",
"8. c #687489",
"9. c #787789",
"0. c #676B99",
"q. c #726E98",
"w. c #697697",
"e. c #7C7B94",
"r. c #777897",
"t. c #456BAB",
"y. c #4B6CAC",
"u. c #4765A5",
"i. c #576BA6",
"p. c #4A72A9",
"a. c #5876A8",
"s. c #4C6DB2",
"d. c #446DB2",
"f. c #4B75BB",
"g. c #4773B6",
"h. c #5777B8",
"j. c #536DB1",
"k. c #666DA4",
"l. c #6977A8",
"z. c #7678A8",
"x. c #657AB5",
"c. c #7A7FB3",
"v. c #766EA3",
"b. c #455EA4",
"n. c #3E74C1",
"m. c #4B7AC4",
"M. c #567CC3",
"N. c #866A86",
"B. c #877889",
"V. c #967989",
"C. c #867997",
"Z. c #947B95",
"A. c #906B88",
"S. c #A4798D",
"D. c #8B7DA3",
"F. c #847BA6",
"G. c #927DA7",
"H. c #79868A",
"J. c #798698",
"K. c #7A9498",
"L. c #6A8790",
"P. c #6984AA",
"I. c #7886A9",
"U. c #6A83B7",
"Y. c #7988B6",
"T. c #7A94B0",
"R. c #6995B7",
"E. c #5A85C9",
"W. c #5F8DD1",
"Q. c #6687C7",
"!. c #768CC8",
"~. c #658ED2",
"^. c #7392CE",
"/. c #898487",
"(. c #988888",
"). c #89958C",
"_. c #9A958A",
"`. c #848395",
"'. c #8C8C9B",
"]. c #888698",
"[. c #968898",
"{. c #889699",
"}. c #979698",
"|. c #A68786",
" X c #A79789",
".X c #B69989",
"XX c #A68998",
"oX c #A69898",
"OX c #B49899",
"+X c #B68A87",
"@X c #99A499",
"#X c #9FA08C",
"$X c #A9A58A",
"%X c #B4A689",
"&X c #A7A798",
"*X c #B4A998",
"=X c #B8B39C",
"-X c #A9B39D",
";X c #8C82A4",
":X c #8A83AB",
">X c #8788A7",
",X c #9383A4",
"<X c #9A83A4",
"1X c #9689A8",
"2X c #8997A7",
"3X c #9997A8",
"4X c #848CB4",
"5X c #878AB7",
"6X c #948CB3",
"7X c #8994B9",
"8X c #9598B7",
"9X c #A698A7",
"0X c #B39CA7",
"qX c #A79BB3",
"wX c #A78DA5",
"eX c #89A5A7",
"rX c #98A7A7",
"tX c #9AA7B8",
"yX c #8EAFB3",
"uX c #A8A8A6",
"iX c #B6A6A7",
"pX c #A8B2A7",
"aX c #B7B5A8",
"sX c #A3ABBC",
"dX c #A6A7B6",
"fX c #B2A8B3",
"gX c #A7B4B8",
"hX c #B7B8B6",
"jX c #C79584",
"kX c #CAA488",
"lX c #D8A886",
"zX c #C9A899",
"xX c #D3B494",
"cX c #E8B688",
"vX c #E3AD87",
"bX c #C3B6A7",
"nX c #C4B4AE",
"mX c #C59BA1",
"MX c #B9C2BB",
"NX c #E5C498",
"BX c #C3C2B0",
"VX c #E4C5A2",
"CX c #8C9AC4",
"ZX c #8997C8",
"AX c #939CC3",
"SX c #969CC8",
"DX c #8896CF",
"FX c #98A6C6",
"GX c #98A8CF",
"HX c #A3A9C3",
"JX c #AAB5C5",
"KX c #B5BBC4",
"LX c #BAC8C5",
"PX c #9FC6D0",
/* pixels */
"+ + + + u f Z Z T T P T T ^ [ [ ( K C f f Z l f Z U T n I Y Y R E E E ` R E } } } } / ) ) E E E ` ` cXcX| cX| | E { VXcXVXVXVXNX",
"P t V V R R T { T P T T F K K K Z f C s Z F ! T U U Y P P I Y R W R W Y Y R E E W E ~ / / I W E { vX| } / ` W E Q { VXcXxXcXNX[ ",
"y V R V Z Z C T P Z Z ^ D l l ! U ~ U U ^ / ! ^ U U I v v U T ^ R I Y Y Y ~ / ` } ) / E Y n ' / } ) / Y I Y E ] cXcXNXcX.... . .",
"V s s Z y y s P T Z K ( F F ( _ { ` R C ( ^ Z F ! U U f C m v ! U ^ ] ) ) ) / ^ ^ ( ~ Y E ~ / ] / ^ ( jXjXlXlX} vX| ..........Q ",
"y t t t y y v T R C ! ^ F ^ J _ _ ! F D l l l F d F l a a S D _ .XkXjX) ) ^ ~ ^ R } } ` ` ` R W I U ( ( [ } {  . . ... . .| | [ ",
"V t v y y v v v C C U ^ ^ ! J .X XA h k k h h G l l l G G  X%XOX.X! ! U U n Y E Q W W E E W W W W ) ] } { E {  .|  .} ] [ %X%XzX",
"Z t Z v t P v v P U ~ ! F J  X(.B.9.8./.S q B.|.A |. XA A S l d U Y I W E W Q Q W W I Y I R ~ ) ( ( [ | { { ] ( .X.X%X X X%X%X*X",
"P T v y t Y n U ! ^ ! F .XG h h 8 9.8.Z._./.|.(.(.(.G G F f l U v n I W E W W W Y Y U n Y ~ ) ) ~ ! ~ ) / ] ] %XzXlXlXkXkXkX[ kX",
"s ^ d y f f d ^ _ ^ kXh B.+X0 w h J.6./.J (.G (.|.G D F F D S.F n I I I n Y R ` R Y Y ~ ~ ' ~ ~ / ' / ] vXvXvXcXlX] lXvXvXvXlX] ",
"C ! u f a k A H J H _.w.[. X8 B.J.r.8.q l k A G D F F F U ! U U I I W I / ' ' / ' / ~ ^ ~ ' ~ / ) ) ) lXlXxXxXvXlXkXkXlXkXkXzXkX",
"F D e e 2 g h j (.r.w.4.]./.(.e.w.`.9.q D D F ( ( F ! T P C T ( ) ' ` ` ' } } {  .' ~ _ ! ! ( ] kXkXkXzXmXxXxXzXzXzXzXzXzXzXzXzX",
"F F e 2 q A .X/.w.P.P.P.2X2Xw.w.L.I.L.S J J D F J F F F ! F _ .XjX) ) ) vXvXlX] vX_ _ .XG |.oXiXiX0X0XiXiXmXiXmXmXiXiXiX0XOXOXOX",
"d D g 0 B.+X3Xw.4.P.l.J.1X`.w.w.4.3.3.B J D j G D l l H D l d z +X+XOXOXXX9X1X2XG.;X>X1X'.3X3X3XwX3XdX0X0XqX0XfX0X0X0X9XOXOXoXXX",
"l z j < 9 C.r.r.l.P.4.p.;X[.[.w.a.3.3.5.N.8.g h j j j l G G |.+X[.].>X>XI.I.P.z.l.l.P.Y.I.>X6X5X4X4X7X2XqXfX0XqXqXqXdXqXqX3X3X3X",
"0 w > > 9.[.3XI.l.l.a.P.a.I.qXr.3.p.3.3.0.5.9 h V. XOX0XiXiXqX8X5XI.I.Y.Y.U.I.P.P.P.J.I.4XT.5X8X7X5X7XAX8XdXqX8X8XAX8X8X8X6X6X3X",
"< 6 0 9 j V.[.'.>Xl.3.&.a.>XXXe.4.P.P.4.a.3.9.(.(.0XoX[.1X1X6X5XY.z.Y.Y.U.Y.T.T.I.I.I.Y.2X7XCX7XAXAXAXAXSX8XAXAXCXSXSXSXtX8X3X3X",
"9 6.e.7.V.V.oXfX>X3.@.p.I.oXXXB.,.l.a.a.w.2.r.]./.'.[.XX<X1X>X>X4X4X5XT.P.Y.T.7X1XS.z 6X7X4X7XCXAXCXCXCXAXAXSXSXCXAXFXHXAX6X3X4X",
"g 6 6 < g g k A.5.+.@.w.XXoX(.B.0.4.4.4.4.8.r.9.9.7.B.V.V.].;X>XF.5XY.U.P.P.I.6XS.i N z T.ZXT.ZXZXZXCX8XAXSXCXCXCXSXAXZX5Xc.I.I.",
"8 7 : : g 0 4 g 6 +.@.4.S.|.B.8.<.4.4.0.B.r.w.9.9.C.9.Z.Z.r.:X>X5XI.Y.R.P.U.T.8XXXi N S.ZXZXZXZXZXZXFXGXSXZXSXDXZXAXZX5X4XY.I.I.",
": : 7 ,.6 3 9 6.5.@.p.e.V.(.e.r.4.i.3.5.q.0.0.B.C.Z.9.Z.[.,X;X4X5XU.Y.U.P.T.4X8XCXS.z >XZXZXZXDXDXSXSXGXGXDXSXSXZXAXAX6X7X7XT.Y.",
"6 , 7.6.4 4 4 g 7.,.7.A.V.Z.Z.G.z.k.w.2.2.4.0.C.q.C.C.C.Z.G.F.:X5XU.U.x.x.4X6XCX5XZXZX5XZXZX!.DXZXDXGXCXGXGXGXSXDXSXGXFX!.7X4XY.",
"> 4 g 3 3 5 4 A.A.4 9 A.N.A.C.A.q.a.q.w.q.0.1.i.4.w.F.e.Z.F.G.F.:XF.6X5X5XAX5X5X5X5X5XZXDXU.k.DXDXCXZXFXDXGXGXGXDXSXDXZXY.ZXY.c.",
"; 0 4 < 2 > ; < 3 < 3 7.6.6.0.k.k.i.*.k.i.i.i.2.2.i.i.v.c.z.F.F.F.G.5XF.6X6X5XU.ZX5XY.ZXDX!.d.x.!.!.!.^.!.^.DXDXDXDXZXDX!.!.P.a.",
"; < 1 , 1 1 ; , , O.=.2.;.2.i.j.y.t.-.1.p.t.u.i.1.p.p.a.x.a.l.l.ZX!.x.h.h.Y.U.j.U.Q.!.!.^.^.f.g.Q.Q.Q.^.W.~.W.~.^.~.Q.Q.U.U.h.U.",
"& ; ; : & =.1 *.;.O.*.;.;.;.i.k.j.y.s.u.j.h.s.h.u.s.s.s.j.y.t.y.s.f.m.d.d.s.j.s.h.m.M.E.x.Q.x.f.M.h.M.~.Q.~.~.~.~.~.~.^.~.W.M.x.",
"& ; = 1 ; 5 3 1 =.*.*.=.=.i.;.k.j.y.j.u.y.s.y.b.u.t.t.u.b.y.s.s.&.d.d.s.m.m.f.s.x.Q.Q.h.x.M.M.M.d.f.~.c.M.~.~.~.E.E.E.~.M.E.E.h.",
"; 1 > > 1 5 >.3 >.;.-.*.1 ;.;.;.u.u.u.#.#.#.#.#.#.u.i.y.d.s.s.s.s.M.m.M.m.h.x.j.x.x.U.j.x.h.h.!.f.d.!.DXM.E.~.M.M.M.m.m.E.h.h.h.",
"= 1 = 1 1 1 1 >.=.;.*.=.A.;.b.b.u.#.#.#.#.#.#.b.o.u.y.l.v.v.c.ZXDXc.h.M.m.x.x.p.x.h.h.y.s.h.j.M.M.%.Q.^.f.m.~.M.~.M.W.M.h.h.a.h.",
"& & ; ; ; - 5 4 N.>.>.c.G.i.k.b.%.%.%.%.#.&.#.%.u.u.1.F.<XG.6X5XY.j.s.d.j.s.s.d.g.h.j.s.f.f.g.f.f.$.&.M.m.E.E.E.M.E.M.h.M.x.x.x.",
"& ; 4 5 1 1 3 >.7.>.v.k.i.b.b.b.#.%.#.#.b.b.i.b.-.u.i.D.F.F.v.1X1Xy.d.d.s.s.d.t.t.g.p.d.d.d.&.&.&.m.g.n.n.n.n.m.g.f.f.g.s.g.p.j.",
"> 3 4 g =.*.=.;.>.>.;.b.b.b.X.;.v.#.o.-.b.k.k.;.i.j.k.,XG.F.F.1XG.j.s.y.y.t.t.t.t.t.y.u.%.d.%.&.&.&.g.&.&.&.&.&.&.d.g.&.g.p.p.s.",
"5 4 N.4 4 g 3 >.>.>.o.-.b.o.X.k.s.$.o.$.d.t.i.q.z.z.C.<X1XG.G.:X5Xx.k.i.i.a.y.a.l.a.y.u.+.%.%.&.&.&.&.%.%.%.d.t.&.p.p.p.p.p.p.p.",
"= 2 A.4 < < =.>.x 4 -.;.-.1.0.;Xi.X.$.$.%.j.k.q.k.q.F.XXwX1X<X1XF.F.c.x.x.x.f.x.c.z.A.C.z.j.1.@.+.+.+.o.1.+.1.+.1.1.3.3.p.p.3.3.",
"; 3 A.7.3 :.=.;.>.N.>.;.-.1.1X>Xy.#.%.$.u.j.k.z.i.2.k.G.G.<X<X1Xz.x.v.j.i.j.h.l.v.A.p b C.z.i.1.3.1.+.o.5.1.3.3.3.1.+.3.3.a.a.a.",
"2 6.N.:., =.*.O.*.:.N.;.2.2.k.i.%.#.#.b.u.i.k.v.k.v.v.G.G.G.G.<XG.F.x.c.z.a.h.q.p p p A.F.x.U.Y.7XU.w.q.P.a.U.T.T.U.P.P.P.h.P.P.",
"2 7.7.& O.O.X.X.O.3 7.N.>.-.u.#.$.#.b.#.#.F.F.v.v.G.G.<XXX<XG.1X6X6Xv.z.c.x.s.k.A.p p G.S.,XY.7XZX4X6X7X4X8XFXFXFXFXFXCXT.R.T.T.",
"2 0 N.-.O.X.O.o.X.=.>.>.;.k.i.t.%.$.o.b.6.D.F.2.i.0.v.,X<XG.<X,X6X5Xz.z.z.5XY.D.p M c c z >Xz.4X7X8X8X8XFXFXHXGXGXyXFXFXFXJXKXJX",
"h V.S.V.A.7.:.7.:.5 N.>.;.k.i.2.X.d.b.;.*.k.k.v.z.v.v.;XG.D.D.D.:XF.F.c.l.x.x.A.c c b b B.z.>X6XHXHXFXCXCXtXCXFXJXFXFXgXtXFXJXJX",
"B.V.V.N.N.7.N.>.:.N.>.:.4 r & *.& & *.j.2.Z.k.2.v.<X<X<XD.0.0.F.F.:XF.x.i.j.k.x.A.S.m m Z.G.1X6XHXFXSX8XFXAXCXsXKXJXGXGXJXGXGXGX",
"6.0.=.=.>.>.q.N.A.C.Z.:.$ @ X # @ X @ , q.g C.q.6.6.C.Z.Z.r.D.1X:XG.F.z.c.!.F.6XS.b M i jXqX6X6XFXHXFXSXdX8XHXHXHXJXJXtXJXJXtXJX",
"< 9.=.=.7.7.C.r.e.r.z.6.# X @ @   @ & : 4.6.C.C.C.V.Z.F.G.D.D.D.:XD.:Xc.z.5XAXZ.z b M n OXqX1X7XCXHXHXSX8X7XFXtXFXJXHXJXJXsXtXtX",
"6.7.6.6.V.e.`.e.e.r.e.].C.B.B.< $ & , k.k.C.V.C.C.Z.S.Z.XXZ.Z.[.<XwX1X;XI.5X6XF.A.z b p Z.1X1X6X7X6X6X8X8X8X3X8XHXsXdXJXsXsXtXtX",
"6.6.6.*.,.,.0.r.e.q.`.e.C.wX[.[.;Xr.k.5.0.B.V.<XC.r.C.XXmX> V.OXXX0XwX;Xz.4X6X:XZ.m b z <XwXqXqXqXdXqXqXdXfXqXdXtXsXJXJXHXtXtXtX",
"6 ,.q.9.r.,.*.0.e.q.C.e.B.Z.Z.Z.C.6Xz.0.0.Z.A.Z.C.Z.wX0XXXo B.0XC.;X;XF.I.qXqXwXm M ' _ +X0XwXwX0XfXqXqX3X3XqX8XsXfXfXJXJXsXgXgX",
", 9.9.7.7.6.6.q.6.7.e.].`.B.Z.[.;X6X6XF.<XOX[.A.C.Z.[.wXwX= 9 9 wX6X6X1X1XqXqX<XS._ ` n XXwXXXoX0XmX0X0XiXfXqXqX8X2XtXJXLXdXgXgX",
",.r.8.8.w.8.e.Z.V.B.].I.;X6X3XC.q.4.5.C.mXXX].].B.].qX9.@ o $ # 6.< 6 `.,X1X6X|.m b z S.[.wXXX[.0X0XiX0XuX0X0XdX2X4XtXtXgXgXdXgX",
"8.I.J.r.,.J.7.B.Z.[.oXoX9X9X3X1X;Xw.<.[.wX}.9X>X1XB.wX> O     .       7.9X1X].Z.S.x x g XX9X9X9X3X8XdXqXdXtX3XdXHXsXtXtXtXtXpXgX",
"J.{.>X>X`.'.B.V.[.[.qXuX3XdXdXfXuX8X>X8Xz.r.,.6.q.B.B.o O O O   . . # L.;XC.q.e.z z x _ zXuXiXiXgXdXgXHXtXFXsXsXtXJXgXsXgXgXgXgX",
"J.K.J.>X'./.B.[.V.].eX2XI.I.3X2Xw.I.I.e.;X}.B.0 7.3 < = $   . X . X # 0.z.e.C.S.m m H _ H oXfXnXnXnXhXhXtXtXtXdXsXJXPXLXMXLXgXhX",
"r.J.`.`.'.9.7 6 6 ].8X8X2Xw.J.7X>XC.4.w.Z.[.(.V.q ,.< r.9 . > 6 % $ 0 C.e.].XXb m H +Xz |.9XfXuXrXnXnXfXgXiXaXaXhXLXgXJXhXBXLXhX",
"L.J.8.H.{.`.8.e.C.}.dX3X3XwXC.[.].].[.[.9XoX[.[.Z.[.[.[.9 # 6 : 6 C.B.9.9.'.[.z m z m |.OXiXiXuXuXuXuXpX=XbXbXaXJXtXgXLXMXgXgXLX",
"J.I.J.K.{.].B.(.[.oXiXiXiX3XoXoX3X9X[.[.[.}.'.8.J.].].9.# % : 5.J.'.e.].1X[.[.'._.H H .XiXiXbXhXaX-X*X=XxXbXuXrXeXtXdXgXpXeXL.P.",
"H.'.>XK.>XB.0 [.oX3X3X'.2XI.H.'.[.}.[.`.'.}.C.J.J.w.6.8.; 9.<.6 <.J.r.>XdX9X9X|.j XXOXoXXX.XhXiXrXeXpXaXiXuX@XK.pXhXaXpXpXeXK.K.",
"(._._.[.'.B.q [.'.9.J.}.}.oX[.}.oX(.oXoX[.B.e.e.[.3X'.r.>XJ., 5.].'.J.8.w 6 6 /.|.+X|.|.(.'.tXpX@XaX=XaXaXbX=X=XaXaXBXMXpXMXyXeX",
"/.A ).).}.g w B.}.].}.pXuX3X3X}.`.J.J.'.'.B.q C.}.'.`.e.9.e.6 7 J.2X].`.H.: 6 9.|.J (.q B ).rX@X@X-X&X_.=XbXbXbXbXpX@X{.@XhXLXLX",
"}. X(._. X(./.B.[.3X9X}.{.K.I.J.].J.8.9.'.'.}.3X}.J.<.8.].J.* * 8.<.8.<.7 % <.2X].|.z +XG *XzX*X&XpXpXaXBX=X#XeXeXrX@XH.@XyXgXgX",
"(. X_.A j h _./.8 J.2X[.}.oXoXoX}.`.9.w B.[.[._.}.oXrXoX}.{.L.7 w {.8.7 7 <.J.J.L.2X}.}.}.tX&X&XK.eX{.).).).pXuXuX-XMXMXMXMX-X-X",
"G G S w q /.(./.w 9 '.}.}.*XoX&X}.`.H.8.9.9.9.8.e.B 9.}.'.L.<.L.L.P.6.r.{.J.K.2XyX'.k /.K.w H.-XuX&X&X_.H.@XaX-X&X&XpXpXMXMXeXyX",
"*XBXbXbX%XbX@XA }.9..X.X_.*X&X}.'._._.}.@X2X9.8.6.q ].'.J.8.: : : ,.`.J.7 : L.L.A @XK.yXtX{.).K.@X&X*XaXaX=X&X@X{.{.eX@XrX-XyXPX",
"G A G G A A q q B.9.8.9.B.(.|.[.{.}.(.).K.{.3XrX2X{.{.uXrX}.H.H.H.].2X{.K.J.L.L.K.B B B 2XgXuX).).&X-X-X-XpX-X=XpXpX-XaX-X-XyXPX",
"2 a 8 8 h q w 2 > > : w h q B.(.oX*X_.[.H.).@X@XK.<.L.eX@X}._.}.).K.K.K.K.rX-XL -XyXyXyXT.-XzX-X&X-X$XS B B q $X*X&X@X&X&X@XB B ",
"> = = 2 0 w - w q - g /./.S h h _.oX&X&XoXrX{.H.J.{.rX@X}.#X-XuX{.L.w K.H.B S L T Z $X$XL $X#X_.%X$X$X#X&X&X).).{.K.{.@XK.@X@X@X",
"8 - = e 8 h j q  XA k A w S J h  X*XoXoX}.{.2XH.H.}.oX X$X@XK.K.pXrXpX@XS S S Z Z L S L L L H.L %X$X$X$X-X_.).#X#X&X&X&X@X#X@X-X",
"8 8 a k j _.A g q 8 q 8 h h g k *X-X&X&X&X&XiX*X=XpX@X).).).K.eXyXyXpXMX=XMX@XK.L T L [ %X%X[ [  X&X%X XL $X$X=X=X=X&X$X$X$X-XL "
};
