/* XPM */
static char *seamless_stone_resized[] = {
/* columns rows colors chars-per-pixel */
"64 64 45 1 ",
"  c #0B0A07",
". c #0E0D09",
"X c #110E0D",
"o c #15120E",
"O c #18150F",
"+ c #161411",
"@ c #1A1613",
"# c #1D1A15",
"$ c #1E1C18",
"% c #201C17",
"& c #221E1A",
"* c #25221D",
"= c #29241E",
"- c #2A281F",
"; c #272320",
": c #2B2621",
"> c #2E2924",
", c #322C26",
"< c #342E29",
"1 c #382F2B",
"2 c #353027",
"3 c #36312A",
"4 c #3A342D",
"5 c #3E382F",
"6 c #3D3631",
"7 c #3E3931",
"8 c #40372E",
"9 c #40392F",
"0 c #433C33",
"q c #463F38",
"w c #464036",
"e c #484237",
"r c #474138",
"t c #4B443A",
"y c #4F483E",
"u c #514A3E",
"i c #4B4540",
"p c #4E4840",
"a c #534C41",
"s c #565045",
"d c #595246",
"f c #5C554A",
"g c #5E584C",
"h c #635D4E",
"j c #6B6455",
/* pixels */
"00006660q0w,o%##:6<**:##&>&#-ytt9072>;3i060<&=-<<*&*4aseteudy008",
"<<r863308r,#O*O*>>*&;>#:<:<&O59e403-:>3t616:%-<<<>:&,34,4<2<4<,<",
"6601<<33<44<@:>2<&&>>>&,,,<*o=ufy0457<371:>:&:<=::,*07-=,>,41,,,",
"11<1>>3<,4e5*3336<::;,#6,-*>&*qy084773,<613>&><<<<>>06,**&,41&&;",
"<044<4363473;<,336<-&:=7,:;>&*4,70<::<<;3>6>$:2733*=422>,:<04&&;",
"<170<,<3447<#>;;-44:*4-<:>>;&&<,4:>3>>::-:<&@$&>33::34t411r0,;&&",
"@#;&>:&#;>>;@->****@o@+;&&&;&#=&:#>>:&*>**>%*=-:>>==><3-&&;&@@@@",
"r7;#<0pty74waast<434r3<146100,>,32oooo &220tyuutafda7tt084@0q841",
"472*<454w54<44,y4440w7<46<<1344443$$+o.=37yw5ut5qr000e0<<##>,<<>",
">4:*403*2<>>:,>4*:4340413<33<6<377$#@@o=w4y03ptw8q04844<4>&-**;;",
">3$>04>&;;:3&&:2$$<2<0463063<12377#&#&#*w5523w740<<,146<44:,6:,<",
":,*-7>><3>42=&&>*>4r4<,466>1<>3054#&-*#&4w0wt427433<33775<&43>11",
",;;*,458431=&&&,:<<7<>1>&:&;<>:>>2@@;:X#4,7t9::,;43><>>70,+,:::@",
"=*:->4->:*;>1=&+&;>4;;>:;&#&&:-=**&;><->2,4,-#;*:<>4<&#6u4,470q6",
"q657r04at6q0644:00qi63710t<r07q8w2648r0wyy44r>7w08tu00<<314yaaa0",
"6333006,,464,<,=:>>>>:3304&644742<<<<,<<7t74,$,*,,32,0,&;;:3444>",
"3644euy44e02<43#>:;;<167w>@:<<44114464840quq1%12>;&::3::3<:>3<<>",
"46400e0e044<307;>6<=,<347:$*,,,<14166000e8848=14>344>>-3:<*&*>3<",
"3<3444400,,<703><<>;4t6>3<,4244,,644<40522444>,,<463>>>::>-*<433",
"144>>>><<<,<><=*6>><3>>;>><4,4,4>1:=&&34,1,1,%;&&&:-:<==>422<63<",
"#+@+oo+@@&%O&:=>3446>*-:2,*-->#*61&&**---=:<:%&=;:<>&&$#*$#@+##$",
"*#<4444<*#*@<yt04asawr00etyetw=4gfpd44<,8004,,18qyda8<0042457rap",
"+#<<<32;,*:*-8044000<30peq040,@*:&<6,>:34:>%&>,,443<>:,<3340yaut",
"*$:&*>>:>4,$-00w4056600ye8434<=&>=;>2>45=*<:&:1>,:-:<14,3344attw",
";>2:;;,,<4<o>7554<<<484048t4,4::4,;<,0q<**<:-:,:>=&*<8,:4642000r",
"-*,>>,wr4><;:454842<404440t044**,>>,0q1,<*42-;:<1,,=,,,>36444288",
">*323543,><;;33742=*::375-:284=&>,,<:2>>3&,4,<<,1248,::><>3004,2",
"%#>>442&-:,$#:;;#XO@@#*::@#*,=&@&;&&&&&&>-*,,<:##=>2>&@;>:<:%*%*",
"7tw7t43>,3wtyft00*7ywwst55r000y09e45q88attee0004:yutay64q4etyyyt",
"sgy3>&&&;3345572>%3840644<7443<<0etqq8004>40,<w3*8usa040444<4240",
"5w7-,;*;>2>>,<23<%:33<4784073554889yy8,<,<,>>>8<%90w007484<<884e",
"2,2*>**,>>;=-:<24@@><><6w00077044508e8*4,:=>2><-O<04484424640qey",
"<;>&>;;>,33,3<332#=<74<>46063474,,140,-2<<33<-4-*4t73<><:7737ww4",
">*<&;<44<<07w63>=<04yr33<<3<<441><,4<,>,*;>63>474trw32773w7245<<",
"-&;#@;<2>>;;;>;$$>73<<22>:#&=&:<<,*&-%#%@&$>>***,3:,*>222>>;=:><",
"6676:640www3>&<65ut0&<ty070wt006000:->><>2<<<>::>3,<323=&77pr663",
"0614*3607ty3332wuw84*<<8<444333:,,004686006ryryyw7w4tp0$#36atr6<",
"<<44#*6q7yw37334t04-@<52=:;;2<<-=:,>:<161106440rw33><t2#@<4yrr63",
"<400$*5y0040t0,7t4<,%304:&=&=<>>=-<-><<8<<40e0u0555>454:O*340070",
"<<<1$*3<20534044t559:04<&&&=;<3<:,4<>11,,>,1148425ww5w52**5q0332",
"<43<$=>:22>3332:4344#336,,,,,,<>;,1>,<4444<,,40e0ywtyu4,=20ut4:=",
"<3,>o&*&$o*>6>=>:<<+@<3q<<,<<><&:=<*>,<44::=::<004,>29e>:44tw2,,",
">*4034334344>277773**372<&%+#&###@#%***=$@@@O@%**308eua8>16>;:=:",
"0&7t0aaaswyt3yattdfw0073460;;00ryttt408wwads0y4w&wjjuuy0>>6#<q08",
"0@>>:35y7367>43><<:><;;::;11;18rywr74534340yew44*2<>,42=>2>$441<",
">o:>404-2337$333:>==>>;;:&<&#,<6w0rw54344way4000**3;,<3=>3>@3,:<",
"<#:0404,432:$54>**&*=,:&&;,&X=>:2ww33707t0ay4t00$*53<,4473>#3><<",
"4*:700443>>2@<,=&*=:>4>>&;<&#&4444,<<7q<wew28e48-*2>>>w03>4&r333",
"4*><<,,94,<1&>:<,10q82,:&&<&:35t671<<63>7r63w736$-3;><::<,<&3,=:",
"%@&&#=:<=&&&+$*>==-,>=&+###+>3*>:<::*&&#=>733;:>+O;*:&++%&-@@&-@",
"4334,3,0<,=:44441<401%,0881:<<3*@><<<:;:>>43w4<#>344<,1003<444>4",
"477ty048848740er00844&8yasaaw40<:76637617t0tt74:333w008443<0tht8",
">>44upq2<63<><<440<<2&241445,>4,&1<<3<6630t03<3@>*>::,<-;;><1t4>",
"$2<<0ae440034406674<r>>r06,&*><:*<;1<<317<0077:$><:*&;=;:<>46w>*",
"#<37444086066yw0177>0;*4404<=;<&&01113<:,,r7w7<*<<3:&#::;,*&>43<",
">3q73,,4<1636004<63<4;:>4443:=::*0<>34,,:=<3743$,<:>,,<>><*#=4>3",
"84040484<<4>,44255224=<-*=-222<4&<:=;>><22=,=>>;,,4470041<&;&,;<",
",>&:::1<*%=%#>2,*--=*@@@O$$*##oO+@@#o+&#@*&#. +++&:%#@&*&@o+o@o%",
"460y066<&<443-,**<3:;;:><>>-<><-3<:tr00wywuy4,3<4344<-44>:1<4848",
"84ee44>:,4,<>>44war0747aututtpse46<34<2ws07035wwuyyy48t0806phayq",
",4<:;>,,=8,,<4444e87444ut524440<33-,<,02>:35<>540r00e50<<<48sq89",
",,&&*>44%,4<433>42,49q4ywwue3w4474>;<25-**<4:@3340w008444qr0y9qt",
",&&&&<02O*3w<>3&>2<<44<4e0e8452234,:45422>,5*o:45235337080440899",
"4<:,<44<*,:76<<1354<>-<0q420r>22<2,2373233>><-240533<361<<441818"
};
