/* XPM */
static char *Sunflowers_resized[] = {
/* columns rows colors chars-per-pixel */
"64 64 256 2 ",
"   c #362F1E",
".  c #191A27",
"X  c #0E0D20",
"o  c #2E1A24",
"O  c #172D2F",
"+  c #2D332D",
"@  c #27191D",
"#  c #4C0F1C",
"$  c #771718",
"%  c #531624",
"&  c #542A29",
"*  c #6D302A",
"=  c #682D1E",
"-  c #1E4638",
";  c #304933",
":  c #7B4A1B",
">  c #4E5132",
",  c #684927",
"<  c #794627",
"1  c #69582B",
"2  c #7A5527",
"3  c #794A34",
"4  c #785837",
"5  c #6B5235",
"6  c #526832",
"7  c #786529",
"8  c #7B6A38",
"9  c #6E7136",
"0  c #7A7818",
"q  c #344F4C",
"w  c #255147",
"e  c #4C564E",
"r  c #795B43",
"t  c #4F6854",
"y  c #767858",
"u  c #716E4E",
"i  c #526E6C",
"p  c #757878",
"a  c #6C716B",
"s  c #8B302A",
"d  c #84221B",
"f  c #8A481D",
"g  c #8A561C",
"h  c #94581B",
"j  c #974B1D",
"k  c #99661B",
"l  c #99731E",
"z  c #A5681D",
"x  c #A9781D",
"c  c #B5771B",
"v  c #B06C18",
"b  c #864927",
"n  c #885627",
"m  c #965828",
"M  c #885935",
"N  c #945932",
"B  c #8E492D",
"V  c #A35929",
"C  c #8A6629",
"Z  c #996628",
"A  c #9A7428",
"S  c #8A6734",
"D  c #996736",
"F  c #887638",
"G  c #997837",
"H  c #89732A",
"J  c #A66928",
"K  c #B26C29",
"L  c #AB7B23",
"P  c #A47A2B",
"I  c #A87628",
"U  c #B67B26",
"Y  c #A66B33",
"T  c #A77836",
"R  c #B47A34",
"E  c #B46F35",
"W  c #C47B18",
"Q  c #C37C25",
"!  c #987B46",
"~  c #8B714D",
"^  c #A57544",
"/  c #887969",
"(  c #76802E",
")  c #728873",
"_  c #63875C",
"`  c #B9851D",
"'  c #B48A1E",
"]  c #998438",
"[  c #968731",
"{  c #AD842C",
"}  c #A98528",
"|  c #B38425",
" . c #BB8424",
".. c #B58B23",
"X. c #BC8C23",
"o. c #B3842C",
"O. c #B48B2C",
"+. c #BB8D2B",
"@. c #BA852B",
"#. c #BC932B",
"$. c #BA952A",
"%. c #AC8334",
"&. c #AB8B3B",
"*. c #A98738",
"=. c #B48433",
"-. c #B38B33",
";. c #B88A37",
":. c #AC9438",
">. c #B49334",
",. c #BC9434",
"<. c #B49B3B",
"1. c #B89838",
"2. c #AF932E",
"3. c #BBA43A",
"4. c #B9A430",
"5. c #C3891D",
"6. c #CA981D",
"7. c #D0971D",
"8. c #CFA31E",
"9. c #C38C24",
"0. c #C38D2B",
"q. c #C98C26",
"w. c #C3942B",
"e. c #C39B2C",
"r. c #C89826",
"t. c #C29836",
"y. c #CC962C",
"u. c #C8A328",
"i. c #D4A426",
"p. c #C6A538",
"a. c #CEB136",
"s. c #988556",
"d. c #938949",
"f. c #A98846",
"g. c #AA9648",
"h. c #B79845",
"j. c #A88A58",
"k. c #A99457",
"l. c #B89C57",
"z. c #B08843",
"x. c #B7A448",
"c. c #B8A959",
"v. c #B7AD51",
"b. c #998A66",
"n. c #9A956A",
"m. c #8A8877",
"M. c #9B9779",
"N. c #8F8C72",
"B. c #A99A68",
"V. c #A89977",
"C. c #AF956C",
"Z. c #B5A866",
"A. c #B5A975",
"S. c #B3AD71",
"D. c #9FA278",
"F. c #C19B49",
"G. c #C4A745",
"H. c #CAB549",
"J. c #C8B455",
"K. c #C3BA6A",
"L. c #C6BA6F",
"P. c #CBC77A",
"I. c #D0C972",
"U. c #CEC24A",
"Y. c #DDC039",
"T. c #5B7B86",
"R. c #6D7986",
"E. c #827782",
"W. c #778686",
"Q. c #768A99",
"!. c #6D8D93",
"~. c #7A9AA5",
"^. c #7897AF",
"/. c #7BA1B4",
"(. c #5E8180",
"). c #7FA7C4",
"_. c #888B88",
"`. c #8C9897",
"'. c #969A99",
"]. c #8E928B",
"[. c #A39A8D",
"{. c #99A497",
"}. c #96A48F",
"|. c #A6A886",
" X c #A6A796",
".X c #B3AF90",
"XX c #869DAA",
"oX c #959CA5",
"OX c #8799AF",
"+X c #87A4AA",
"@X c #9CA3A5",
"#X c #99A8A9",
"$X c #8BAABB",
"%X c #86A5B9",
"&X c #96ABB7",
"*X c #9AB4BB",
"=X c #8EB2BD",
"-X c #A4AAA8",
";X c #A6B5AA",
":X c #A3ADB5",
">X c #A5B6B8",
",X c #B1B8A7",
"<X c #C2B987",
"1X c #BBC6A6",
"2X c #CECF8C",
"3X c #D8D7AD",
"4X c #8CACC3",
"5X c #8CADC9",
"6X c #85AAC6",
"7X c #92ADC3",
"8X c #94ADC6",
"9X c #8CB2C9",
"0X c #94B3C5",
"qX c #9BB4C4",
"wX c #93B4CB",
"eX c #9BB6CB",
"rX c #95B9CE",
"tX c #9CBBCD",
"yX c #9BBAC6",
"uX c #8CB3D3",
"iX c #8CB8D5",
"pX c #94B6D3",
"aX c #94BBD3",
"sX c #9CBCD3",
"dX c #94BCDB",
"fX c #9ABDDB",
"gX c #98B6D4",
"hX c #89AFD1",
"jX c #A3BDCC",
"kX c #A6BAC5",
"lX c #A2BDD4",
"zX c #A4BED9",
"xX c #98BDE1",
"cX c #9DC2D5",
"vX c #9CC3DC",
"bX c #96C4D9",
"nX c #99C5D1",
"mX c #AAC3CD",
"MX c #A4C2CD",
"NX c #A4C2D4",
"BX c #AAC4D2",
"VX c #A4C4DA",
"CX c #A4C9DC",
"ZX c #ABCBDB",
"AX c #AAC8D6",
"SX c #B3CCD7",
"DX c #B8D3DB",
"FX c #ACCAD4",
"GX c #9CC4E1",
"HX c #99C6E2",
"JX c #A8CAE3",
"KX c #B0D3E6",
"LX c #BDE0FB",
"PX c #CFDACA",
"IX c #E3E9D3",
"UX c #E7F1E2",
/* pixels */
"cXJXVXCXJXBXzXsXwXAXNXlXzXjXtXlXVXlXqX7XyXlXBXjXjXjXjX7XlXsXgXqX5X8X8X$XqX:XqX X[.V.k.f.f.k.[.j. X XkXlXeX8XeXzXzXmXSXAXzXjXBXlX",
"lXfXJXJXJXzXzXgXlXZXBXzXeXlXeXzXlXNXZXjXNXBXBXBXBXBXBXjXtXsXeXgXwX5XoX'.C..X Xl.j.k.;.;.e.%.^ %.C.! :XkX'.jXzXDXjXkXkXzXSXSXmXjX",
"zXJXJXKXJXSXCXsXzXNXlXNXeX8X8X:XzXgXyXcXVXZXNXMXSXZXjX$XyX5X0X9XgX%Xb.|.b.l.C.G.t.,.;.U p.t.U  .,.z.:XV.,XeX*XmXkX[.kXlXkXkXjXqX",
"zXzXKXJXKXKXKXVXVXsXVXCXzXjXkX|.NXgXyXtXNXCXAXFXJX-XjXlX*X+X~.~.%X/ l.C.s.h.z.=.H.t.+.=.e.p.w.,.t.h.[.z.K.jXkX,XmXA.,XlX.X>X>XtX",
"lXzXJXJXSXDXJXVXVXzXrXNXqXzX-XC.MXtXtXyXnXMXnXCX,XA.MXCXAX(.(.(.].^ 1.h.T t.t.1.;.;.,.p.p.e. .*...h.l.9.C.kXBX,XmXZ..X X.X X.XkX",
"fXzXzXzXzXJXVXwXeXVXrX0XjXgXV.A.NX=X0X0XrXnXnX XS.#X=X*XBX!.!.(.y ^ ,.p.%.G.1.&.T =.Y B B N *.T 1.h.0.V.zXlX:X;XS.g.J.A.B.z.Z.qX",
"wXgXzXzXzXJXzXcXaXVXCXtXwXgXC.C.cX'.{.{.}.}.n.d.`.~.&X;X+X{.i ) y m I H.H.h.R -.0.^ % & * & r h.t.p.p.F.,X:Xk.V.c.a.,.h.h.#.B.:X",
"5XgXlXlXzXJXVXVXNXsX4XwXsXzXV.h.D.] &.:.:.2.} *.M.qX/.) s.a _ ~ T I p.D S ,.1.1.H.^ * & o o & 2 1.F.t.t.z.[.B.F.l.p.+.y.+.| f.&X",
"4XwXpXsXsXcXVXNXZXZXsXsXcXCX X&.-.>.:.4.2.{ I D &.j.N.t d.G G G t.F.z.% % f.:.&.G.h.^ * % o % = f.z.=.R C.M.~ 4 D #.9.r.O.} m.9X",
"OX$X0XrXtXcXtXpXaX8XwXcXcXGX#Xh.>.1.<.2.P I c } R %.d.> u 9 *.} ^ l.Z # # M 1.=.G.=.* 3 % o # Y %.1.F.C.b.t u F 4 | i.H D V.4X$X",
"wXsXsXrX4XlXsXwXaXrXrXcXvX;Xg.*.=.R V D T A I I *.{ ^ r F *.$.a.H S D # % 3 ;.=.;.G.G * & = J p.1.,.F.&XR.i u F P L Z = e %X$X7X",
"jXwX4X4XaXVXcX7XVXjXNXNX>XB.h.z.N < M m D %.T T t.:.%.U P ,.:.p.= < , @ & %.t.0.Y T t.;.@.9.p.-.a.>.h.j.a u d.[ e.Z n & q 7X7X4X",
"tXNX0X$XsXzXsXwXcXAXNXVX>XB.1.R , 6 u D Z } { R 1.k.=.;.$.3.x.x.% % & @ b h.t.F.;.=.e.X.X.r.,.O.p.1. XV.b.u F Z L m n , e hX8X5X",
"eXjXjXtXwXwXNXNXrXCXCX*Xh.u.t.Z ~ ] [ Z E O.{ <.T h.k.j.2.a.4.c.3 # & b 0.z.F.0.T =.i.w.#.e.=.1.g.d.V.B.k.G P L ..Z M 2 & %X5X8X",
"jXjXSXzXeXsXkXjXAXcXcX XO.r.e.T ^ B J V J I G x.G.p.h.] s.1.a.v.M # B y.p.G.|.F.! } X.u.w.u.1.&.f.M.&X#XN.C T ;.#.=.B n * oX%X8X",
"jXBXeXkXtXzXtXjXrXrX9X}.p.7.w.G E K J Z Z k A *.a.x.H.g.) g.4.H.x.m @.w.%.z./ / z.h.N.$.T ;.G s.~ n.@X#XG f.z.=.,.w.K m N V.8XgX",
"BXjXlXlXsXlXsXgX4XwX>Xk.2.$.u.;.f.P A k k k { p.1.<.J.J.x.[ :.U.2.+.-.T T T U J U l. X.X) ! V.XX X'.oXk.s.{.z.T -.$.o.Z L l.:XgX",
"8XeXlXlXzXgXkXjXnX}.k.g.<.$.8.4.G T Z A P | | 2.o.:.9 9 d._ 3.a.L %.;.z.I U ..9.q.W R C.) `.,X Xj.j.b.z.x.S..XV.t.#.-.p.w.#.|.lX",
"lXgXjXeXlXlX:X[.b.s.{.|.<.$.6.u.O.-.$.O.u.u.{ :.L ,.6 t !.) x.*.*.F.;.U K  .U 5.5.R 1.=.! -XD.k.T F.Q T $.$.:.Z.k.o.$.u.t.x.C.kX",
"qXjXjXtXMXlXtX*X=XnX>X:.s.<.X.8.$.X.6.6.r.1.1.g.g.1.h.y *X.XG J J T *.T m j J J U c @.y.0.^ f.x.g.,.t.U | w.U h.k.=.u.0.w.A.kXsX",
"qXBXsX7X$X$X=XqXMX>Xv.n.B.X.$.6.X.6.5.8.u.t.>.1.h.*.;.D t m.Z Z U m Y m b < N b m Q q.t.,.-.:.>.1.%.t.y.R t.c $.g.o.u.c.z.Z.{.wX",
"0X$XrXNXVXvXfX+XN.N.u n.#.X.%.L i.w.8.r.#.y.t.+.+.z.j.V.) 9 ;.L =.;.m f C 8 u 8 b V +.h.h.&.F.%.2.a.E V s Y i.e.X.h.g.J..X,X>XeX",
"rX9XsXaX%X+XqXfX^.W.a A A 7 7 O.7 2.2 A 7 T =.G A j.kX_./ G 9.I z K m s n ( _ 8 j V @.t.F.#.,.G.p.V d s s $ V i.r.G.{.|.2X>X0XpX",
"wXsXsXwX$X`._.W.i i 5 M S > ] ; > H + 5 F ; ! y V./ r n m T c z h m z m b C H h j Y R @.0.t.G.G.t.$ * & * * $ E G.x.l.>XsXlXwXsX",
"6X4XwXwXxXlX&X) e q q 9 %.b & 5 7 @ ;   p q e zX`.3 B D N N V V m h K J b N m V V Y Y E { ,.a.Y.;.d * & % * d T x.g.h.l.D.&X7XwX",
"rX0X9XwXR.Q.`.u 8 > + 5 P 2 * 5 F > +   t !.- R.M D M M Y m Y J f J m j b J m J Y K J ;.t.a.p.a.F.s * * % $ $ z.3.p.1.s.}.#X7X4X",
"%X4XwX5X^.a p e ; ; . . C n 3 3 C H ; > , Q.i , D D D m V N n T ,.X.` A V J n m m T R 0.t.a.p.i.i.E s s s s E *.>.u.H 8 oX$XXXwX",
"9X/.Q.%XQ.a a > ; e + X 1 G 2 3 < 2 1   > ~ ~ b N b Y m Y m Q U R @...3.%.A J J =.T R { 1.p.a.a.i.t.t.y.0.F.i.9.#.u.0 i jXyX=X0X",
"9X%XQ._.a T.i ; - ; > . + > 5 G A A D S , C I 2 M S N b M Q A F I  .Z M %.O.o.} R z.r i 9 *.>.a.u.6.u.u.r.$.r.i.$.2.[ e T.=XrXnX",
"6X9XwXwX#Xt !.t - ; + o o X o 5 7 :.} A x } Z b 3 D I N z K > - > J L N G R I D [.e e ) u V..Xa.a.6.$.4.6.8.w.u.4.H 6 6 ; ; ) $X",
"wX4XqXeXzX].> q . X . @ o . O . > 1 P ` L 4.H Z b f < n z Q 4 > 2 v L N D N B D t > s.G ;.c.A.S.x.6.X.| u.8.A.A.:.v.) !.!.i w =X",
"$X%X$X4X7XT.- + ; X X . X . + . 5 S A k } A C F m : b n j E K c 5.W Z b 3 m m D H P R 0.L L P kXA.x.v.<.h.4.,XZX X*X*XaXbXdX(.=X",
"wX$X+X!.(.q + - w ; + X X . O . . & g A } : 2 9 Z f b m < < R R z m * n n *.t.-.g m K K N K J {.*X*X#X;X X;XqXVXVXfXaXwXsXdX6XhX",
"5X%XW.p i p q w e ; o . . . . .   , h C : f J 8 8 B = n h f Z D * S Z A O.-.@.R J B J z Z J J 1 ^.fX4XwXcXvXCXZXJXgXgXhXiXdXhXhX",
"6XaX7X&X4XtXt - > q q O O X . & , , x g h f g D d.F f f m m h f P 1.1.P R =.V J R m m Z J z h u q 6XaXuXdXdXwXiXdXdXfXfXaXsXpXhX",
"6X%X7XaXcXQ.- q `.i - w O . O o   g h k Z : f Z T d.d.] Y f m ] :.H.,.,.T Y N Z Y m V n A Z k / R.q iXpXdXdXsXHXiXdXdXdX9XpXdXiX",
"6X6XQ.T.i q p %XT.w q q O O X   , m g h g g k g g n M F T T :.x.v.%.C =.T B B b k m A 0 6 ( x / JXe ^.dXpXdXHXbXGXHXGXfXxXdXHXxX",
"5X6X^.R.T.i i q O + 5 7 1 2 2 7 l [ P C 2 H k g h g < < S v.G.p.H.1.R I D N B D k H 9 6 6 9 l @XLXT.T.GX~.%XrXHXvXHXJXHXpXiXdXdX",
"5X6XaXNXgX4X~.p 4 Z z J v @.c 5.x A A H [ } } A C 2 n < T x.h.-.T D =.Y D N D R ' 6   6 6 } j.JXLX~.t HX!.`.`.0XxXJXbXHXiXiXdXbX",
"6X).).%X5X6XuX_.f k J x U L v K Z x x c ' } } } C M b m G ^ n ;.T D R D T Y Y J ( ; - 6 0 k @XHX!.~.q =Xu _ ) ~.wX~.aXcXaXHXiXHX",
"4X6XuX6X).9XaXm.h J L L L L I A n < < b J { ,.} Z ] Z m T D J m Y Y R Z T Y K E 9 6 ; ( x V.zX/.t _ t 6 6 u _ *X!.~.nXiXuXpXhXHX",
"5XwX9XwX9XtXaX_.J m m Z z z 1.O.P n N C < I 3.4.} H , , D n J m Y Y Y A P Y Y =.G 9 [ } b.CXCXt t i ; + q 6 q e W.`.nXbXbXdXiXHX",
"9X5X9XqXmXmXwX%Xu B 4 S n Z A ,.U J Z Z A &.*.2.*.{ , = T n 8 5 3 N K D T P T S D I Z h y bXHXnXi - ; ; 6 S 7 7 u %XJX6X6XxXhXaX",
"rXsXwXrXwXrX0XsX^.a u d.F F H { $.#.1.x.:.>.T 2.O.I 2 * J V C u 6 > 5 < 2 N D M < n F g.~ nXbXbXq ; 1 F H o.L Q u _ /.bXiXHXdXpX",
"rX5X4X0XqXNXyXmX6X6X+X) ] [ [ C ..2.%.2.g.&.&.>.L < * < m n J *.] d.] ] 8 2 2 7 f.Z.I.P.P.{.JX~.; 7 P O.0.q.q.c u ~.aXiXuXdXdXdX",
"0XrX0XMXMXMXFXmX/.$XtX/.Q.) 9 9 g A P Z H A G R N n D A ] &.1.3.O.&.3XIX3Xc.[ :.K.P.2XI.2XN.JX(.a 7 E o.0.o.U y t ~.HXhXuXuXiXiX",
"/.tXFXFXFXMXmXDX0XkXkX=X6XrX/.) a r V h o.n < m D } <.g.Z.c.J.G.<.c.A.PXPXS.c.[ ] P.2X2X2XB.#X4X~.t 5 ~ u u t !.).).dXhXiXuXiXbX",
"pXNXkX*XkXmXmXmXMXMXMXFX*XtXNXBXuX%XE.~ ~ ~ M A 2.[ ] [ k.I.v.3.x.:..XUXPXc.x.x.S.2X2X3X2XJ._.KX9X/.(./.!.~.rX9XbXHX).hXdXdXbXHX",
"6XNXMXMXsXqXkXBXrXwXsXFXtXnXMXNXsXnXCXZX%X`.G :.%.2.] g.v.K.I.g.c.Z..XUX2Xv.v.S.P.2X2X2X2XI.[.gXbXbXxXaXbXbXHXbXaXbXiXiXbXbXsXiX",
"6XpXFXFXmXSXSXZXMXMXBXDXmXmXtXsXtXjXMXyXdXQ.A *.*.2.:.v.K.K.g.x.g.c..XUX1XZ.I.I.2X2X2X2XP.I./ gXnXbXHXbXHXKXbXHXHXvXbXhXiXaXdXaX",
"BXaXyXNXMX=XZXFXDXZXMXDXAXFXFXNXVX8X$X4XvXQ.Z *.C G x.v.c.P.K.:.2.g.k.IXS.v.v.v.L.2X2X2XP.J./ 5XsXdXHXdXxXGXGXdXaXdXvXHXHXGXGXpX",
"7XlXSXSXFXnXmXSXDXZXFXDXDXDXDXDXPXDXZXtXvX`.G *.] 2.3.L.K.c.v.p.x.:.g.3Xc.3.[ g.I.Z.2X2XL.h.a hXsXbXdXHXfXdXGXfXiXdXaXaXbXnXvXvX",
"%XrXDXZXtXAXjXNXBXSXSXDXDXDXFXFXSXjXjXjXJXOXM R g.g.h.c.L.I.x.<.3.O.2.g.:.<.v.c.Z.I.K.G.f._.R.hXdXfXbXxXuXxXGXHXaXiXaXbXcXnXbXGX",
"6XcXVXwXyXMXMXNXtXeXAXAXFXNXsX*XDXSXlXlXfX7XE./ F g.g.L.2XZ.H.3.2.g.S.S.h.h.v.L.K.I.v.B.oX:XR.gXdXdXiXsXcXvXcXVXcXfXHXvXJXZXbXJX",
"^.$XaX5X0X7XqXlXsX8XgXKXKXVXbXiXlXeXzXfXfXhXR.:X].s.g.d.g.c.J.3.4.h.<X3XJ.>.3.v.P.<X X&X>X_.Q.KXvXfXxXhXiXiXuXHXvXCXKXVXaXaXbXJX",
"^ ^ ! f.s.! ^ ! / a / m.`.`.]._._.`.'.]._.].a R.@XN.n.b.s.d.! d.g.] T k.f.d.s.s.b.-X#X#X>Xa p oXOX7XoX&XkX*X&X&X&X8XjX&X%XtXlXVX",
"q.q.5.5.9.` c ` ` ` x l Z C A z k A x x L L Z y oXe u _.M.N.m.N./ _.'.].'.'.oXoX#X-X#X#XoXF U T G f.T -.-.=.o.-.=.f.h.=.^ z.z.z.",
"r.y.q.y.y.7.5.q.q... .| A | | ` | | ' 9. .U ` 7 E.p R.t a m.b.n.n.M.{.'.@X@X:X&X@X@X&X;Xy I  .9.0.w.w.q.9.q.0.w.0.0.q.i.i.i.i.7.",
"r.,.u.y.w.w.w.w.9.| x L k l x | x | ' ....| } k a oX'.m.a e / / n.|.{.-X-X@X-X#X&XqX-X-XM  .} L U U @.0.9.w.o.w.w.y.r.7.y.r.q.y.",
"r.3.,.r.7.r.r.+.o.| ' | l } x } } $.X.9.+.X.' | r oX'.}.B.N.y y [.}.;X#X'.-X:X#XkX>X>Xp Z ..X. .9.' o.e.p.t.y.e.i.i.i.i.r.9.9.' ",
"e.3.u.e.r.u.u.X.| { } l } l } } } ..' ..X.w.#.w.Z E. Xn.n.B.n.}.{.@X:XoXoX#X#X&X:X,X X4 ` ` ` 9.r.i.w.t.i.e.e.i.i.i.i.i.r.;.w.5.",
"+.,.e.e.r.$.u.u.u.X.O.} } } } ..| O.X...X.,.1.1.L u `.|.D.D.D.}.{.].'.].@XoXoX@X*X;X/ Z 9.+.,.X.9.r.r.y.i.8.i.r.0.0.q.q.5.5.U 5.",
"` | t.e.r.e.e.i.6...-.-.2.-.O.+.O.#.X.#.X.w.9.+.$.^ #X#X[.D.D.}.#X#X[.[.'.@X-X#X#X'.5 x x q.5.7.7.6.7.i.7.r.r.6.r.5.` ..` |  .W ",
"| ' | | | O.#.+.$.$.w.e.#.#.,.O.o.O.1.2...+.,.,.t.R u oX`.{. X:X&X'.@X'.'.'.{.@X{./ h ` @.@.` ` 6.6.6.w.X.0.5.5.9.5.` ` @.J x W "
};
