/* XPM */
static char *the_tower_of_babel_resized[] = {
/* columns rows colors chars-per-pixel */
"64 64 256 2 ",
"   c #1B1506",
".  c #281B06",
"X  c #351B08",
"o  c #261C10",
"O  c #2C230A",
"+  c #33240A",
"@  c #35290C",
"#  c #3B2C0C",
"$  c #372608",
"%  c #3D320C",
"&  c #2C2512",
"*  c #3C2D12",
"=  c #362A14",
"-  c #3D3214",
";  c #373615",
":  c #4E1A04",
">  c #6F1E02",
",  c #432C0C",
"<  c #482909",
"1  c #562A0B",
"2  c #44320C",
"3  c #4B340C",
"4  c #49390D",
"5  c #57360C",
"6  c #452D14",
"7  c #433313",
"8  c #4B3314",
"9  c #483918",
"0  c #533C13",
"q  c #583916",
"w  c #5A2A14",
"e  c #6B2708",
"r  c #782807",
"t  c #673A0D",
"y  c #7B330D",
"u  c #653A16",
"i  c #763A15",
"p  c #702D12",
"a  c #4E3C24",
"s  c #6C3F22",
"d  c #38451D",
"f  c #394926",
"g  c #3A5535",
"h  c #37522B",
"j  c #3C603C",
"k  c #464319",
"l  c #584318",
"z  c #42501F",
"x  c #65440D",
"c  c #674818",
"v  c #774A18",
"b  c #6A5318",
"n  c #7B551B",
"m  c #76571A",
"M  c #79430D",
"N  c #75641C",
"B  c #454924",
"V  c #584724",
"C  c #5A5426",
"Z  c #4B5331",
"A  c #674A26",
"S  c #764B26",
"D  c #685628",
"F  c #775927",
"G  c #6E5934",
"H  c #4E6835",
"J  c #7A652B",
"K  c #786737",
"L  c #777439",
"P  c #6B6530",
"I  c #397253",
"U  c #395E41",
"Y  c #705E44",
"T  c #49704E",
"R  c #7B7547",
"E  c #6F6849",
"W  c #477A64",
"Q  c #696C58",
"!  c #86350D",
"~  c #97380C",
"^  c #893815",
"/  c #973813",
"(  c #8A2D0D",
")  c #A5390C",
"_  c #A63C13",
"`  c #B0360A",
"'  c #CA3505",
"]  c #874817",
"[  c #984718",
"{  c #875919",
"}  c #985B17",
"|  c #934D0D",
" . c #A84617",
".. c #B64916",
"X. c #A85819",
"o. c #B8561A",
"O. c #AD450B",
"+. c #86661C",
"@. c #97661B",
"#. c #A7671A",
"$. c #AF6D1B",
"%. c #845A25",
"&. c #9A5725",
"*. c #8F4D29",
"=. c #A85926",
"-. c #B45225",
";. c #886628",
":. c #966A27",
">. c #897228",
",. c #997429",
"<. c #876A35",
"1. c #966B34",
"2. c #8A7537",
"3. c #977637",
"4. c #A66827",
"5. c #B66628",
"6. c #A77828",
"7. c #B87628",
"8. c #A56A34",
"9. c #A27C3A",
"0. c #A57736",
"q. c #B77836",
"w. c #B16E33",
"e. c #C84C16",
"r. c #C65717",
"t. c #D85916",
"y. c #CD4E0F",
"u. c #CF6D1C",
"i. c #EA6916",
"p. c #C75C23",
"a. c #D45924",
"s. c #C76628",
"d. c #D56928",
"f. c #D5722B",
"g. c #CB732F",
"h. c #E27829",
"j. c #E65D11",
"k. c #877647",
"l. c #967A45",
"z. c #8B734F",
"x. c #AD734B",
"c. c #96725A",
"v. c #C7784A",
"b. c #31886C",
"n. c #3B875C",
"m. c #729251",
"M. c #4E8C71",
"N. c #759676",
"B. c #659962",
"V. c #79813E",
"C. c #9A813D",
"Z. c #929136",
"A. c #B78528",
"S. c #A78438",
"D. c #B8853B",
"F. c #B38F34",
"G. c #B7871E",
"H. c #CB9031",
"J. c #F08F36",
"K. c #D1A832",
"L. c #D19C1F",
"P. c #9A844B",
"I. c #928A53",
"U. c #A88948",
"Y. c #B68B47",
"T. c #A9914A",
"R. c #B6974A",
"E. c #A78B55",
"W. c #AA9557",
"Q. c #B59855",
"!. c #B48C57",
"~. c #BBA357",
"^. c #B9A450",
"/. c #91926D",
"(. c #AC946B",
"). c #8DAE6F",
"_. c #B9A566",
"`. c #B7AB78",
"'. c #B3AB78",
"]. c #87A658",
"[. c #C99548",
"{. c #C79756",
"}. c #CC934D",
"|. c #C3A959",
" X c #D1A752",
".X c #C79269",
"XX c #C7A965",
"oX c #CFB46F",
"OX c #E7B664",
"+X c #ECBE70",
"@X c #E7B35D",
"#X c #E0CA76",
"$X c #BEC07E",
"%X c #4FA891",
"&X c #6CAD94",
"*X c #70BAA8",
"=X c #57A390",
"-X c #72C4B6",
";X c #5CC4B9",
":X c #74D5CD",
">X c #7AE0DC",
",X c #359E8D",
"<X c #B1AC90",
"1X c #97BDB6",
"2X c #B2B8AA",
"3X c #9EA18C",
"4X c #D0B18F",
"5X c #C3B9A9",
"6X c #8CCBB5",
"7X c #ADCAB8",
"8X c #8DC298",
"9X c #E8D38A",
"0X c #CCCBB1",
"qX c #D9D59D",
"wX c #9ACBD2",
"eX c #93D0CE",
"rX c #A7CACA",
"tX c #B4CEC8",
"yX c #B6D3CB",
"uX c #A7CED3",
"iX c #A9D3D6",
"pX c #B4D4D3",
"aX c #B4D6D9",
"sX c #BCDBDC",
"dX c #BAD8D6",
"fX c #A7D4C7",
"gX c #92E2D8",
"hX c #B1E5D7",
"jX c #BBDEE2",
"kX c #BBE3E5",
"lX c #C4DCD9",
"zX c #CFD4C9",
"xX c #C8E4DD",
"cX c #DAE9DA",
"vX c #C3DEE2",
"bX c #C4E2E4",
"nX c #CBE3E4",
"mX c #CCE5E9",
"MX c #C9E9E9",
"NX c #D5E9EA",
"BX c #DBECED",
"VX c #D5E9E7",
"CX c #D9F2EB",
"ZX c #DAEDF1",
"AX c #D2F1F2",
"SX c #E3EEED",
"DX c #E5EEE7",
"FX c #E4F1EC",
"GX c #E9F3EB",
"HX c #E8F6F4",
"JX c #FCFBF5",
"KX c #FFFEFA",
"LX c #F4FAF2",
"PX c #F1F3EB",
"IX c #E6E7D4",
"UX c #9BBCC2",
/* pixels */
"7XtXrXrXrXrXrXuXwXiXdXdXsXiXiXuXwXwXUXwXwXaXpXtXrXUXUXUXUXtXtXtX2XtXaXtXtXtXtX5X(.c.<X.X/ 2XvXtXpXuXtXaXuXrXUXUXUXrXUXwX1X1X1X1X",
"pXaXlXyXpXpXpXaXaXaXdXsXpXpXaXaXaXuXuXiXaXaXuXuXUXrXrXuXrXpXrX5Xa.x.UXaXtXaXUX4X[ %.s.-.) s 7XyXpXaXaXlXpXjXuXwXuXwXuXwXrXyXlXtX",
"dXsXyXdXsXpXdXdXsXsXlXjXlXlXjXjXlXaXlXv.UXuXuXpXpXuXuXwXUXuXuX<X` ( *.tXjXvXzX.X.. .y.~ ! > <XnXpXpXaXlXjXaXwXeXwXwXiXiXpXaXlXlX",
"aXsXpXaXdXsXjXvXbXsXjXsXlXnXvXvXvXjX4X' (.vXvXvXvXaXaXaXvXaXpXa.` ( ^ c.x.x.x.) .._ e.y p > c.VXdXlXvXlXvXaXiXiXiXwXiXiXpXaXdXpX",
"nXnXmXvXjXjXjXjXmXvXvXmXvXnXnXnXvXjXv.` z.tXvXvXvXvXvXvXaXaXzXa._ p > c.x.` ( ( ~ p ..! y > *.zXvXvXlXnXbXmXvXvXjXjXjXjXvXjXjXvX",
"vXbXvXvXjXjXjXjXvXvXNXvXvXvXnXvXjXvXh.' z.7XmXjXvXvXaXaXaXjX<Xa.a./ ( *.-.*.-._  ./ ! ! ! r > 2XZXvXxXnXnXmXmXmXMXbXjXbXvXvXvXvX",
"nXnXmXvXbXvXmXbXmXmXmXmXmXmXmXvXkXvX-.` *.3X5XzXmXmXmXmXvXmXv./ ..( r _ -...-. .e.[ r y r ^ ( /.ZXvXnXmXmXmXmXmXMXkXbXmXmXbXmXmX",
"nXmXNXNXmXNXmXmXmXmXNXvXNXBXVXnXmXlXp._ ( *.<.v.4XmXzX5XZXmXv.( -.` / r _ -.w p r...~ ~ y y r S lXNXVXNXNXNXmXmXmXmXNXNXmXmXmXmX",
"VXmXmXNXBXBXBXNXNXBXBXmXVXVXNXnXNX2X-./ _ ^ x.e.e.v.x.-..X.X=./ _ _ ^ ^ / [ ^ ^  .^ / [ | ! y e 2XHXCXFXBXVXCXVXZXmXNXVXmXNXmXNX",
"NXBXZXZXBXZXZXZXZXNXZXNXNXNXNXNXZX<X_ _ _ y e ` ( _ ..-._ ` _ e _ *.-.-.y...[ ../ ) _ ~ ~ ^ p > z.FXhXeXnXSXhXsXZXZXVXVXVXBXVXVX",
"BXZXNXZXNXBXBXZXZXZXZXBXZXZXzX4XdX(._ ^  .^ e ~ ^ _  .^ ! / e.^ / i.e.w y.| e t.w -.( ~ ! ! ! : c.HXxX-X6XlX7XhXvXZXVXDXDXDXVXBX",
"ZXNXBXBXVXBXBXSXSXZXZXZXZXHX4Xd.(.x.e.e _ ../ ) _ / ^ ^ < _ _ / ..a.t...j.o.O.t.[ 0.R | ! r r i Y lXVX1X*X6X7XlXmXSXBXVXVXcXVXBX",
"SXBXSXBXZXBXBXBXZXSXSXBXDXSX.Xj.x.!.a.-.d.` ` ` ) ) y.r o.O. .d.e.i.t.[ t.o./ t.^ l././.=./ c.2X/.3XiX&X-XhXPXCXCXFXGXGXbXwXVXCX",
"ZXZXSXSXZXSXSXSXZXZXNXNXnXVX.Xy./ *....._ _ _ ( ( ( e._ j.e.f.s.^ i.r.i j.X.G w.u { ).fX3Xc.MX6X=XW b.M.M.6XVXCXBXCXGXVXgX*X-XhX",
"ZXZXBXZXSXSXBXZXZXSXHXzXv.(.x.y.-.s.s.p.p ) t.e.e._ ` _ e._ d.p.*.d.p. .r.o.*.] c.3X<X7X-XfX*X&XT I M.n.&XgXgXhXMXCXCXhXeX*X=X*X",
"HXFXZXSXSXSXSXSXSXSXSX.Xa.*.*...a.p.p.e.r _ e.j.a.t.t.d.h.f.g.f.g.d.f.-.o.o.$.p.T.).1X6X*X8XN.T I T T H *X;X%X:XgXkXMXfX&XM.M.=X",
"FXHXFXHXSXSXSXHXHXHXzX..t.o.-.e.e.y.p...^ t.t.j.t.u.i.g.g.g.J.4.%.%.J.| ] } $.k.J L E T M.N.n.z H Z T I T I U M.%XgXgX-X=XW W W ",
"FXSXSXHXSXSXSXSXSXHX5X..t.e.e.a.a.a.-...> ) r.r.r...J.=.4.*.J.v 8 u i.] [ ~ $.} { ).N.H Z H H Z d f Z h g h g b.;X:X;X=X=XW W T ",
"DXGXDXHXHXFXSXSXSXSXzX ...r.f.h.x.S *._ ^ / ....d.t.J.&.4.&.J.5.=.5.u.X.X.X.o.| n L H z k % 4 ; 2 k z H Z f T =X;X;X,X=X=XW T B ",
"GXBXPXDXDXSXSXFXNXHXzX^ p.f.f.-.p.0 v / _ ` t.&.i e.f.g.g.&.J.f.] o.h.i 1 ! X.p [ M : | t l 4 k k z z z H B T M.%X%XM.W T U g B ",
"AXhXhXDXPXDXGXFXHXHX.Xr.f.=.p. .s.z.*._ w p e.p 6 =.v.^ ] u g.5.: [ h.p w y [ p a * w  .p u l k 4 k B 9 d d T M.M.W T g Z B Z h ",
"hX>X:XDXPXDXFXGXLX(.o.s.5.5.d.s.g.x.&._ ^ ^ e.^ p [ g.p i S g.5.s &.p.*.] ] ] v c u ] ] M t 5 5 5 4 k Z g B T b.I U g d a 9 d h ",
"gXgXkXGXPXGXPXHXcXX.$.o.s.5.s.^ =.l.=.*.^ ^ ..^ S 8.w.8.8.x.H.w.w.4.7.7.4.=.X.#.] ] #.t t y t 5 5 0 4 k H I g T I U h d k k h j ",
">XkXCXCXFXCXVXxXxX5.r.5. .[  .] z.<.l.q.x.x.Y.v.}.{.@Xq.8.H.[.q.v v 4.H.S w ] 7.5 1 } t 1 M 1 t 3 5 3 4 f B B f h g h d % d d g ",
"-XgX-XxXhXhXgXCXHX!.O.^ ] &.w.w.!.!.}.}.Y.OX@Xx.1.@X+X*.w %.J.&.3 w 5.H.] u } $.] i | M t x 5 t 5 1 < < d d d d f h f f d h I I ",
"b.,X%X*X-XeXhXGXGX!.| 5.g.}.[. X{.c.OX=.i XX+Xs S @X@X8.<.4.H.4.:.[.[.H.g.:.#.4.} } M v t x t 5 5 5 1 : W -X%XM.I I b.b.I n.b.n.",
"-X;X%X,X-XhXxXcXx.4.u.g.q.}.1.[.Y.*.@X=.*.XX+XY.}.@X+XoX X}. X{.q.4.D.H.:.S *.:.u w M q 5 t < 5 1 1 < X z.LXcXfX:X-X-X-X-X%X%X%X",
"6X6X6XgXhXcXGXx.O.#.g.5.7.}.q.[.OXXXOX+XOX+XOXD.x.@X X,.:.S Y.8.u 6 :.[.u $ u 4.7 6 u w $ t 1 5 3 5 < < q PXPXPXAXHXKXLXCXhXhXcX",
"GXGXDXcXCXGXCXx.$.$.H.g.H. X}.@XoX!.OX{.<..X{.S 8 D.[.c s w [.1.= X %.H.w X p :.0 & = 8 6 5 q 8 3 < , 2 $ E 5XKXLXJXPXPXGXGXGXGX",
"JXJXJXKXJXLXKX4X#.$.u.A.0.Y.1.1.Q.E  XD.q 1.q.c , :.S.8 q 1 Y.;.6 w :.D.%.G F %.A q c c c t l q 2 < # # *   Q KXJXJXJXLXLXLXLXLX",
"JXJXKXJXJXJXKX0X{ } 4.:.1.9.<.(.4X/.Y.8.u %.8.%.s 3.U.<.c.P.!.!.E.Y.Y.Y.Y.l.0.1.,.{ q n 5 0 , 5 $ 6 2 2 * . 3XKXJXJXLXJXLXJXLXLX",
"JXJXJXKXJXJXKX(.x M X.4.:.3.l.(.<X'.!.U.U.Q.{.XX|._.{.!.R._.+X3.1.{.F E.Y.<.l.3.3.q . n 4 < < 8 # 2 # % 6 . <XKXJXJXJXJXJXJXJXJX",
"JXKXKXJXKX0X0X2.v } 8.l.W.Q.`.<X`.oXE.E.oXXX3.U.k.9XXXV G l.9X<.# {.+ l.Y.2.2.2.;.7 6 m u 5 q u # 3 * = * . /.KXKXKXJXKXJXJXJXJX",
"KXJXJXJXKX0XK ;.8.q.U.U._.>.`.z.z.oXK V _.XXs <.a 9XXXA G c.9Xl.7 XXl x.Y.S.3.+.m q c c c < 8 9 . 0 # @ = + Z KXJXKXJXKXKXJXKXJX",
"KXJXKXJXKXIXK ;.0.8.U.3.!.q P.z.R oX2.D (.oX3.W.z.9XoXk.Y._.9XXXU.XXT.Q.U.c S 3 F u X c 0 < q * = 6 9 = = * 7 3X0XKXKXJXJXKXJXKX",
"KXKXKXJXKXIXK :.w.4.U.C.W.l._.'.'.4XQ._.oX+X+XoX{.9XoXXXXXU.#XXXs P.q R.l.& 0 8 F 9 = 0 0 + $ , 6 * 9 * 7 9 9 O 2XKXJXKXKXJXKXJX",
"KXJXJXJXKXzXK :.5.4.l.;.C.F W.Y Z `.J A E.XXV G 7 oXP.a K = oXE.o K 2 0.<.X V 6 m = = O o + 2 7 8 8 0 2 0 6 7 = 0XKXJXJXJXJXKXJX",
"KXJXJXJXKX4XJ ;.4.&.<.%.<.c l.K Y W.D + k._.7 A * oXz.9 z.a XX1.. D # ;.G o a 8 F l 7 3 0 l l l l 0 k = 7 9 a @ 7XKXJXJXKXKXKXKX",
"GXPXJXLXIX2.c S ] #.J 3.%.K I.E Z I.D @ z.U.= V * {.G - G 8 U.<.V k.K 9.2.K J F m N 0 , 0 m & 7 c 9 k 9 9 7 * . 3XKXHXLXHXLXLXHX",
"6XfXyX7Xk.F F ] M &.%.>.F l././.R C.K G P.v D <.k.(.l.P.T.Q.W.W.T.3.2.>.>.;.F n n J 7 + # b = l b 2 4 , - * 7 & V 7XCXHXCXCXCXAX",
"B.B.B.m.N P ;.7.#.,.l.3.U.T.W.(.W.T.T._.Q.>.R.T.R.|.3.U.U.F ^.<.V 2.7 D C.l V D { J 6 * 4 x 0 l 0 & * @ * - 9 ; & a <XHXCXGXGXGX",
").].].).P N ;.o.=.K K ;.K 2.Z R `.I.P.T.T.A T.S J oXc J 3.X ^.<.6 <.8 m 2.x A %.>.m 7 8 4 c 7 - l & 7 - * 7 d ; Z Z 8XzX<X$XqXqX",
"].m.m.m.L D { $.5.3.J >.K 2.E R _.Z.R T.Y.c R.F F |.F <.C.q ^.S.F l.3.3.3.+.;.%.m >.@ , $ b - 7 b = 7 2 6 8 C G a = 3X).].m.m.Z.",
"B.m.].m.L D } 4.8.2.E.E.Q._.`.oXoX^.Q.|.R.S.^.F.R.|.Q.|.^.R.XX^.3.9.F ;.T.4 2 4 < C.= 2 + m 9 - l - 2 k V l V % o & T m.H H N N ",
"R m.R L R F } } &.G <.D I./.E z.W.G G 3.S.m S.l U.Q.F L >.k XX3.. F . A |.# 2 l 3 S.; 9 V J l 7 A G K G V * + % = & ; C N Z.Z.^.",
"I.m.I.L b m { ] :.F J A z.c.Z E P.9 9 D :.O >.. J S.$ V K O  X>.X <.8 n |.% % l 2 ,.l l k 7 k G D C 9 % % # % * @ @ & 7 >.].).N.",
"R P P W.0...X.r.} { ;.q Y E G R L 9 k D ,.# ;.+ F 3.% l F . [.;.X ;.5 n F.V D K P.U.P.c 0 0 q l , 5 9 # 2 $ # @ % @ @ B C b K R ",
"].m.C >.*.=.=.g.Y.R.S.2.I.'././.k.C a b { 8 { # +.m l J ;.K F.;.1.3.P.T.T.W.E.C.3.F m c 8 7 l c * 0 3 7 % @ $ @ % @ 9 B O 4 x C ",
"I.I.b N %.4.#.3.D.!.W._.`.(.'.(.W._.W.T.3.T.R.W.^.~.oXW.XXXX~.|.T.F.3.;.C.3.* F m c +.x 2 2 4 4 7 # 2 $ # + % $ % 4 V & O 2 3 4 ",
"P D N N +.g.7.;.{ 6.;.C.E.I.P.C.0.9.S.U.F S.U.3.S.3.:.S.F v ,.6.9 l.3.a S.3.a ;.l l n l # 2 0 % + O 2 O , $ $ 4 k D ; o O $ < 2 ",
"P b N b +.4.4.6.S.S.2.S.E.l.l.l.S.,.0.A.V :.c v H.9.;.A.l V A.6.6 1.2.9 6.;.l m F m c 0 7 * 2 4   + l $ + # l k 9 *   O O + < 1 ",
"P >.m m { } { ;.1.F <.3.W.W.I.l.3.F ;.:.9 :.c S $.%.F ,.m F 6.{ F >.:.J @.;.;.{ F 0 m % @ @ 4 l O + 5 4 C P D % + @ @ O O O < 1 ",
"L Z.@.@.$.X.+.2.J c D 2.G C /.P.3.,.6.:.<.3.,.3.0.S.U.6.0.6.,.:.F ;.;.0 +.n @ , 4 . b 4 O % # 7 $ l J F F k $ $ @ $ + O O ; @ 4 ",
"b S.4.u.h.X.] ;.b l C 2.E Q /.c A * 1.;.* ;.s c F.J 6 0.8 F S.F   q l   m n O 3 3 $ x 4 @ ; @ l b F l % $ $ $ % @ + $ + $ - @ 2 ",
"b { M | ..g.@.@.n 0 l k.Y N.(.C D * ;.+.. ;.6 6 0.b   :.* 5 S.A   l q   m +.$ 4 c D F N % O + # , $ $ $ 2 $ % $ $ @ # $ 7 * @ % ",
"N Z.m #.| ,.,.>.>.K z.<X/.3X/.G D 9 %.x . F $ x ,.c . +.6 t @.q + l l V n m J U.R.T.F ;.q . 3 $ < , 2 < 2 $ $ $ @ % 2 ; 9 % @ 4 ",
"+.+.v :.6.:.>.,.;.2.'.<X`.qX4X'._.W.>.v ;.n b %.m q G N G ,.,.F K S.Y.U.S.S.3.G +.v , 5 t O t # 3 5 3 , % O $ % O % 4 ; # % 2 l ",
"} l m { 4.3.,.:.,.C.P.k.I.W.E.Q.T.R.9.U.R.S.F.R.S.S.R.S.C.,.3.1.F ;.1.V n { n q n x 3 v 5 $ 4 $ t , . . 4 O . $ 2 b 5 $ # 2 9 D ",
"A.o.o.| @.:.;.6.S.R.U.P.k.P.<.,.%.+.n l @.b t +.+.b m +.0 F m b 8 n ,.q +.J F v { v l b x @ % O 2 l T * < $ 4 { +.v c < % l P C ",
"@.H.u.#.@.+.N ,.,.F.3.P.T.^.3.Z.N m l 4 { v v #.+.;.,.6.l ;.;.%.q %.#.:.6.@.c c x m 2 x m . $ O 3 l B = 0 N 9.,.x 3 , l V K G % ",
"l m A.:.l b >.l n @.v c F K.U.F.F.F.:.6.6.:.>.G.{ ;.F c u m +.A.6.G.A.%.4.G.x   4 l   l +.. # ; O * 7 V :.,.+.5 - x % P K C ; ; ",
", 3 b S.G.6.G.0 5 ;.D F ;.F.{ :.u K.A.S K.,.%.L.H.:.n A.u @.L.A.q v A.X { G.@.u 4 l * 2 b 7 O 9 F 6.6.:.v 1 t c 9 b P P k & f Z ",
"5 { x +.{ H.A.#.m 2.`.oX`.Z.:.7.v 6.+.1 A.v 5 #.H.n < L.| @.6.#.u t $.3 v { %.$.5 M ] } 4.,.G.A.,.{ < v u l m J ;.c C @ % % H 8X",
"t n q < m G.K.K.,.K.#X#XqXP.S.A.v 6.] i 6.u t ,.$.+.{ G.@.@.A.{ v n { { :.{ { #.| } #.} #.@.@.$.X # X $ q 5 n A b 4 % ; N J M.&X"
};
